<?xml version="1.0" encoding="UTF-8"?>
<map version="1.10" tiledversion="1.11.2" orientation="orthogonal" renderorder="right-down" width="75" height="75" tilewidth="16" tileheight="16" infinite="0" nextlayerid="16" nextobjectid="379">
 <tileset firstgid="1" name="mainlevbuild" tilewidth="16" tileheight="16" tilecount="2560" columns="64">
  <image source="tilsets/catacombs/mainlevbuild.png" width="1024" height="640"/>
 </tileset>
 <tileset firstgid="2561" name="TX Props" tilewidth="16" tileheight="16" tilecount="1024" columns="32">
  <image source="tilsets/maybe for main map/Texture/TX Props.png" width="512" height="512"/>
 </tileset>
 <tileset firstgid="3585" name="TX Plant" tilewidth="16" tileheight="16" tilecount="1024" columns="32">
  <image source="tilsets/maybe for main map/Texture/TX Plant.png" width="512" height="512"/>
 </tileset>
 <tileset firstgid="4609" name="TX Tileset Wall" tilewidth="16" tileheight="16" tilecount="1024" columns="32">
  <image source="tilsets/maybe for main map/Texture/TX Tileset Wall.png" width="512" height="512"/>
 </tileset>
 <tileset firstgid="5633" name="Houses Sprite Sheet" tilewidth="16" tileheight="16" tilecount="26460" columns="140">
  <image source="tilsets/houses/Houses Sprite Sheet.png" width="2250" height="3025"/>
 </tileset>
 <tileset firstgid="32093" name="TX Struct" tilewidth="16" tileheight="16" tilecount="1024" columns="32">
  <image source="tilsets/maybe for main map/Texture/TX Struct.png" width="512" height="512"/>
 </tileset>
 <tileset firstgid="33117" name="grass" tilewidth="16" tileheight="16" tilecount="256" columns="16">
  <image source="tilsets/maybe for main map/Texture/TX Tileset Grass.png" width="256" height="256"/>
 </tileset>
 <tileset firstgid="33373" name="TX Tileset Stone Ground" tilewidth="16" tileheight="16" tilecount="256" columns="16">
  <image source="tilsets/maybe for main map/Texture/TX Tileset Stone Ground.png" width="256" height="256"/>
 </tileset>
 <tileset firstgid="33629" name="Clouds" tilewidth="16" tileheight="16" tilecount="64" columns="8">
  <image source="tilsets/sky/Clouds V2-2.png" width="128" height="128"/>
 </tileset>
 <layer id="15" name="sky" width="75" height="75">
  <data encoding="csv">
33633,33634,33635,33636,33636,33633,33634,33635,33636,33633,33634,33633,33634,33635,33636,33636,33633,33634,33635,33636,33636,33633,33634,33633,33633,33634,33635,33636,33633,33634,33635,33636,33633,33634,33635,33636,33633,1610646370,1610646370,1610646371,1610646371,1610646371,1610646371,1610646371,1610646371,1610646371,1610646371,1610646371,1610646371,1610646371,1610646371,1610646371,1610646371,1610646371,1610646371,1610646371,1610646371,1610646371,1610646371,1610646371,1610646371,1610646371,1610646371,1610646371,1610646371,1610646371,1610646371,1610646371,1610646371,1610646371,1610646371,1610646371,1610646371,1610646371,1610646371,
33633,33634,33635,33636,33636,33633,33634,33635,33636,33633,33634,33633,33633,33634,33635,33636,33633,33634,33635,33636,33635,33633,33634,33635,33633,33634,33635,33633,33633,33633,33634,33635,33633,33634,33635,33636,33636,1610646369,1610646369,1610646370,1610646370,1610646370,1610646370,1610646370,1610646370,1610646370,1610646370,1610646370,1610646370,1610646370,1610646370,1610646370,1610646370,1610646370,1610646370,1610646370,1610646370,1610646370,1610646370,1610646370,1610646370,1610646370,1610646370,1610646370,1610646370,1610646372,1610646372,1610646372,1610646372,1610646372,1610646372,1610646372,1610646372,1610646372,1610646372,
33634,33635,33636,33636,33633,33634,33635,33636,33636,33633,33634,33633,33633,33634,33635,33636,33633,33634,33635,33636,33635,33633,33634,33635,33633,33634,33635,33633,33634,33633,33634,33635,33633,33634,33635,33636,33634,33635,1610646371,1610646369,1610646369,1610646369,1610646369,1610646369,1610646369,1610646369,1610646369,1610646369,1610646369,1610646369,1610646369,1610646372,1610646372,1610646372,1610646372,1610646372,1610646372,1610646372,1610646372,1610646372,1610646372,1610646372,1610646372,1610646372,1610646372,1610646371,1610646371,1610646371,1610646371,1610646371,1610646371,1610646371,1610646371,1610646371,1610646371,
33634,33635,33636,33635,33633,33634,33635,33636,33635,33633,33634,33633,33633,33634,33635,33633,33634,33635,33636,33636,33635,33633,33634,33635,33633,33634,33635,33633,33634,33633,33634,33635,33633,33634,33635,33636,1610646372,1610646372,1610646370,1610646370,1610646370,1610646370,1610646370,1610646370,1610646370,1610646370,1610646372,1610646372,1610646372,1610646372,1610646372,1610646372,1610646371,1610646371,1610646371,1610646371,1610646371,1610646371,1610646371,1610646371,1610646371,1610646371,1610646371,1610646371,1610646371,1610646370,1610646370,1610646370,1610646370,1610646370,33657,33658,33659,33660,1610646370,
33634,33635,33636,33635,33633,33634,33635,33636,33635,33633,33634,33633,33633,33633,33634,33633,33634,33635,33636,33634,33635,33633,33634,33635,33636,33633,33634,33633,33634,33633,33634,33633,33633,33634,33635,33636,1610646371,1610646371,1610646369,1610646369,1610646369,1610646369,1610646369,1610646369,1610646369,1610646369,1610646372,1610646372,1610646372,1610646372,1610646372,1610646372,1610646372,1610646372,1610646372,1610646372,1610646372,1610646372,1610646372,1610646372,1610646372,1610646372,1610646372,1610646372,1610646372,1610646372,1610646372,1610646372,1610646372,1610646372,33665,33666,33667,33668,1610646372,
33634,33635,33636,33635,33633,33634,33635,33636,33633,33634,33635,33633,33634,33633,33634,33633,33634,33635,33636,33634,33635,33633,33634,33635,33636,33633,33634,33633,33634,33633,33634,33633,33634,33635,33636,33634,1610646370,1610646370,1610646370,1610646370,1610646370,1610646370,1610646369,1610646369,1610646372,1610646372,1610646372,1610646372,1610646372,1610646372,1610646372,1610646371,1610646371,1610646371,1610646371,1610646371,1610646371,1610646371,1610646371,1610646371,1610646371,1610646371,1610646371,1610646371,1610646371,1610646371,1610646371,1610646371,1610646371,1610646371,33673,33674,33675,33676,1610646371,
33634,33635,33636,33634,33633,33634,33635,33636,33633,33634,33635,33633,33634,33633,33634,33633,33634,33635,33636,33634,33635,33633,33634,33635,33636,33633,33634,33633,33634,33633,33634,33635,33633,33634,33635,33633,1610646369,1610646369,1610646369,1610646369,1610646369,1610646369,1610646369,1610646369,1610646371,1610646371,1610646371,1610646371,1610646371,1610646372,1610646372,1610646372,1610646372,1610646372,1610646372,1610646372,1610646372,33670,33671,33672,1610646372,1610646372,1610646372,1610646372,1610646372,1610646372,33670,33671,33672,1610646372,33681,33682,33683,33684,1610646372,
33633,33634,33633,33634,33633,33634,33635,33636,33633,33634,33635,33633,33634,33633,33634,33633,33634,33635,33636,33634,33635,33633,33634,33635,33636,33633,33634,33633,33634,33633,33634,33633,33634,33635,33636,33633,33634,33635,33636,1610646372,1610646372,1610646369,1610646369,1610646369,1610646370,1610646370,1610646370,1610646370,1610646370,1610646371,1610646371,1610646371,1610646371,1610646371,1610646371,1610646371,1610646371,33678,33679,33680,1610646371,1610646371,1610646371,1610646371,1610646372,1610646372,33678,33679,33680,1610646372,33689,33690,33691,33692,1610646371,
33633,33634,33633,33634,33633,33634,33635,33636,33633,33634,33635,33633,33634,33633,33634,33633,33634,33635,33636,33634,33635,33633,33634,33635,33636,33633,33634,33635,33633,33633,33633,33634,33633,33633,33634,33633,33634,33635,33636,1610646371,1610646371,1610646371,1610646371,1610646371,1610646369,1610646369,1610646369,1610646369,1610646369,1610646370,1610646370,1610646370,1610646370,1610646370,1610646370,1610646370,1610646370,33686,33687,33688,1610646372,1610646372,33642,33643,1610646372,1610646371,33686,33687,33688,33629,33630,33631,33632,33633,1610646370,
33633,33634,33633,33634,33635,33636,33636,33634,33633,33634,33635,33633,33634,33635,33633,33633,33634,33635,33636,33633,33634,33633,33634,33635,33636,33633,33634,33635,33633,33634,33633,33633,33633,33633,33633,33634,33635,33636,33636,1610646370,1610646370,1610646370,1610646370,1610646370,1610646370,1610646370,1610646370,1610646370,1610646370,1610646369,1610646369,1610646369,33653,33654,33655,33656,1610646369,1610646372,1610646372,1610646372,1610646372,1610646372,33650,33651,1610646372,1610646372,1610646372,1610646372,1610646372,33637,33638,33639,33640,33641,1610646372,
33633,33634,33635,33633,33634,33635,33636,33634,33633,33634,33635,33633,33634,33635,33633,33633,33634,33635,33636,33633,33634,33633,33634,33635,33636,33633,33634,33635,33633,33634,33633,33633,33634,33633,33633,33634,33635,33636,33636,1610646369,1610646369,1610646369,1610646369,1610646369,1610646369,33629,33630,33631,33632,33633,1610646369,1610646369,33661,33662,33663,33664,1610646369,33653,33654,33655,1610646371,1610646371,1610646371,1610646371,1610646371,1610646371,1610646372,1610646372,1610646372,33645,33646,33647,33648,33649,1610646372,
33633,33634,33635,33636,33634,33635,33633,33634,33633,33634,33635,33633,33634,33635,33633,33633,33634,33635,33636,33653,33654,33655,33634,33635,33636,33633,33634,33635,33629,33630,33631,33632,33633,33633,33633,33634,33635,33636,33635,1610646372,1610646372,1610646372,1610646372,1610646369,1610646369,33637,33638,33639,33640,33641,1610646369,1610646369,1610646369,1610646369,1610646369,1610646369,1610646369,33661,33662,33663,33653,33654,33655,1610646372,33629,33630,33631,33632,33633,1610646372,1610646372,1610646372,1610646372,1610646372,1610646372,
33633,33634,33635,33636,33634,33635,33633,33634,33633,33634,33635,33633,33634,33635,33633,33633,33634,33635,33636,33661,33662,33663,33634,33635,33636,33633,33634,33635,33637,33638,33639,33640,33641,33635,33636,33633,33633,33634,33635,1610646371,33642,33643,1610646371,1610646371,1610646371,33645,33646,33647,33648,33649,1610646371,1610646371,1610646371,1610646371,1610646371,1610646371,1610646371,1610646369,1610646369,1610646369,33661,33662,33663,1610646371,33637,33638,33639,33640,33641,1610646371,1610646371,1610646371,1610646371,33642,33643,
33633,33634,33635,33636,33634,33633,33633,33633,33634,33635,33636,33633,33634,33635,33633,33633,33634,33635,33636,33633,33633,33634,33635,33636,33669,33633,33634,33635,33645,33646,33647,33648,33649,33634,33635,33633,33633,33634,33635,1610646370,33650,33651,1610646370,1610646370,1610646370,1610646370,1610646370,1610646370,1610646370,1610646370,33629,33630,33631,33632,33633,1610646370,1610646370,1610646370,1610646370,1610646370,1610646370,1610646370,1610646370,1610646370,33645,33646,33647,33648,33649,3221259160,3221259159,3221259158,1610646370,33650,33651,
33633,33634,33635,33636,33634,33633,33634,33633,33653,33654,33655,33633,33634,33657,33658,33659,33660,33633,33633,33633,33633,33634,33635,33636,33677,33633,33634,33635,33633,33634,33635,33636,33633,33633,33633,33633,33653,33654,33655,1610646369,1610646369,1610646369,1610646369,1610646369,3221259135,3221259134,3221259133,1610646369,1610646369,1610646369,33637,33638,33639,33640,33641,1610646369,1610646369,33670,33671,33672,1610646369,2684388246,2684388238,2684388230,1610646369,1610646369,1610646369,1610646369,1610646369,3221259152,3221259151,3221259150,1610646369,1610646369,1610646369,
33633,33634,33635,33636,33634,33633,33634,33633,33661,33662,33663,33633,33634,33665,33666,33667,33668,33635,33636,33633,33634,33635,33669,33670,33671,33672,33634,33635,33633,33634,33670,33671,33672,33634,33635,1610646372,33661,33662,33663,1610646372,1610646372,1610646372,1610646372,1610646372,3221259127,3221259126,3221259125,1610646372,1610646372,1610646372,33645,33646,33647,33648,33649,1610646372,1610646369,33678,33679,33680,1610646369,2684388247,2684388239,2684388231,33685,33686,33687,33688,33689,3221259144,3221259143,3221259142,33685,33686,33687,
33633,33634,33635,33636,33634,33633,33634,33633,33634,33635,33636,33633,33634,33673,33674,33675,33676,33635,33636,33633,33634,33635,33677,33678,33679,33680,33634,33635,33633,33634,33678,33679,33680,33634,1610646372,1610646372,1610646372,1610646372,1610646372,1610646372,1610646372,1610646372,1610646372,1610646372,1610646371,1610646371,1610646371,1610646371,1610646371,1610646371,1610646371,1610646371,1610646371,1610646371,1610646371,1610646371,1610646371,33686,33687,33688,1610646369,2684388248,2684388240,2684388232,33629,33630,33631,33632,33633,33634,33635,33636,33629,33630,33631,
33633,33634,33635,33636,33634,33633,33634,33633,33634,33635,33633,33634,33635,33681,33682,33683,33684,1610646372,1610646372,1610646372,1610646372,1610646372,33685,33686,33687,33688,1610646372,1610646372,1610646372,1610646372,33686,33687,33688,1610646380,1610646388,1610646371,1610646372,1610646372,1610646372,1610646372,33653,33654,33655,33656,1610646372,1610646372,1610646372,33669,33670,33671,33672,1610646372,1610646372,1610646372,1610646372,1610646372,1610646370,1610646370,1610646370,1610646369,1610646370,33642,33643,33644,33637,33638,33639,33640,33641,33642,33643,33644,33637,33638,33639,
33633,33634,33635,33636,33634,33633,33634,33633,33670,33671,33672,33634,33635,33689,33690,33691,33692,1610646371,33657,33658,33659,33660,1610646371,1610646371,1610646371,1610646371,3221259164,3221259163,3221259162,3221259161,1610646371,1610646371,1610646371,1610646379,1610646387,1610646370,1610646371,33670,33671,33672,33661,33662,33663,33664,1610646371,1610646371,1610646371,33677,33678,33679,33680,1610646371,1610646371,1610646371,2684388210,2684388202,1610646369,1610646369,1610646369,1610646369,1610646369,33650,33651,33652,33645,33646,33647,33648,33649,33650,33651,33652,33645,33646,33647,
33633,33634,33635,33636,33634,33633,33634,33633,33678,33679,33680,33634,33635,33636,1610646370,1610646370,1610646370,1610646370,33665,33666,33667,33668,1610646370,1610646370,1610646370,1610646370,3221259156,3221259155,3221259154,3221259153,1610646370,1610646370,1610646370,1610646378,1610646386,1610646369,1610646370,33678,33679,33680,1610646370,1610646370,1610646370,1610646370,1610646370,33653,33654,33655,33686,33687,33688,1610646370,1610646370,1610646370,2684388211,2684388203,33653,33654,33655,33656,33657,33658,33659,33660,33653,33654,33655,33656,33657,33658,33659,33660,33653,33654,33655,
33633,33634,33635,33636,33634,33633,33634,33633,33686,33687,33688,33635,33636,33634,1610646369,1610646369,1610646369,1610646369,33673,33674,33675,33676,1610646369,1610646369,1610646369,1610646369,3221259148,3221259147,3221259146,3221259145,1610646369,1610646369,1610646369,1610646369,1610646369,33664,1610646369,33686,33687,33688,1610646369,1610646369,1610646369,1610646369,1610646369,33661,33662,33663,1610646369,1610646369,1610646369,1610646369,1610646369,1610646369,2684388212,2684388204,33661,33662,33663,33664,33665,33666,33667,33668,33661,33662,33663,33664,33665,33666,33667,33668,33661,33662,33663,
33633,33634,33635,33636,33634,33633,33634,33635,33636,33634,33635,33629,33630,33631,33632,33633,33669,33670,33681,33682,33683,33684,33675,33676,33669,33670,3221259140,3221259139,3221259138,3221259137,33675,33676,33669,33670,33671,33672,33673,33674,33675,33676,33669,33670,33671,33672,33673,33674,33675,33676,33669,33670,33671,33672,33673,33674,33675,33676,33669,33670,33671,33672,33673,33674,33675,33676,33669,33670,33671,33672,33673,33674,33675,33676,33669,33670,33671,
33633,33634,33635,33636,33634,33633,33634,33635,33636,33634,33635,33637,33638,33639,33640,33641,33677,33678,33689,33690,33691,33692,33683,33684,33677,33678,3221259132,3221259131,3221259130,3221259129,33683,33684,33677,33678,33679,33680,33681,33682,33683,33684,33677,33678,33679,33680,33681,33682,33683,33684,33677,33678,33679,33680,33681,33682,33683,33684,33677,33678,33679,33680,33681,33682,33683,33684,33677,33678,33679,33680,33681,33682,33683,33684,33677,33678,33679,
33633,33653,33654,33655,33634,33633,33634,33635,33636,33634,33635,33645,33646,33647,33648,33649,33685,33686,33687,33688,33689,33690,33691,33692,33685,33686,33687,33688,33689,33690,33691,33692,33685,33686,33687,33688,33689,33690,33691,33692,33685,33686,33687,33688,33689,33690,33691,33692,33685,33686,33687,33688,33689,33690,33691,33692,33685,33686,33687,33688,33689,33690,33691,33692,33685,33686,33687,33688,33689,33690,33691,33692,33685,33686,33687,
33633,33661,33662,33663,33634,33633,33634,33635,33636,33634,33635,33636,33633,33634,33635,33636,33629,33630,33631,33632,33633,33634,33635,33636,33629,33630,33631,33632,33633,33634,33635,33636,33629,33630,33631,33632,33633,33634,33635,33636,33629,33630,33631,33632,33633,33634,33635,33636,33629,33630,33631,33632,33633,33634,33635,33636,33636,33636,33653,33654,33655,33634,33635,33636,33629,33630,33631,33632,33633,33634,33635,33636,33629,33630,33631,
33633,33634,33635,33636,33634,33633,33634,33635,33636,33634,33635,33636,33633,33634,33635,33636,33637,33638,33639,33640,33641,33642,33643,33644,33637,33638,33639,33640,33641,33642,33643,33644,33637,33638,33639,33640,33641,33642,33643,33644,33637,33638,33639,33640,33641,33642,33643,33644,33637,33638,33639,33640,33641,33642,33643,33644,33636,33636,33661,33662,33663,33642,33643,33644,33637,33638,33639,33640,33641,33642,33643,33644,33637,33638,33639,
33633,33634,33635,33636,33634,33629,33630,33631,33632,33633,33635,33636,33633,33634,33635,33636,33645,33646,33647,33648,33649,33650,33651,33652,33645,33646,33647,33648,33649,33650,33651,33652,33645,33646,33647,33648,33649,33650,33651,33652,33645,33646,33647,33648,33649,33650,33651,33652,33645,33646,33647,33648,33649,33650,33651,33652,2684388205,2684388197,2684388189,33636,33649,33650,33651,33652,33645,33646,33647,33648,33649,33650,33651,33652,33645,33646,33647,
33633,33634,33635,33636,33634,33637,33638,33639,33640,33641,33635,2684388221,2684388213,33634,33635,33636,33653,33654,33655,33656,33657,33658,33659,33660,33653,33654,33655,33656,33657,33658,33659,33660,33653,33654,33655,33656,33657,33658,33659,33660,33653,33654,33655,33656,33657,33658,33659,33660,33653,33654,33655,33656,33657,33658,33659,33660,2684388206,2684388198,2684388190,33656,33657,33658,33659,33660,33653,33654,33655,33656,33657,33658,33659,33660,33653,33654,33655,
33633,33634,33635,33636,33634,33645,33646,33647,33648,33649,33635,2684388222,2684388214,33634,33635,33636,33661,33662,33663,33664,33665,33666,33667,33668,33661,33662,33663,33664,33665,33666,33667,33668,33661,33662,33663,33664,33665,33666,33667,33668,33661,33662,33663,33664,33665,33666,33667,33668,33661,33662,33663,33664,33665,33666,33667,33668,2684388207,2684388199,2684388191,33664,33665,33666,33667,33668,33661,33662,33663,33664,33665,33666,33667,33668,33661,33662,33663,
33633,3221259160,3221259159,3221259158,33634,33633,33634,33635,33636,33634,33635,2684388223,2684388215,33634,33653,33654,33655,33656,33671,33672,33673,33674,33675,33676,33669,33670,33671,33672,33673,33674,33675,33676,33669,33670,33671,33672,33673,33674,33675,33676,33669,33670,33671,33672,33673,33674,33675,33676,33669,33670,33671,33672,33673,33674,33675,33676,2684388208,2684388200,2684388192,33636,33673,33674,33675,33676,33669,33670,33671,33672,33673,33674,33675,33676,33669,33670,33671,
33633,3221259152,3221259151,3221259150,33634,33635,33636,33636,33633,33634,33635,33636,33636,33634,33661,33662,33663,33664,33679,33680,33681,33682,33683,33684,33677,33678,33679,33680,33681,33682,33683,33684,33677,33678,33679,33680,33681,33682,33683,33684,33677,33678,33679,33680,33681,33682,33683,33684,33677,33678,33679,33680,33681,33682,33683,33684,2684388209,2684388201,33636,33636,33681,33682,33683,33684,33653,33654,33655,33656,33657,33658,33659,33660,33677,33678,33679,
33633,3221259144,3221259143,3221259142,33633,33634,33635,33636,33685,33633,33634,33635,33636,33634,33635,33636,33685,33686,33687,33688,33689,33690,33691,33692,33685,33686,33687,33688,33689,33690,33691,33692,33685,33686,33687,33688,33689,33690,33691,33692,33685,33686,33687,33688,33689,33690,33691,33692,33685,33686,33687,33688,33689,33690,33691,33692,33685,33686,33636,33636,33689,33690,33691,33692,33661,33662,33663,33664,33665,33666,33667,33668,33685,33686,33687,
33633,33634,33635,33636,33636,33636,33633,33634,33633,33634,33635,33636,33633,33634,33635,33636,33633,33634,33635,33636,33633,33634,33635,33636,33629,33630,33631,33632,33633,33634,33635,33636,33629,33630,33631,33632,33633,33634,33635,33636,33629,33630,33631,33632,33633,33634,33635,33636,33629,33630,33631,33632,33633,33634,33635,33636,33642,33643,33685,33686,33633,33634,33635,33636,33669,33670,33671,33672,33673,33674,33675,33676,33629,33630,33631,
33633,33634,33635,33636,33634,33635,33633,33642,33643,33634,33635,33636,33657,33658,33659,33660,33633,33633,33634,33635,33636,33653,33654,33655,33637,33638,33639,33640,33641,33642,33643,33644,33637,33638,33639,33640,33641,33642,33643,33644,33637,33638,33639,33640,33641,33642,33643,33644,33637,33638,33639,33640,33641,33642,33643,33644,33650,33651,33685,33685,33686,33657,33658,33659,33660,33678,33679,33680,33681,33682,33683,33684,33637,33638,33639,
33633,33629,33630,33631,33632,33633,33633,33650,33651,33634,33635,33636,33665,33666,33667,33668,33633,33633,33634,33635,33636,33661,33662,33663,33645,33646,33647,33648,33649,33650,33651,33652,33645,33646,33647,33648,33649,33650,33651,33652,33645,33646,33647,33648,33649,33650,33651,33652,33645,33646,33647,33648,33649,33650,33651,33652,33629,33630,33631,33632,33633,33665,33666,33667,33668,33686,33687,33688,33689,33690,33691,33692,33645,33646,33647,
33633,33637,33638,33639,33640,33641,33633,33634,33635,33636,33655,33656,33673,33674,33675,33676,33653,33654,33655,33656,33657,33658,33659,33660,33653,33654,33655,33656,33657,33658,33659,33660,33653,33654,33655,33656,33657,33658,33659,33660,33653,33654,33655,33656,33657,33658,33659,33660,33653,33654,33655,33656,33657,33658,33659,33660,33637,33638,33639,33640,33641,33658,33659,33660,33653,33654,33655,33656,33657,33658,33659,33660,33653,33654,33655,
33633,33645,33646,33647,33648,33649,33633,33634,33635,33636,33663,33664,33681,33682,33683,33684,33661,33662,33663,33664,33665,33666,33667,33668,33661,33662,33663,33664,33665,33666,33667,33668,33661,33662,33663,33664,33665,33666,33667,33668,33661,33662,33663,33664,33665,33666,33667,33668,33661,33662,33663,33664,33665,33666,33667,33668,33661,33662,33663,33664,33665,33666,33667,33668,33661,33662,33663,33664,33665,33666,33667,33668,33661,33662,33663,
33633,33634,33635,33636,33633,33634,33633,33634,33635,33636,33671,33672,33689,33690,33691,33692,33669,33670,33671,33672,33673,33674,33675,33676,33669,33670,33671,33672,33673,33674,33675,33676,33669,33670,33671,33672,33673,33674,33675,33676,33669,33670,33671,33672,33673,33674,33675,33676,33669,33670,33671,33672,33673,33674,33675,33676,33669,33670,33671,33672,33673,33674,33675,33676,33669,33670,33671,33672,33673,33674,33675,33676,33669,33670,33671,
33633,33634,33635,33636,33633,33634,33633,33634,33635,33636,33679,33680,33681,33682,33683,33684,33677,33678,33679,33680,33681,33682,33683,33684,33677,33678,33679,33680,33681,33682,33683,33684,33677,33678,33679,33680,33681,33682,33683,33684,33677,33678,33679,33680,33681,33682,33683,33684,33677,33678,33679,33680,33681,33682,33683,33684,33677,33678,33679,33680,33681,33682,33683,33684,33677,33678,33679,33680,33681,33682,33683,33684,33677,33678,33679,
33633,33634,33635,33636,33633,33634,33670,33671,33672,33636,33687,33688,33689,33690,33691,33692,33685,33686,33687,33688,33689,33690,33691,33692,33685,33686,33687,33688,33689,33690,33691,33692,33685,33686,33687,33688,33689,33690,33691,33692,33685,33686,33687,33688,33689,33690,33691,33692,33685,33686,33687,33688,33689,33690,33691,33692,33685,33686,33687,33688,33689,33690,33691,33692,33685,33686,33687,33688,33689,33690,33691,33692,33685,33686,33687,
33653,33654,33655,33635,33636,33634,33678,33679,33680,33636,33631,33632,33633,33634,33635,33636,33629,33630,33631,33632,33633,33634,33635,33636,33629,33630,33631,33632,33633,33634,33635,33636,33629,33630,33631,33632,33633,33634,33635,33636,33629,33630,33631,33632,33633,33634,33635,33636,33629,33630,33631,33632,33633,33634,33635,33636,33629,33630,33631,33632,33633,33634,33635,33636,33629,33630,33631,33632,33633,33634,33635,33636,33629,33630,33631,
33661,33662,33663,33636,33633,33634,33686,33687,33688,33636,33639,33640,33641,33642,33643,33644,33637,33638,33639,33640,33641,33642,33643,33644,33637,33638,33639,33640,33641,33642,33643,33644,33637,33638,33639,33640,33641,33642,33643,33644,33637,33638,33639,33640,33641,33642,33643,33644,33637,33638,33639,33640,33641,33642,33643,33644,33637,33638,33639,33640,33641,33642,33643,33644,33637,33638,33639,33640,33641,33642,33643,33644,33637,33638,33639,
33633,33634,33635,33636,33633,33634,33633,33634,33635,33636,33647,33648,33649,33650,33651,33652,33645,33646,33647,33648,33649,33650,33651,33652,33645,33646,33647,33648,33649,33650,33651,33652,33645,33646,33647,33648,33649,33650,33651,33652,33645,33646,33647,33648,33649,33650,33651,33652,33645,33646,33647,33648,33649,33650,33651,33652,33645,33646,33647,33648,33649,33650,33651,33652,33645,33646,33647,33648,33649,33650,33651,33652,33645,33646,33647,
33653,33654,33655,33656,33657,33658,33659,33660,33653,33654,33655,33656,33657,33658,33659,33660,33653,33654,33655,33656,33657,33658,33659,33660,33653,33654,33655,33656,33657,33658,33659,33660,33653,33654,33655,33656,33657,33658,33659,33660,33653,33654,33655,33656,33657,33658,33659,33660,33653,33654,33655,33656,33657,33658,33659,33660,33653,33654,33655,33656,33657,33658,33659,33660,33653,33654,33655,33656,33657,33658,33659,33660,33653,33654,33655,
33661,33662,33663,33664,33665,33666,33667,33668,33661,33662,33663,33664,33665,33666,33667,33668,33661,33662,33663,33664,33665,33666,33667,33668,33661,33662,33663,33664,33665,33666,33667,33668,33661,33662,33663,33664,33665,33666,33667,33668,33661,33662,33663,33664,33665,33666,33667,33668,33661,33662,33663,33664,33665,33666,33667,33668,33661,33662,33663,33664,33665,33666,33667,33668,33661,33662,33663,33664,33665,33666,33667,33668,33661,33662,33663,
33669,33670,33671,33672,33673,33674,33675,33676,33669,33670,33671,33672,33673,33674,33675,33676,33669,33670,33671,33672,33673,33674,33675,33676,33669,33670,33671,33672,33673,33674,33675,33676,33669,33670,33671,33672,33673,33674,33675,33676,33669,33670,33671,33672,33673,33674,33675,33676,33669,33670,33671,33672,33673,33674,33675,33676,33669,33670,33671,33672,33673,33674,33675,33676,33669,33670,33671,33672,33673,33674,33675,33676,33669,33670,33671,
33677,33678,33679,33680,33681,33682,33683,33684,33677,33678,33679,33680,33681,33682,33683,33684,33677,33678,33679,33680,33681,33682,33683,33684,33677,33678,33679,33680,33681,33682,33683,33684,33677,33678,33679,33680,33681,33682,33683,33684,33677,33678,33679,33680,33681,33682,33683,33684,33677,33678,33679,33680,33681,33682,33683,33684,33677,33678,33679,33680,33681,33682,33683,33684,33677,33678,33679,33680,33681,33682,33683,33684,33677,33678,33679,
33685,33686,33687,33688,33689,33690,33691,33692,33685,33686,33687,33688,33689,33690,33691,33692,33685,33686,33687,33688,33689,33690,33691,33692,33685,33686,33687,33688,33689,33690,33691,33692,33685,33686,33687,33688,33689,33690,33691,33692,33685,33686,33687,33688,33689,33690,33691,33692,33685,33686,33687,33688,33689,33690,33691,33692,33685,33686,33687,33688,33689,33690,33691,33692,33685,33686,33687,33688,33689,33690,33691,33692,33685,33686,33687,
33629,33630,33631,33632,33633,33634,33635,33636,33629,33630,33631,33632,33633,33634,33635,33636,33629,33630,33631,33632,33633,33634,33635,33636,33629,33630,33631,33632,33633,33634,33635,33636,33629,33630,33631,33632,33633,33634,33635,33636,33629,33630,33631,33632,33633,33634,33635,33636,33629,33630,33631,33632,33633,33634,33635,33636,33629,33630,33631,33632,33633,33634,33635,33636,33629,33630,33631,33632,33633,33634,33635,33636,33629,33630,33631,
33637,33638,33639,33640,33641,33642,33643,33644,33637,33638,33639,33640,33641,33642,33643,33644,33637,33638,33639,33640,33641,33642,33643,33644,33637,33638,33639,33640,33641,33642,33643,33644,33637,33638,33639,33640,33641,33642,33643,33644,33637,33638,33639,33640,33641,33642,33643,33644,33637,33638,33639,33640,33641,33642,33643,33644,33637,33638,33639,33640,33641,33642,33643,33644,33637,33638,33639,33640,33641,33642,33643,33644,33637,33638,33639,
33645,33646,33647,33648,33649,33650,33651,33652,33645,33646,33647,33648,33649,33650,33651,33652,33645,33646,33647,33648,33649,33650,33651,33652,33645,33646,33647,33648,33649,33650,33651,33652,33645,33646,33647,33648,33649,33650,33651,33652,33645,33646,33647,33648,33649,33650,33651,33652,33645,33646,33647,33648,33649,33650,33651,33652,33645,33646,33647,33648,33649,33650,33651,33652,33645,33646,33647,33648,33649,33650,33651,33652,33645,33646,33647,
33653,33654,33655,33656,33657,33658,33659,33660,33653,33654,33655,33656,33657,33658,33659,33660,33653,33654,33655,33656,33657,33658,33659,33660,33653,33654,33655,33656,33657,33658,33659,33660,33653,33654,33655,33656,33657,33658,33659,33660,33653,33654,33655,33656,33657,33658,33659,33660,33653,33654,33655,33656,33657,33658,33659,33660,33653,33654,33655,33656,33657,33658,33659,33660,33653,33654,33655,33656,33657,33658,33659,33660,33653,33654,33655,
33661,33662,33663,33664,33665,33666,33667,33668,33661,33662,33663,33664,33665,33666,33667,33668,33661,33662,33663,33664,33665,33666,33667,33668,33661,33662,33663,33664,33665,33666,33667,33668,33661,33662,33663,33664,33665,33666,33667,33668,33661,33662,33663,33664,33665,33666,33667,33668,33661,33662,33663,33664,33665,33666,33667,33668,33661,33662,33663,33664,33665,33666,33667,33668,33661,33662,33663,33664,33665,33666,33667,33668,33661,33662,33663,
33669,33670,33671,33672,33673,33674,33675,33676,33669,33670,33671,33672,33673,33674,33675,33676,33669,33670,33671,33672,33673,33674,33675,33676,33669,33670,33671,33672,33673,33674,33675,33676,33669,33670,33671,33672,33673,33674,33675,33676,33669,33670,33671,33672,33673,33674,33675,33676,33669,33670,33671,33672,33673,33674,33675,33676,33669,33670,33671,33672,33673,33674,33675,33676,33669,33670,33671,33672,33673,33674,33675,33676,33669,33670,33671,
33677,33678,33679,33680,33681,33682,33683,33684,33677,33678,33679,33680,33681,33682,33683,33684,33677,33678,33679,33680,33681,33682,33683,33684,33677,33678,33679,33680,33681,33682,33683,33684,33677,33678,33679,33680,33681,33682,33683,33684,33677,33678,33679,33680,33681,33682,33683,33684,33677,33678,33679,33680,33681,33682,33683,33684,33677,33678,33679,33680,33681,33682,33683,33684,33677,33678,33679,33680,33681,33682,33683,33684,33677,33678,33679,
33685,33686,33687,33688,33689,33690,33691,33692,33685,33686,33687,33688,33689,33690,33691,33692,33685,33686,33687,33688,33689,33690,33691,33692,33685,33686,33687,33688,33689,33690,33691,33692,33685,33686,33687,33688,33689,33690,33691,33692,33685,33686,33687,33688,33689,33690,33691,33692,33685,33686,33687,33688,33689,33690,33691,33692,33685,33686,33687,33688,33689,33690,33691,33692,33685,33686,33687,33688,33689,33690,33691,33692,33685,33686,33687,
33629,33630,33631,33632,33633,33634,33635,33636,33629,33630,33631,33632,33633,33634,33635,33636,33629,33630,33631,33632,33633,33634,33635,33636,33629,33630,33631,33632,33633,33634,33635,33636,33629,33630,33631,33632,33633,33634,33635,33636,33629,33630,33631,33632,33633,33634,33635,33636,33629,33630,33631,33632,33633,33634,33635,33636,33629,33630,33631,33632,33633,33634,33635,33636,33629,33630,33631,33632,33633,33634,33635,33636,33629,33630,33631,
33637,33638,33639,33640,33641,33642,33643,33644,33637,33638,33639,33640,33641,33642,33643,33644,33637,33638,33639,33640,33641,33642,33643,33644,33637,33638,33639,33640,33641,33642,33643,33644,33637,33638,33639,33640,33641,33642,33643,33644,33637,33638,33639,33640,33641,33642,33643,33644,33637,33638,33639,33640,33641,33642,33643,33644,33637,33638,33639,33640,33641,33642,33643,33644,33637,33638,33639,33640,33641,33642,33643,33644,33637,33638,33639,
33645,33646,33647,33648,33649,33650,33651,33652,33645,33646,33647,33648,33649,33650,33651,33652,33645,33646,33647,33648,33649,33650,33651,33652,33645,33646,33647,33648,33649,33650,33651,33652,33645,33646,33647,33648,33649,33650,33651,33652,33645,33646,33647,33648,33649,33650,33651,33652,33645,33646,33647,33648,33649,33650,33651,33652,33645,33646,33647,33648,33649,33650,33651,33652,33645,33646,33647,33648,33649,33650,33651,33652,33645,33646,33647,
33692,33692,33692,33656,33692,33642,33643,33660,33692,33692,33655,33656,33657,33658,33659,33660,33653,33654,33655,33656,33657,33658,33659,33660,33653,33654,33655,33656,33657,33658,33659,33660,33653,33654,33655,33656,33657,33658,33659,33660,33653,33654,33655,33656,33657,33658,33659,33660,33653,33654,33655,33656,33657,33658,33659,33660,33653,33654,33655,33656,33657,33658,33659,33660,33653,33654,33655,33656,33657,33658,33659,33660,33653,33654,33655,
33692,33692,33692,33664,33692,33650,33651,33692,33692,33692,33692,33664,33665,33666,33667,33668,33661,33662,33663,33664,33665,33666,33667,33668,33661,33662,33663,33664,33665,33666,33667,33668,33661,33662,33663,33664,33665,33666,33667,33668,33661,33662,33663,33664,33665,33666,33667,33668,33661,33662,33663,33664,33665,33666,33667,33668,33661,33662,33663,33664,33665,33666,33667,33668,33661,33662,33663,33664,33665,33666,33667,33668,33661,33662,33663,
33669,33670,33671,33672,33692,33692,33692,33692,33669,33670,33671,33672,33673,33674,33675,33676,33669,33670,33671,33672,33673,33674,33675,33676,33669,33670,33671,33672,33673,33674,33675,33676,33669,33670,33671,33672,33673,33674,33675,33676,33669,33670,33671,33672,33673,33674,33675,33676,33669,33670,33671,33672,33673,33674,33675,33676,33669,33670,33671,33672,33673,33674,33675,33676,33669,33670,33671,33672,33673,33674,33675,33676,33669,33670,33671,
33677,33678,33679,33680,33692,33692,33692,33684,33677,33678,33679,33680,33681,33682,33683,33684,33677,33678,33679,33680,33681,33682,33683,33684,33677,33678,33679,33680,33681,33682,33683,33684,33677,33678,33679,33680,33681,33682,33683,33684,33677,33678,33679,33680,33681,33682,33683,33684,33677,33678,33679,33680,33681,33682,33683,33684,33677,33678,33679,33680,33681,33682,33683,33684,33677,33678,33679,33680,33681,33682,33683,33684,33677,33678,33679,
33685,33686,33687,33688,33689,33690,33691,33692,33685,33686,33687,33688,33689,33690,33691,33692,33685,33686,33687,33688,33689,33690,33691,33692,33685,33686,33687,33688,33689,33690,33691,33692,33685,33686,33687,33688,33689,33690,33691,33692,33685,33686,33687,33688,33689,33690,33691,33692,33685,33686,33687,33688,33689,33690,33691,33692,33685,33686,33687,33688,33689,33690,33691,33692,33685,33686,33687,33688,33689,33690,33691,33692,33685,33686,33687,
33629,33630,33631,33632,33633,33634,33635,33636,33629,33630,33631,33632,33633,33634,33635,33636,33629,33630,33631,33632,33633,33634,33635,33636,33629,33630,33631,33632,33633,33634,33635,33636,33629,33630,33631,33632,33633,33634,33635,33636,33629,33630,33631,33632,33633,33634,33635,33636,33629,33630,33631,33632,33633,33634,33635,33636,33629,33630,33631,33632,33633,33634,33635,33636,33629,33630,33631,33632,33633,33634,33635,33636,33629,33630,33631,
33637,33638,33639,33640,33641,33642,33643,33644,33637,33638,33639,33640,33641,33642,33643,33644,33637,33638,33639,33640,33641,33642,33643,33644,33637,33638,33639,33640,33641,33642,33643,33644,33637,33638,33639,33640,33641,33642,33643,33644,33637,33638,33639,33640,33641,33642,33643,33644,33637,33638,33639,33640,33641,33642,33643,33644,33637,33638,33639,33640,33641,33642,33643,33644,33637,33638,33639,33640,33641,33642,33643,33644,33637,33638,33639,
33645,33646,33647,33648,33649,33650,33651,33652,33645,33646,33647,33648,33649,33650,33651,33652,33645,33646,33647,33648,33649,33650,33651,33652,33645,33646,33647,33648,33649,33650,33651,33652,33645,33646,33647,33648,33649,33650,33651,33652,33645,33646,33647,33648,33649,33650,33651,33652,33645,33646,33647,33648,33649,33650,33651,33652,33645,33646,33647,33648,33649,33650,33651,33652,33645,33646,33647,33648,33649,33650,33651,33652,33645,33646,33647,
33692,33692,33692,33656,33657,33658,33659,33660,33653,33654,33655,33656,33657,33658,33659,33660,33653,33654,33655,33656,33657,33658,33659,33660,33653,33654,33655,33656,33657,33658,33659,33660,33653,33654,33655,33656,33657,33658,33659,33660,33653,33654,33655,33656,33657,33658,33659,33660,33653,33654,33655,33656,33657,33658,33659,33660,33653,33654,33655,33656,33657,33658,33659,33660,33653,33654,33655,33656,33657,33658,33659,33660,33653,33654,33655,
33692,33692,33692,33664,33665,33666,33667,33668,33661,33662,33663,33664,33665,33666,33667,33668,33661,33662,33663,33664,33665,33666,33667,33668,33661,33662,33663,33664,33665,33666,33667,33668,33661,33662,33663,33664,33665,33666,33667,33668,33661,33662,33663,33664,33665,33666,33667,33668,33661,33662,33663,33664,33665,33666,33667,33668,33661,33662,33663,33664,33665,33666,33667,33668,33661,33662,33663,33664,33665,33666,33667,33668,33661,33662,33663,
33669,33670,33671,33672,33673,33674,33675,33676,33669,33670,33671,33672,33673,33674,33675,33676,33669,33670,33671,33672,33673,33674,33675,33676,33669,33670,33671,33672,33673,33674,33675,33676,33669,33670,33671,33672,33673,33674,33675,33676,33669,33670,33671,33672,33673,33674,33675,33676,33669,33670,33671,33672,33673,33674,33675,33676,33669,33670,33671,33672,33673,33674,33675,33676,33669,33670,33671,33672,33673,33674,33675,33676,33669,33670,33671,
33677,33678,33679,33680,33681,33682,33683,33684,33677,33678,33679,33680,33681,33682,33683,33684,33677,33678,33679,33680,33681,33682,33683,33684,33677,33678,33679,33680,33681,33682,33683,33684,33677,33678,33679,33680,33681,33682,33683,33684,33677,33678,33679,33680,33681,33682,33683,33684,33677,33678,33679,33680,33681,33682,33683,33684,33677,33678,33679,33680,33681,33682,33683,33684,33677,33678,33679,33680,33681,33682,33683,33684,33677,33678,33679,
33692,33692,33692,33688,33689,33690,33691,33692,33685,33686,33687,33688,33689,33690,33691,33692,33685,33686,33687,33688,33689,33690,33691,33692,33685,33686,33687,33688,33689,33690,33691,33692,33685,33686,33687,33688,33689,33690,33691,33692,33685,33686,33687,33688,33689,33690,33691,33692,33685,33686,33687,33688,33689,33690,33691,33692,33685,33686,33687,33688,33689,33690,33691,33692,33685,33686,33687,33688,33689,33690,33691,33692,33685,33686,33687,
33692,2684388249,2684388241,2684388233,33633,33634,33635,33636,33629,33630,33631,33632,33633,33634,33635,33636,33629,33630,33631,33632,33633,33634,33635,33636,33629,33630,33631,33632,33633,33634,33635,33636,33629,33630,33631,33632,33633,33634,33635,33636,33629,33630,33631,33632,33633,33634,33635,33636,33629,33630,33631,33632,33633,33634,33635,33636,33629,33630,33631,33632,33633,33634,33635,33636,33629,33630,33631,33632,33633,33634,33635,33636,33629,33630,33631,
33692,2684388250,2684388242,2684388234,33641,33642,33643,33644,33637,33638,33639,33640,33641,33642,33643,33644,33637,33638,33639,33640,33641,33642,33643,33644,33637,33638,33639,33640,33641,33642,33643,33644,33637,33638,33639,33640,33641,33642,33643,33644,33637,33638,33639,33640,33641,33642,33643,33644,33637,33638,33639,33640,33641,33642,33643,33644,33637,33638,33639,33640,33641,33642,33643,33644,33637,33638,33639,33640,33641,33642,33643,33644,33637,33638,33639,
33692,2684388251,2684388243,2684388235,33649,33650,33651,33652,33645,33646,33647,33648,33649,33650,33651,33652,33645,33646,33647,33648,33649,33650,33651,33652,33645,33646,33647,33648,33649,33650,33651,33652,33645,33646,33647,33648,33649,33650,33651,33652,33645,33646,33647,33648,33649,33650,33651,33652,33645,33646,33647,33648,33649,33650,33651,33652,33645,33646,33647,33648,33649,33650,33651,33652,33645,33646,33647,33648,33649,33650,33651,33652,33645,33646,33647
</data>
 </layer>
 <layer id="2" name="grass" width="75" height="75">
  <data encoding="csv">
0,0,0,0,0,0,0,0,0,0,0,0,0,0,0,0,0,0,0,0,0,0,0,0,0,0,0,0,0,0,0,0,0,0,0,0,0,0,0,0,0,0,0,0,0,0,0,0,0,0,0,0,0,0,0,0,0,0,0,0,0,0,0,0,0,0,0,0,0,0,0,0,0,0,0,
0,0,0,0,0,0,0,0,0,0,0,0,0,0,0,0,0,0,0,0,0,0,0,0,0,0,0,0,0,0,0,0,0,0,0,0,0,0,0,0,0,0,0,0,0,0,0,0,0,0,0,0,0,0,0,0,0,0,0,0,0,0,0,0,0,0,0,0,0,0,0,0,0,0,0,
0,0,0,0,0,0,0,0,0,0,0,0,0,0,0,0,0,0,0,0,0,0,0,0,0,0,0,0,0,0,0,0,0,0,0,0,0,0,0,0,0,0,0,0,0,0,0,0,0,0,0,0,0,0,0,0,0,0,0,0,0,0,0,0,0,0,0,0,0,0,0,0,0,0,0,
0,0,0,0,0,0,0,0,0,0,0,0,0,0,0,0,0,0,0,0,0,0,0,0,0,0,0,0,0,0,0,0,0,0,0,0,0,0,0,0,0,0,0,0,0,0,0,0,0,0,0,0,0,0,0,0,0,0,0,0,0,0,0,0,0,0,0,0,0,0,0,0,0,0,0,
0,0,0,0,0,0,0,0,0,0,0,0,0,0,0,0,0,0,0,0,0,0,0,0,0,0,0,0,0,0,0,0,0,0,0,0,0,0,0,0,0,0,0,0,0,0,0,0,0,0,0,0,0,0,0,0,0,0,0,0,0,0,0,0,0,0,0,0,0,0,0,0,0,0,0,
0,0,0,0,0,0,0,0,0,0,0,0,0,0,0,0,0,0,0,0,0,0,0,0,0,0,0,0,0,0,0,0,0,0,0,0,0,0,0,0,0,0,0,0,0,0,0,0,0,0,0,0,0,0,0,0,0,0,0,0,0,0,0,0,0,0,0,0,0,0,0,0,0,0,0,
0,0,0,0,0,0,0,0,0,0,0,0,0,0,0,0,0,0,0,0,0,0,0,0,0,0,0,0,0,0,0,0,0,0,0,0,0,0,0,0,0,0,0,0,0,0,0,0,0,0,0,0,0,0,0,0,0,0,0,0,0,0,0,0,0,0,0,0,0,0,0,0,0,0,0,
0,0,0,0,0,0,0,0,0,0,0,0,0,0,0,0,0,0,0,0,0,0,0,0,0,0,0,0,0,0,0,0,0,0,0,0,0,0,0,0,0,0,0,0,0,0,0,0,0,0,0,0,0,0,0,0,0,0,0,0,0,0,0,0,0,0,0,0,0,0,0,0,0,0,0,
0,0,0,0,0,0,0,0,0,0,0,0,0,0,0,0,0,0,0,0,0,0,0,0,0,0,0,0,0,0,0,0,0,0,0,0,0,0,0,0,0,0,0,0,0,0,0,0,0,0,0,0,0,0,0,0,0,0,0,0,0,0,0,0,0,0,0,0,0,0,0,0,0,0,0,
0,0,0,0,0,0,0,0,0,0,0,0,0,0,0,0,0,0,0,0,0,0,0,0,0,0,0,0,0,0,0,0,0,0,0,0,0,0,0,0,0,0,0,0,0,0,0,0,0,0,0,0,0,0,0,0,0,0,0,0,0,0,0,0,0,0,0,0,0,0,0,0,0,0,0,
0,0,0,0,0,0,0,0,0,0,0,0,0,0,0,0,0,0,0,0,0,0,0,0,0,0,0,0,0,0,0,0,0,0,0,0,0,0,0,0,0,0,0,0,0,0,0,0,0,0,0,0,0,0,0,0,0,0,0,0,0,0,0,0,0,0,0,0,0,0,0,0,0,0,0,
0,0,0,0,0,0,0,0,0,0,0,0,0,0,0,0,0,0,0,0,0,0,0,0,0,0,0,0,0,0,0,0,0,0,0,0,0,0,0,0,0,0,0,0,0,0,0,0,0,0,0,0,0,0,0,0,0,0,0,0,0,0,0,0,0,0,0,0,0,0,0,0,0,0,0,
0,0,0,0,0,0,0,0,0,0,0,0,0,0,0,0,0,0,0,0,0,0,0,0,0,0,0,0,0,0,0,0,0,0,0,0,0,0,0,0,0,0,0,0,0,0,0,0,0,0,0,0,0,0,0,0,0,0,0,0,0,0,0,0,0,0,0,0,0,0,0,0,0,0,0,
0,0,0,0,0,0,0,0,0,0,0,0,0,0,0,0,0,0,0,0,0,0,0,0,0,0,0,0,0,0,0,0,0,0,0,0,0,0,0,0,0,0,0,0,0,0,0,0,0,0,0,0,0,0,0,0,0,0,0,0,0,0,0,0,0,0,0,0,0,0,0,0,0,0,0,
0,0,0,0,0,0,0,0,0,0,0,0,0,0,0,0,0,0,0,0,0,0,0,0,0,0,0,0,0,0,0,0,0,0,0,0,0,0,0,0,0,0,0,0,0,0,0,0,0,0,0,0,0,0,0,0,0,0,0,0,0,0,0,0,0,0,0,0,0,0,0,0,0,0,0,
0,0,0,0,0,0,0,0,0,0,0,0,0,0,0,0,0,0,0,0,0,0,0,0,0,0,0,0,0,0,0,0,0,0,0,0,0,0,0,0,0,0,0,0,0,0,0,0,0,0,0,0,0,0,0,0,0,0,0,0,2684387773,2684387757,2684387741,33125,33126,33127,33128,33129,33130,33131,33132,33125,0,0,0,
0,0,0,0,0,0,0,0,0,0,0,0,0,0,0,0,0,0,0,0,0,0,0,0,0,0,0,0,0,0,0,0,0,0,0,0,0,0,0,0,0,0,0,0,0,0,0,0,0,0,0,0,0,0,0,0,0,0,0,0,2684387774,33157,33129,33141,33142,33143,33144,33145,33146,33147,33148,33141,0,0,0,
0,0,0,0,0,0,0,0,0,0,0,0,0,0,0,0,0,0,0,0,0,0,0,0,0,0,0,0,0,0,0,0,0,0,0,0,0,0,0,0,0,0,0,0,0,0,0,0,0,0,0,0,0,0,0,0,0,0,0,0,2684387775,33173,33174,33157,33158,33159,33160,33161,33162,33163,33164,33157,0,0,0,
0,0,0,0,0,0,0,0,0,0,0,0,0,0,0,0,0,0,0,0,0,0,0,0,0,0,0,0,0,0,0,0,0,0,0,0,0,0,0,0,0,0,0,0,0,0,0,0,0,0,0,0,0,0,0,0,0,0,0,0,2684387776,33129,33130,33173,33174,33175,33176,33177,33157,33158,33191,33192,0,0,0,
0,0,0,0,0,0,0,0,0,0,0,0,0,0,0,0,0,0,0,0,0,0,0,0,0,0,0,0,0,0,0,0,0,0,0,0,0,0,0,0,0,0,0,0,0,0,0,0,0,0,0,0,0,0,0,0,0,0,0,0,2684387777,33145,33146,33189,33190,33191,33192,33193,33173,33174,33196,33142,0,0,0,
0,0,0,0,0,0,0,0,0,0,0,0,0,0,0,0,0,33117,33118,33119,33120,33121,33122,33123,33124,33117,33118,33119,33120,33121,33122,33125,33126,33117,33118,33119,33120,33121,33128,33129,33130,33117,33118,33119,33120,33121,33122,33123,33117,33125,33126,33127,33128,33122,33123,33124,0,0,0,0,2684387778,33161,33162,33205,33206,33207,33208,33209,33210,33211,33212,33158,0,0,0,
0,0,0,0,0,0,0,0,0,0,0,0,0,0,0,0,0,33133,33134,33135,33136,33137,33138,33139,33140,33133,33134,33135,33136,33137,33138,33141,33328,33133,33134,33135,33136,33137,33144,33145,33146,33328,33134,33135,33136,33137,33125,33126,33133,33141,33142,33143,33144,33138,33139,33140,0,0,0,0,2684387779,2684387763,2684387747,33221,33222,33223,33224,33225,33129,33205,33228,33174,0,0,0,
0,0,0,0,0,0,0,0,0,0,0,0,0,0,0,0,0,33149,33150,33151,33152,33153,33154,33155,33156,33149,33205,33151,33152,33153,33154,33155,33156,33149,33150,33151,33152,33153,33154,33155,33156,33149,33150,33148,33152,33247,33141,33142,33149,33150,33151,33351,33153,33154,33155,33156,0,0,0,0,2684387780,33205,2684387748,33237,33238,33239,33240,33241,33242,33243,33244,33190,0,0,0,
0,0,0,0,0,0,0,0,0,0,0,0,0,0,0,0,0,33157,33158,33167,33168,33169,33170,33171,33172,33165,33166,33167,33168,33169,33170,33171,33172,33165,33166,33167,33168,33169,33170,33171,33172,33165,33166,33167,33168,33169,33170,33171,33165,33166,33167,33170,33171,33170,33171,33172,0,0,0,0,2684387778,33221,33206,33207,33208,33128,33129,33130,33157,33158,33224,2684387780,0,0,0,
0,0,0,0,0,0,0,0,0,0,0,0,0,0,0,0,0,33173,33174,33148,33184,33185,33125,33126,33188,33181,33182,33183,33160,33185,33311,33145,33146,33248,33266,33183,33184,33185,33186,33187,33247,33160,33182,33183,33184,33185,33186,33187,33181,33247,33183,33186,33187,33186,33187,33188,0,0,0,0,2684387779,33237,33222,33223,33224,33144,33145,33146,33173,33174,33240,2684387781,0,0,0,
0,0,0,0,0,0,0,0,0,0,0,0,0,0,0,0,0,33197,33198,33199,33200,33201,33141,33142,33204,33197,33198,33199,33176,33201,33202,33161,33162,33119,33120,33121,33122,33123,33124,33117,33118,33176,33120,33264,33122,33123,33124,33117,33117,33118,33119,33202,33203,33122,33123,33124,0,0,0,0,2684387780,2684387764,33238,33239,33240,33160,33161,33162,33218,33129,33220,33238,0,0,0,
0,0,0,0,0,0,0,0,0,0,0,0,0,0,0,0,0,33157,33158,33205,33216,33148,33218,33219,33220,33213,33214,33215,33216,33217,33218,33133,33134,33135,33136,33137,33138,33139,33140,33133,33134,33135,33136,33137,33138,33139,33140,33133,33133,33134,33310,33231,33232,33138,33139,33140,0,0,0,0,0,0,0,0,0,0,0,0,0,0,0,0,0,0,0,
0,0,0,0,0,0,0,0,0,0,0,0,0,0,0,0,0,33173,33174,33231,33232,33233,33234,33235,33236,33229,33117,33118,33119,33120,33121,33122,33123,33124,33152,33153,33154,33155,33156,33149,33191,33293,33152,33153,33154,33155,33156,33149,33149,33150,33151,33152,33153,33154,33155,33156,0,0,0,0,0,0,0,0,0,0,0,0,0,0,0,0,0,0,0,
0,0,0,0,0,0,0,0,0,0,0,0,0,0,0,0,0,0,0,0,0,0,0,0,0,0,33133,33134,33135,33136,33137,33138,33346,33140,33168,33169,33170,33171,33172,33165,33196,33167,33168,33169,33227,33228,33172,33311,33165,33166,33278,33168,33169,33170,33171,33172,0,0,0,0,0,0,0,0,0,0,0,0,0,0,0,0,0,0,0,
0,0,0,0,0,0,0,0,0,0,0,0,0,0,0,0,0,0,0,0,0,0,0,0,0,0,33149,33150,33151,33152,33153,33154,33155,33156,33346,33185,33186,33248,33188,33181,33294,33183,33184,33311,33243,33244,33188,33196,33181,33182,33183,33184,33196,33186,33187,33188,0,0,0,0,0,0,0,0,0,0,0,0,0,0,0,0,0,0,0,
0,0,0,0,0,0,0,0,0,0,0,0,0,0,0,0,0,0,0,0,0,0,0,0,0,0,33165,33166,33157,33158,33169,33170,33171,33172,33148,33201,33202,33203,33204,33197,33198,33125,33126,33201,33202,33357,33204,33197,33328,33198,33199,33200,33350,33202,33203,33204,0,0,0,0,0,0,0,0,0,0,0,0,0,0,0,0,0,0,0,
0,0,0,0,0,0,0,0,0,0,0,0,0,0,0,0,0,0,0,0,0,0,0,0,0,0,33181,33182,33173,33174,33185,33186,33187,33188,33216,33217,33218,33219,33220,33213,33214,33141,33142,33217,33218,33219,33220,33213,33213,33214,33215,33196,33217,33218,33219,33220,0,0,0,0,0,0,0,0,0,0,0,0,0,0,0,0,0,0,0,
0,0,0,0,0,0,0,0,0,0,0,0,0,0,0,0,0,0,0,0,0,0,0,0,0,0,33197,33198,33199,33200,33201,33202,33203,33204,33232,33233,33234,33235,33236,33229,33230,33231,33232,33233,33234,33235,33236,33229,33229,33230,33231,33232,33233,33234,33235,33236,0,0,0,0,0,0,0,0,0,0,0,0,0,0,0,0,0,0,0,
0,0,0,0,0,0,0,0,0,0,0,0,0,0,0,0,0,0,0,0,0,0,0,0,0,0,33213,33214,33215,33216,33217,33218,33219,33220,0,0,0,0,0,0,0,0,0,0,0,0,0,0,0,0,0,0,0,0,0,0,0,0,0,0,0,0,0,0,0,0,0,0,0,0,0,0,0,0,0,
0,0,0,0,0,0,0,0,0,0,0,0,0,0,0,0,0,0,0,0,0,0,0,0,0,0,33229,33230,33231,33232,33233,33234,33235,33236,0,0,0,0,0,0,0,0,0,0,0,0,0,0,0,0,0,0,0,0,0,0,0,0,0,0,0,0,0,0,0,0,0,0,0,0,0,0,0,0,0,
0,0,0,0,0,0,0,0,0,0,33117,33118,33119,33120,33121,33122,33123,33124,33117,33118,33119,33120,33121,33122,33123,33124,33117,33118,33119,33120,33121,33122,33123,33124,33117,33118,33119,33120,33121,33122,33123,33124,33117,33118,33119,33120,33121,33122,33123,33124,33117,33118,33119,33120,33121,33122,33123,33124,33117,33118,33119,33120,33121,33122,33123,33124,33117,33118,33119,33120,33121,33122,33123,33124,33117,
0,0,0,0,0,0,0,0,0,0,33133,33134,33135,33136,33137,33138,33139,33140,33133,33134,33135,33136,33137,33138,33139,33140,33133,33134,33135,33136,33137,33157,33158,33140,33191,33192,33135,33205,33137,33138,33205,33140,33133,33134,33135,33136,33137,33138,33139,33140,33133,33134,33135,33136,33137,33138,33139,33140,33133,33134,33135,33136,33137,33138,33128,33129,33130,33134,33135,33136,33137,33138,33139,33140,33133,
0,0,0,0,0,0,0,0,0,0,33149,33150,33151,33152,33153,33154,33155,33156,33149,33150,33151,33152,33153,33154,33155,33223,33224,33150,33151,33160,33153,33173,33174,33156,33149,33150,33151,33152,33227,33228,33155,33156,33149,33150,33151,33152,33153,33154,33155,33156,33149,33150,33151,33152,33153,33154,33155,33156,33223,33150,33151,33152,33153,33154,33144,33145,33146,33150,33151,33223,33153,33154,33155,33156,33149,
0,0,0,0,0,0,0,0,0,0,33165,33166,33167,33168,33169,33170,33171,33172,33165,33166,33167,33168,33169,33170,33171,33239,33240,33310,33311,33176,33169,33196,33171,33172,33223,33166,33167,33241,33243,33244,33171,33172,33165,33166,33167,33168,33169,33170,33171,33172,33165,33166,33167,33168,33169,33170,33171,33172,33165,33166,33237,33168,33169,33170,33160,33161,33162,33166,33167,33168,33169,33170,33171,33172,33165,
0,0,0,0,0,0,0,0,0,0,33181,33182,33183,33184,33185,33186,33187,33188,33181,33182,33183,33184,33185,33263,33187,33191,33280,33196,33328,33157,33158,33186,33187,33188,33181,33182,33205,33184,33207,33208,33187,33188,33181,33182,33183,33184,33185,33186,33187,33188,33181,33182,33183,33184,33237,33186,33187,33188,33181,33182,33183,33184,33185,33186,33176,33177,33178,33182,33183,33184,33185,33186,33187,33188,33181,
0,0,0,0,0,0,0,0,0,0,33197,33198,33199,33200,33201,33202,33203,33204,33197,33198,33199,33262,33262,33202,33280,33257,33258,33296,33199,33173,33327,33202,33203,33204,33197,33198,33199,33200,33201,33202,33203,33204,33197,33198,33199,33200,33201,33202,33203,33204,33197,33198,33199,33200,33201,33202,33203,33204,33197,33223,33199,33200,33237,33202,33203,33204,33196,33198,33199,33200,33201,33202,33203,33204,33197,
0,0,0,0,0,0,0,0,0,0,33213,33214,33215,33216,33217,33218,33219,33220,33213,33214,33215,33216,33217,33291,33292,33273,33274,33275,33215,33216,33217,33218,33219,33220,33213,33214,33215,33216,33217,33218,33219,33220,33213,33214,33215,33216,33217,33218,33219,33220,33213,33237,33215,33216,33217,33218,33237,33220,33213,33214,33215,33216,33217,33218,33128,33129,33130,33214,33189,33190,33191,33192,33219,33241,33213,
0,0,0,0,0,0,0,0,0,0,33229,33230,33231,33232,333,333,333,333,33229,33230,33231,33232,33277,33278,33205,33217,33290,33230,33231,33232,33233,33234,33235,33236,33229,33230,33231,33232,33233,33234,33235,33236,33229,33230,33231,33232,33233,33234,33235,33236,33229,33237,33231,33232,33233,33234,33237,33236,33229,33230,33231,33232,33233,33234,33144,33145,33146,33230,33205,33206,33207,33208,33189,33190,33229,
33117,33118,33119,33120,33121,33122,33123,33124,33120,33121,33117,33118,33119,33120,333,333,333,333,33117,33118,33119,33120,33293,33217,33295,33296,33192,33118,33119,33120,33121,33122,33123,33124,33117,33118,33119,33120,33121,33122,33123,33124,33117,33118,33119,33120,33121,33122,33123,33124,33117,33118,33119,33120,33121,33122,33123,33124,33117,33118,33119,33120,33121,33122,33160,33161,33162,33118,33221,33201,33223,33122,33205,33206,33117,
33133,33162,33163,33164,33137,33205,33206,33207,33136,33137,33133,33134,33135,33136,33137,333,333,33140,33133,33134,33157,33291,33217,33310,33311,33312,33133,33134,33280,33136,33137,33138,33139,33140,33133,33134,33135,33136,33137,33138,33139,33140,33133,33134,33135,33136,33137,33138,33139,33140,33133,33134,33135,33136,33137,33138,33139,33140,33133,33134,33135,33136,33137,33138,33139,33140,33133,33157,33158,33201,33239,33138,33157,33158,33133,
33149,33178,33179,33180,33153,33221,33222,33223,33152,33153,33149,33150,33151,33152,33325,33326,33327,33328,33149,33150,33341,33342,33217,33217,33217,33328,33149,33311,33311,33152,33153,33154,33155,33156,33149,33150,33151,33152,33153,33154,33155,33156,33149,33150,33151,33152,33153,33154,33155,33156,33149,33150,33151,33152,33153,33154,33155,33156,33149,33150,33151,33152,33153,33154,33155,33156,33149,33173,33174,33152,33153,33154,33173,33174,33149,
33165,33194,33195,33196,33169,33237,33238,33172,33168,33169,33165,33166,33167,33168,33341,33342,33343,33344,33165,33166,33357,33358,33359,33360,33222,33172,33165,33166,33167,33168,33169,33170,33171,33172,33165,33166,33167,33168,33169,33170,33171,33172,33165,33166,33167,33168,33169,33170,33171,33172,33165,33166,33167,33168,33169,33170,33171,33172,33165,33166,33167,33168,33169,33170,33171,33172,33165,33166,33167,33168,33169,33170,33171,33172,33165,
33181,33182,33183,33184,33185,33186,33187,33188,33184,33185,33181,33182,33183,33184,33357,33358,33359,33360,33181,33182,33223,33184,33185,33237,33238,33188,33312,33182,33183,33184,33185,33186,33187,33188,33181,33182,33183,33184,33250,33251,33187,33188,33181,33182,33183,33184,33185,33186,33187,33188,33181,33182,33183,33184,33185,33186,33187,33188,33181,33182,33183,33184,33185,33186,33187,33188,33241,33182,33183,33184,33185,33186,33187,33188,33181,
33117,33118,33119,33120,33121,33122,33123,33124,33120,33121,33197,33198,33199,33200,33201,33202,33203,33204,33197,33198,33199,33200,33201,33202,33327,33204,33197,33198,33199,33200,33201,33202,33203,33204,33197,33198,33199,33200,33266,33267,33203,33204,33197,33198,33199,33200,33201,33202,33203,33204,33197,33198,33199,33200,33201,33202,33203,33204,33197,33198,33199,33200,33201,33202,33203,33204,33197,33198,33199,33200,33223,33202,33203,33204,33197,
33133,33205,33206,33207,33137,33138,33139,33140,33136,33137,33213,33214,3221258712,3221258711,3221258710,3221258709,33219,33220,33213,33214,33215,33191,33192,33237,33219,33220,33213,33214,33215,33216,33217,33218,33219,33220,33213,33214,33221,33222,33282,33283,33221,33222,33213,33214,33215,33216,33217,33218,33219,33220,33213,33205,33245,33246,33247,33248,33207,33208,33213,33214,33215,33216,33217,33218,33219,33220,33213,33214,33215,33216,33217,33218,33219,33220,33213,
33149,33221,33222,33223,33153,33154,33155,33156,33152,33153,33229,33230,3221258696,3221258695,3221258694,3221258693,33235,33236,33229,33230,33231,33232,33233,33234,33235,33236,33229,33230,33231,33232,33233,33234,33235,33236,33229,33230,33237,33238,33298,33299,33237,33238,33229,33230,33231,33232,33233,33234,33235,33236,33221,33222,33261,33262,33263,33264,33235,33236,33229,33230,33231,33232,33233,33234,33227,33228,33229,33230,33231,33232,33233,33234,33235,33148,33229,
33157,33158,33167,33168,33169,33170,33171,33172,33168,33169,33117,33118,33221,33222,33223,33224,33123,33196,33117,33118,33119,33120,33121,33122,33123,33124,33117,33118,33119,33120,33121,33122,33123,33124,33117,33118,33275,33276,33314,33315,33275,33276,33117,33118,33119,33120,33121,33122,33123,33124,33237,33238,33277,33278,33279,33280,33223,33124,33117,33118,33119,33120,33121,33122,33243,33244,33117,33118,33148,33129,33148,33122,33123,33124,33117,
33173,33174,33183,33184,33157,33158,33187,33188,33184,33185,33133,33134,33237,33238,33239,33240,33139,33140,33133,33134,33135,33136,33137,33138,33139,33140,33133,33134,33135,33136,33137,33138,33139,33140,33133,33275,33276,33276,33330,33331,33291,33275,33276,33134,33135,33136,33137,33138,33139,33140,33133,33134,33293,33294,33295,33296,33139,33140,33133,33134,33135,33136,33137,33138,33139,33140,33133,33134,33135,33136,33137,33138,33139,33140,33133,
33197,33198,33199,33200,33173,33174,33203,33204,33221,33222,33149,33150,33151,33152,33153,33154,33155,33196,33149,33150,33151,33152,33153,33154,33155,33156,33149,33150,33151,33152,33153,33154,33155,33156,33149,33275,33275,33276,33346,33347,33275,33275,33276,33150,33151,33152,33153,33154,33155,33156,33149,33150,33309,33310,33311,33312,33155,33156,33149,33150,33151,33152,33153,33154,33155,33156,33196,33150,33151,33152,33153,33154,33155,33148,33149,
33213,33214,33215,33216,33217,33218,33219,33220,33237,33238,33165,33166,33167,3221258835,3221258834,33170,33171,33172,33165,33166,33167,33168,33169,33170,33250,33251,33165,33166,33167,33168,33169,33170,33171,33172,33165,33291,33291,33292,33343,33363,33291,33291,33292,33166,33167,33168,33169,33170,33191,33192,33165,33166,33325,33326,33327,33328,33171,33172,33165,33166,33167,33168,33169,33170,33171,33172,33165,33166,33167,33227,33228,33170,33171,33172,33165,
33229,33230,33231,33232,33233,33234,33235,33236,33232,33233,33181,33182,33183,3221258819,3221258818,33186,33187,33196,33181,33182,33183,33184,33185,33186,33250,33251,33181,33182,33183,33184,33185,33186,33187,33188,33181,33182,33279,33280,33310,33311,33270,33283,33181,33182,33183,33184,33185,33186,33207,33208,33181,33182,33341,33342,33343,33344,33187,33188,33181,33182,33183,33184,33185,33186,33187,33188,33181,33148,33183,33243,33244,33186,33187,33196,33181,
0,0,0,0,0,0,0,0,0,0,33197,33198,33199,3221258803,3221258802,33202,33203,33204,33197,33198,33199,33200,33201,33202,33266,33184,33196,33198,33199,33200,33201,33202,33203,33204,33197,33198,33295,33296,33311,33277,33278,33299,33197,33198,33199,33200,33201,33202,33203,33204,33197,33198,33357,33358,33359,33360,33203,33204,33197,33198,33199,33200,33201,33202,33227,33228,33197,33198,33199,33200,33201,33202,33203,33204,33197,
0,0,0,0,0,0,0,0,0,0,33213,33214,33215,3221258787,3221258786,33218,33219,33196,33213,33214,33215,33216,33217,33218,33184,33283,33213,33214,33215,33216,33217,33218,33219,33220,33213,33214,33215,33341,33342,33341,33342,33220,33213,33214,33215,33216,33217,33218,33219,33220,33213,33214,33215,33216,33217,33218,33219,33220,33213,33214,33215,33216,33217,33218,33243,33244,33213,33214,33215,33216,33217,33218,33219,33220,33213,
0,0,0,0,0,0,0,0,0,0,33229,33230,33231,3221258771,3221258770,33234,33235,33236,33229,33230,33231,33232,33233,33130,33250,33184,33129,33130,33294,33263,33233,33234,33235,33236,33229,33230,33231,33232,33233,33234,33235,33236,33229,33230,33231,33232,33233,33234,33235,33236,33229,33230,33231,33232,33233,33234,33235,33236,33229,33230,33231,33232,33233,33234,33235,33236,33229,33230,33231,33232,33125,33126,33127,33128,33229,
0,0,0,0,0,0,0,0,0,0,33117,33118,33119,3221258755,3221258754,33122,33123,33196,33117,33118,33119,33120,33121,33146,33184,33267,33145,33146,33261,33294,33223,33296,33266,33124,33117,33118,33119,33120,33121,33122,33123,33124,33117,33221,33222,33120,33121,33205,33123,33124,33117,33227,33228,33120,33121,33122,33123,33124,33157,33158,33119,33120,33121,33122,33123,33124,33117,33118,33162,33120,33141,33142,33143,33144,33117,
0,0,0,0,0,0,0,0,0,0,33133,33134,33135,3221258739,3221258738,33138,33139,33140,33133,33134,33135,33136,33137,33138,33282,33184,33133,33328,33311,33136,33263,33312,33282,33140,33133,33134,33135,33136,33137,33138,33139,33140,33133,33237,33238,33136,33137,33138,33139,33140,33133,33243,33244,33136,33137,33138,33139,33140,33173,33174,33135,33136,33137,33138,33139,33140,33133,33134,33135,33136,33157,33158,33162,33160,33133,
0,0,0,0,0,0,0,0,0,0,5076,33150,33151,33152,33153,33154,33155,33156,33149,33150,33151,33152,33153,33154,33184,33279,1610646019,1610646019,1610645986,1610646002,1610646018,1610646034,1610646050,1610646066,1610646082,33299,33151,33152,33153,33154,33155,33156,33149,33150,33151,33128,33129,33130,33155,33156,33149,33150,33151,33152,33153,33154,33155,33156,33149,33150,33151,33152,33153,33154,33155,33156,33149,33157,33158,33152,33173,33174,33175,33176,33149,
0,0,0,0,0,0,0,0,0,0,5076,33166,33167,33168,33169,33170,33171,33172,33165,33166,33167,33168,33169,33162,33279,1610646002,1610646018,33199,1610645986,33199,1610646018,1610646034,1610646050,1610646066,1610646082,33315,33167,33168,33169,33170,33171,33172,33165,33166,33167,33144,33145,33146,33171,33172,33165,33166,33167,33168,33169,33170,33171,33172,33221,33222,33167,33168,33169,33170,33171,33172,33165,33173,33174,33168,33169,33170,33171,33172,33165,
0,0,0,33166,33149,33150,0,33152,33152,33152,33170,33182,33183,33184,33185,33186,33187,33188,33181,33182,33183,33184,33185,33186,33187,33223,33341,33342,33341,33342,33343,33344,33299,33347,33196,33182,33183,33184,33185,33186,33187,33188,33181,33182,33183,33184,33185,33186,33187,33188,33181,33317,33318,33319,33320,33321,33187,33188,33237,33238,33183,33184,33185,33186,33187,33188,33181,33182,33183,33184,33185,33186,33187,33188,33181,
0,0,0,33182,33150,33151,33152,33153,33154,33153,33154,33198,33199,33200,33201,33202,33203,33204,33197,33198,33199,33200,33201,33202,33203,33239,33240,33341,33342,33174,33175,33311,33315,33204,33197,33198,33199,33200,33201,33202,33203,33204,33197,33198,33199,33200,33201,33202,33203,33204,33197,33333,33334,33335,33336,33337,33203,33204,33197,33198,33199,33200,33201,33202,33203,33204,33197,33198,33199,33200,33201,33202,33203,33204,33197,
0,0,0,33198,33166,33167,33168,33169,33170,33169,33170,33214,33215,33216,33217,33218,33219,33220,33213,33148,33215,33148,33217,33218,33219,33220,33213,33214,33215,33216,33217,33218,33219,33220,33213,33214,33215,33216,33217,33218,33219,33220,33213,33214,33215,33216,33217,33218,33313,33296,33213,33349,33350,33351,33352,33201,33340,33220,33213,33214,33215,33216,33217,33218,33219,33157,33158,33214,33215,33216,33217,33221,33222,33220,33213,
0,0,0,33214,33150,33151,33152,33153,33154,33185,33186,33230,33231,33232,33233,33234,33235,33236,33229,33230,33185,33186,33233,33234,33235,33236,33229,33230,33231,33232,33233,33234,33235,33236,33229,33230,33231,33232,33233,33234,33235,33236,33229,33230,33231,33232,33233,33234,33311,33312,33229,33365,33366,33367,33368,33369,33340,33236,33229,33230,33231,33232,33233,33234,33235,33173,33174,33230,33231,33232,33233,33237,33238,33236,33229,
0,0,0,33166,33150,33151,33152,33153,33154,33201,33202,33118,33119,33120,33121,33122,33123,33124,33117,33118,33201,33202,33121,33122,33123,33124,33117,33205,33206,33207,33121,33122,33123,33124,33117,33118,33119,33120,33121,33122,33123,33124,33117,33118,33119,33120,33121,33122,33123,33124,33117,33118,33119,33120,33121,33122,33123,33124,33117,33118,33119,33120,33121,33122,33123,33124,33117,33118,33119,33120,33121,33122,33123,33124,33117,
0,0,0,33182,33166,33150,33151,33152,33153,33154,33133,33134,33135,33136,33137,33138,33139,33140,33133,33134,33135,33136,33148,33138,33139,33140,33133,33221,33222,33223,33137,33138,33139,33140,33133,33134,33135,33136,33137,33138,33139,33140,33133,33134,33135,33136,33137,33157,33158,33318,33319,33320,33321,33136,33340,33138,33139,33140,33133,33134,33135,33136,33137,33138,33139,33140,33133,33134,33135,33136,33137,33157,33158,33140,33133,
0,0,0,33198,33182,33166,33167,33168,33169,33170,33149,33150,33151,33152,33153,33154,33155,33156,33149,33196,33151,33152,33153,33154,33155,33156,33149,33150,33151,33152,33153,33154,33155,33156,33149,33150,33151,33152,33153,33154,33155,33156,33149,33150,33151,33152,33153,33173,33174,33334,33335,33336,33337,33152,33153,33154,33155,33156,33149,33150,33151,33152,33153,33154,33155,33156,33149,33150,33151,33152,33153,33173,33174,33156,33149,
0,0,0,33214,33150,33151,33152,33153,33154,33186,33165,33166,33167,33168,33169,33170,33171,33172,33165,33166,33167,33168,33169,33170,33171,33172,33165,33166,33167,33168,33169,33170,33171,33172,33165,33166,33167,33168,33169,33170,33171,33172,33165,33166,33167,33168,33169,33170,33171,33172,33165,33166,33167,33168,33169,33170,33171,33172,33165,33166,33167,33168,33169,33170,33221,33222,33165,33223,33167,33168,33169,33170,33171,33172,33165,
0,0,0,33170,33166,33167,33168,33169,33170,33202,33181,33182,33183,33184,33185,33186,33187,33188,33181,33182,33183,33184,33185,33186,33187,33188,33181,33182,33183,33184,33185,33186,33187,33188,33181,33182,33183,33184,33185,33186,33187,33188,33181,33182,33183,33184,33185,33186,33128,33129,33130,33182,33183,33184,33185,33186,33274,33275,33181,33182,33183,33184,33185,33186,33237,33238,33181,33182,33183,33184,33185,33186,33187,33188,33181,
0,0,0,33170,33182,33183,33184,33185,33186,33216,33197,33198,33199,33200,33201,33202,33203,33204,33197,33196,33199,33200,33201,33237,33238,33239,33197,33198,33199,33200,33223,33224,33203,33204,33197,33198,33199,33200,33201,33202,33203,33204,33197,33198,33199,33200,33201,33202,33144,33145,33146,33198,33199,33200,33201,33202,33290,33291,33197,33198,33199,33200,33201,33202,33203,33204,33197,33198,33199,33200,33201,33202,33203,33204,33197,
0,0,0,33170,33198,33199,33200,33201,33202,33232,33213,33214,33215,33216,33217,33218,33227,33228,33213,33214,33215,33216,33217,33218,33219,33220,33213,33214,33215,33216,33239,33240,33219,33220,33213,33214,33215,33216,33217,33218,33219,33220,33213,33214,33215,33216,33217,33218,33160,33161,33162,33214,33215,33216,33217,33218,33219,33220,33193,33194,33215,33216,33217,33218,33219,33220,33213,33214,33215,33216,33217,33218,33219,33220,33213,
0,0,0,0,0,0,0,0,0,0,5012,5012,5012,5012,5012,5012,5012,5012,5012,5012,5012,5012,5012,5012,5012,5012,5012,5012,5012,5012,5012,5012,5012,5012,5012,5012,5012,5012,5012,0,0,0,0,0,0,0,0,0,0,0,0,0,0,0,0,0,0,0,0,0,0,0,4685,33234,33235,33236,33229,33230,33231,33232,33233,33234,33235,33236,4976
</data>
 </layer>
 <layer id="3" name="rock" width="75" height="75">
  <data encoding="csv">
0,0,0,0,0,0,0,0,0,0,0,0,0,0,0,0,0,0,0,0,0,0,0,0,0,0,0,0,0,0,0,0,0,0,0,0,0,0,0,0,0,0,0,0,0,0,0,0,0,0,0,0,0,0,0,0,0,0,0,0,0,0,0,0,0,0,0,0,0,0,0,0,0,0,0,
0,0,0,0,0,0,0,0,0,0,0,0,0,0,0,0,0,0,0,0,0,0,0,0,0,0,0,0,0,0,0,0,0,0,0,0,0,0,0,0,0,0,0,0,0,0,0,0,0,0,0,0,0,0,0,0,0,0,0,0,0,0,0,0,0,0,0,0,0,0,0,0,0,0,0,
0,0,0,0,0,0,0,0,0,0,0,0,0,0,0,0,0,0,0,0,0,0,0,0,0,0,0,0,0,0,0,0,0,0,0,0,0,0,0,0,0,0,0,0,0,0,0,0,0,0,0,0,0,0,0,0,0,0,0,0,0,0,0,0,0,0,0,0,0,0,0,0,0,0,0,
0,0,0,0,0,0,0,0,0,0,0,0,0,0,0,0,0,0,0,0,0,0,0,0,0,0,0,0,0,0,0,0,0,0,0,0,0,0,0,0,0,0,0,0,0,0,0,0,0,0,0,0,0,0,0,0,0,0,0,0,0,0,0,0,0,0,0,0,0,0,0,0,0,0,0,
0,0,0,0,0,0,0,0,0,0,0,0,0,0,0,0,0,0,0,0,0,0,0,0,0,0,0,0,0,0,0,0,0,0,0,0,0,0,0,0,0,0,0,0,0,0,0,0,0,0,0,0,0,0,0,0,0,0,0,0,0,0,0,0,0,0,0,0,0,0,0,0,0,0,0,
0,0,0,0,0,0,0,0,0,0,0,0,0,0,0,0,0,0,0,0,0,0,0,0,0,0,0,0,0,0,0,0,0,0,0,0,0,0,0,0,0,0,0,0,0,0,0,0,0,0,0,0,0,0,0,0,0,0,0,0,0,0,0,0,0,0,0,0,0,0,0,0,0,0,0,
0,0,0,0,0,0,0,0,0,0,0,0,0,0,0,0,0,0,0,0,0,0,0,0,0,0,0,0,0,0,0,0,0,0,0,0,0,0,0,0,0,0,0,0,0,0,0,0,0,0,0,0,0,0,0,0,0,0,0,0,0,0,0,0,0,0,0,0,0,0,0,0,0,0,0,
0,0,0,0,0,0,0,0,0,0,0,0,0,0,0,0,0,0,0,0,0,0,0,0,0,0,0,0,0,0,0,0,0,0,0,0,0,0,0,0,0,0,0,0,0,0,0,0,0,0,0,0,0,0,0,0,0,0,0,0,0,0,0,0,0,0,0,0,0,0,0,0,0,0,0,
0,0,0,0,0,0,0,0,0,0,0,0,0,0,0,0,0,0,0,0,0,0,0,0,0,0,0,0,0,0,0,0,0,0,0,0,0,0,0,0,0,0,0,0,0,0,0,0,0,0,0,0,0,0,0,0,0,0,0,0,0,0,0,0,0,0,0,0,0,0,0,0,0,0,0,
0,0,0,0,0,0,0,0,0,0,0,0,0,0,0,0,0,0,0,0,0,0,0,0,0,0,0,0,0,0,0,0,0,0,0,0,0,0,0,0,0,0,0,0,0,0,0,0,0,0,0,0,0,0,0,0,0,0,0,0,0,0,0,0,0,0,0,0,0,0,0,0,0,0,0,
0,0,0,0,0,0,0,0,0,0,0,0,0,0,0,0,0,0,0,0,0,0,0,0,0,0,0,0,0,0,0,0,0,0,0,0,0,0,0,0,0,0,0,0,0,0,0,0,0,0,0,0,0,0,0,0,0,0,0,0,0,0,0,0,0,0,0,0,0,0,0,0,0,0,0,
0,0,0,0,0,0,0,0,0,0,0,0,0,0,0,0,0,0,0,0,0,0,0,0,0,0,0,0,0,0,0,0,0,0,0,0,0,0,0,0,0,0,0,0,0,0,0,0,0,0,0,0,0,0,0,0,0,0,0,0,0,0,0,0,0,0,0,0,0,0,0,0,0,0,0,
0,0,0,0,0,0,0,0,0,0,0,0,0,0,0,0,0,0,0,0,0,0,0,0,0,0,0,0,0,0,0,0,0,0,0,0,0,0,0,0,0,0,0,0,0,0,0,0,0,0,0,0,0,0,0,0,0,0,0,0,0,0,0,0,0,0,0,0,0,0,0,0,0,0,0,
0,0,0,0,0,0,0,0,0,0,0,0,0,0,0,0,0,0,0,0,0,0,0,0,0,0,0,0,0,0,0,0,0,0,0,0,0,0,0,0,0,0,0,0,0,0,0,0,0,0,0,0,0,0,0,0,0,0,0,0,0,0,0,0,0,0,0,0,0,0,0,0,0,0,0,
0,0,0,0,0,0,0,0,0,0,0,0,0,0,0,0,0,0,0,0,0,0,0,0,0,0,0,0,0,0,0,0,0,0,0,0,0,0,0,0,0,0,0,0,0,0,0,0,0,0,0,0,0,0,0,0,0,0,0,0,0,0,0,0,0,0,0,0,0,0,0,0,0,0,0,
0,0,0,0,0,0,0,0,0,0,0,0,0,0,0,0,0,0,0,0,0,0,0,0,0,0,0,0,0,0,0,0,0,0,0,0,0,0,0,0,0,0,0,0,0,0,0,0,0,0,0,0,0,0,0,0,0,0,0,0,0,0,0,0,0,0,0,0,0,0,0,0,0,0,0,
0,0,0,0,0,0,0,0,0,0,0,0,0,0,0,0,0,0,0,0,0,0,0,0,0,0,0,0,0,0,0,0,0,0,0,0,0,0,0,0,0,0,0,0,0,0,0,0,0,0,0,0,0,0,0,0,0,0,0,0,0,0,0,33469,33470,33471,33472,33473,33474,0,0,0,0,0,0,
0,0,0,0,0,0,0,0,0,0,0,0,0,0,0,0,0,0,0,0,0,0,0,0,0,0,0,0,0,0,0,0,0,0,0,0,0,0,0,0,0,0,0,0,0,0,0,0,0,0,0,0,0,0,0,0,0,0,0,0,0,0,0,33437,33438,33439,33440,33441,33442,0,0,0,0,0,0,
0,0,0,0,0,0,0,0,0,0,0,0,0,0,0,0,0,0,0,0,0,0,0,0,0,0,0,0,0,0,0,0,0,0,0,0,0,0,0,0,0,0,0,0,0,0,0,0,0,0,0,0,0,0,0,0,0,0,0,0,0,0,0,33453,33454,33455,33456,33457,33458,0,0,0,0,0,0,
0,0,0,0,0,0,0,0,0,0,0,0,0,0,0,0,0,0,0,0,0,0,0,0,0,0,0,0,0,0,0,0,0,0,0,0,0,0,0,0,0,0,0,0,0,0,0,0,0,0,0,0,0,0,0,0,0,0,0,0,0,0,0,0,0,0,0,0,0,0,0,0,0,0,0,
0,0,0,0,0,0,0,0,0,0,0,0,0,0,0,0,0,0,0,0,0,0,0,0,0,0,0,0,0,0,0,0,4481,4482,0,0,0,0,0,0,0,0,0,0,0,0,0,0,0,0,0,4547,4548,0,0,0,0,0,0,0,0,0,0,0,0,0,0,0,0,0,0,0,0,0,0,
0,0,0,0,0,0,0,0,0,0,0,0,0,0,0,0,0,0,0,0,0,0,0,0,0,33373,33374,33375,33378,4481,4482,0,4513,4514,0,0,0,0,0,4359,4360,0,4359,4360,0,4359,4360,0,0,0,0,4579,4580,0,0,0,0,0,0,0,0,0,0,0,0,0,0,0,0,0,0,0,0,0,0,
0,0,0,0,0,0,0,0,0,0,0,0,0,0,0,0,0,0,0,0,0,0,0,0,4481,33389,33390,33391,33394,4513,4514,4419,4420,4357,4358,0,0,0,0,4391,4392,0,4391,4392,0,4391,4392,0,0,4359,4360,0,0,0,0,0,0,0,0,0,0,0,0,0,0,0,0,0,0,0,0,0,0,0,0,
0,0,0,0,0,0,0,0,0,0,0,0,0,0,0,0,0,0,0,33270,33273,4354,0,0,4513,33485,33488,33489,33490,0,0,4451,4452,4389,4390,0,0,0,0,0,0,0,4551,4552,0,0,0,4359,4360,4391,4392,0,3912,3912,0,0,0,0,0,0,0,0,0,0,0,0,0,0,0,0,0,0,0,0,0,
0,0,0,0,0,0,0,0,0,0,0,0,0,0,0,0,0,0,33351,0,4385,33283,0,4353,4354,0,4359,4360,0,0,4355,4356,0,0,0,0,0,0,0,0,0,0,4583,4584,0,0,0,4391,4392,4167,0,3912,33373,33376,33380,0,0,0,0,0,0,0,0,0,0,0,0,0,0,0,0,0,0,0,0,
0,0,0,0,0,0,0,0,0,0,0,0,0,0,0,0,0,0,4359,33365,0,33299,0,4385,33278,0,33246,4392,0,0,4387,4388,0,0,0,0,0,0,0,0,4355,4356,0,0,0,0,0,0,0,4481,4482,0,33405,33392,33396,0,0,0,0,0,0,0,0,0,0,0,0,0,0,0,0,0,0,0,0,
0,0,0,0,0,0,0,0,0,0,0,0,0,0,0,0,0,0,4391,33346,0,0,33310,33311,4354,0,4419,4420,33247,4417,4418,0,0,33346,0,0,0,0,0,0,4387,4388,4551,4552,0,0,0,0,4551,4552,4514,0,33421,33408,33428,0,0,0,0,0,0,0,0,0,0,0,0,0,0,0,0,0,0,0,0,
0,0,0,0,0,0,0,0,0,0,0,0,0,0,0,0,0,0,0,0,0,0,0,4385,4386,33278,4451,33264,0,4449,33276,33291,0,0,0,0,0,0,0,4547,4548,0,4547,4548,0,0,0,0,4547,4548,0,4481,33437,33424,33444,0,0,0,0,0,0,0,0,0,0,0,0,0,0,0,0,0,0,0,0,
0,0,0,0,0,0,0,0,0,0,0,0,0,0,0,0,0,0,0,0,0,0,0,0,0,0,0,33280,33248,4418,0,0,0,4357,4358,0,4419,4420,0,4579,4580,4359,4579,4580,0,0,0,0,4579,4580,0,4513,33453,33456,33460,3957,0,0,0,0,0,0,0,0,0,0,0,0,0,0,0,0,0,0,0,
0,0,0,0,0,0,0,0,0,0,0,0,0,0,0,0,0,0,0,0,0,0,0,0,0,0,0,33282,4449,4450,33273,0,0,4389,4390,0,4451,4452,4357,4358,0,4391,4392,0,4355,4356,4419,4420,0,4359,4360,0,3946,3947,3948,3949,0,0,0,0,0,0,0,0,0,0,0,0,0,0,0,0,0,0,0,
0,0,0,0,0,0,0,0,0,0,0,0,0,0,0,0,0,0,0,0,0,0,0,0,0,0,4353,4354,33315,0,0,4353,4354,0,0,0,0,0,4389,4390,0,4547,4548,0,4387,4388,4451,4452,0,4391,4392,0,3978,3979,3980,3981,0,0,0,0,0,0,0,0,0,0,0,0,0,0,0,0,0,0,0,
0,0,0,0,0,0,0,0,0,0,0,0,0,0,0,0,0,0,0,0,0,0,0,0,0,0,4385,33346,0,0,0,4385,4386,0,0,0,0,0,0,0,0,4579,4580,0,0,0,0,0,0,0,0,0,4010,4011,4012,4013,0,0,0,0,0,0,0,0,0,0,0,0,0,0,0,0,0,0,0,
0,0,0,0,0,0,0,0,0,0,0,0,0,0,0,0,0,0,0,0,0,0,0,0,0,0,0,0,0,0,0,0,0,0,0,0,0,0,0,0,0,0,0,0,0,0,0,0,0,0,0,0,4042,4043,4044,4045,0,0,0,0,0,0,0,0,0,0,0,0,0,0,0,0,0,0,0,
0,0,0,0,0,0,0,0,0,0,0,0,0,0,0,0,0,0,0,0,0,0,0,0,0,0,0,0,0,0,0,0,0,0,0,0,0,0,0,0,0,0,0,0,0,0,0,0,0,0,0,0,0,0,0,0,0,0,0,0,0,0,0,0,0,0,0,0,0,0,0,0,0,0,0,
0,0,0,0,0,0,0,0,0,0,0,0,0,0,0,0,0,0,0,0,0,0,0,0,0,0,0,0,0,0,0,0,0,0,0,0,0,0,0,0,0,0,0,0,0,0,0,0,0,0,0,0,0,0,0,0,0,0,0,0,0,0,0,0,0,0,0,0,0,0,0,0,0,0,0,
0,0,0,0,0,0,0,0,0,0,0,3393,3394,3395,3396,0,0,4355,4356,0,0,0,0,0,0,0,0,0,0,0,0,0,0,0,0,0,0,0,0,0,0,0,0,0,0,0,0,0,0,0,0,0,0,0,0,4678,0,0,0,0,0,0,0,0,3393,3394,3395,3396,12075,12075,3393,12075,12075,3396,0,
0,0,0,0,0,0,0,0,0,0,0,3425,3426,3427,3428,0,0,4387,3503,3504,0,0,0,0,0,0,0,0,0,0,0,0,0,4355,4356,0,0,0,0,0,0,0,0,0,0,0,0,0,0,0,0,4355,4356,0,0,0,4359,4360,0,0,0,0,0,0,3425,3426,3427,3428,12075,12075,12075,12075,12075,12075,0,
0,0,0,0,0,0,0,0,0,0,0,3457,3458,3459,3460,0,0,0,3535,3536,0,0,0,4481,4482,0,0,0,0,0,0,0,0,4387,4388,0,0,4355,4356,0,0,0,0,0,0,0,0,0,0,0,0,4387,4388,0,0,0,4391,4392,0,0,0,0,0,0,3457,3458,3459,3460,12075,12075,12075,12075,12075,12075,0,
0,0,0,0,0,0,0,0,0,0,0,3489,3490,3491,3492,0,0,0,3567,3568,0,0,0,4513,4514,0,0,0,0,4355,4356,0,0,0,4355,4356,0,4387,4388,0,0,0,0,0,0,0,0,0,0,0,0,0,0,0,4355,4356,0,0,0,0,0,0,0,0,3489,3490,3491,3492,12075,4045,12075,12075,12075,12075,0,
0,0,0,0,0,0,0,0,0,0,0,4357,4358,0,0,0,0,0,0,0,0,0,0,0,0,0,0,0,0,4387,4388,0,0,0,4387,4388,0,0,4419,4420,0,0,0,0,0,0,0,0,0,0,0,0,0,0,4387,4388,0,0,0,4417,4418,0,0,4481,4482,0,0,0,0,0,0,0,0,0,0,
0,0,0,0,0,0,0,0,0,0,0,4389,4390,0,0,0,0,0,0,0,0,0,0,0,0,0,0,0,0,0,0,0,4353,4354,0,4357,4358,0,4451,4452,0,0,4421,4422,0,0,0,0,0,0,0,4357,4358,0,0,0,4419,4420,0,4449,4450,0,0,4513,4514,0,4353,4354,0,0,0,0,0,0,0,
0,0,0,0,0,0,0,0,0,0,0,0,0,0,0,0,0,0,0,0,4487,4488,0,0,0,0,0,4355,4356,0,0,0,4385,4386,0,4389,4390,0,4417,4418,0,0,4453,4454,0,0,0,4417,4418,0,0,4389,4390,0,0,0,4451,4452,0,0,0,4417,4418,0,0,0,4385,4386,0,0,0,0,0,0,0,
0,0,0,0,0,0,0,0,0,0,0,4359,4360,0,0,0,0,0,0,0,4519,4520,0,0,0,0,0,4387,4388,0,0,0,0,0,0,0,0,0,4449,4450,0,0,0,0,0,0,0,4449,4450,0,0,0,0,0,0,0,0,0,0,0,0,4449,4450,0,4417,4418,0,0,4417,4418,0,0,4423,4424,0,
0,0,0,0,0,0,0,0,0,0,0,4391,4392,0,0,0,0,0,0,0,0,0,0,4481,4482,0,0,0,0,0,0,0,0,0,0,0,0,0,0,0,0,0,0,0,0,0,0,3539,3540,0,0,0,0,0,0,0,0,0,0,0,0,0,0,0,4449,4450,0,0,4449,4450,0,0,4455,4456,0,
0,4357,4358,0,0,0,0,0,0,0,0,0,0,0,0,0,0,0,0,0,0,0,0,4513,4514,0,0,0,4353,4354,0,0,0,0,0,0,0,0,0,0,0,0,0,0,0,0,0,3571,3572,0,0,0,0,0,0,0,0,0,0,0,0,0,0,0,0,0,4355,4356,0,0,4355,4356,0,0,0,
0,4389,4390,0,4355,4356,0,4353,4354,0,0,0,0,0,0,0,0,0,0,0,4353,4354,0,0,0,0,0,4353,4385,4386,0,0,0,0,0,0,0,0,0,0,0,0,0,0,0,0,0,0,0,0,0,0,0,0,0,0,0,0,0,0,0,0,0,0,0,0,4387,4388,0,0,4387,4388,0,0,0,
0,0,0,0,4387,4388,0,4385,4386,0,0,0,0,0,0,0,0,0,0,0,4385,4386,0,0,0,0,0,4385,4386,0,0,0,0,0,0,0,0,0,0,0,0,0,0,0,0,0,0,0,0,0,0,0,0,0,0,0,0,0,0,3958,3959,3960,3961,4485,4486,0,0,0,0,0,0,0,0,0,0,
0,4357,4358,0,0,0,0,0,0,0,0,4359,4360,0,0,0,0,0,0,0,0,0,0,4359,4360,0,0,0,0,0,0,0,33469,33470,33473,33474,0,0,0,0,0,0,0,0,4355,4356,0,0,0,0,0,0,0,0,0,0,0,0,0,3990,3991,3992,3993,4517,4518,0,0,4359,4360,0,0,3971,3972,0,0,
0,4389,4390,4359,4360,0,0,0,0,0,0,4391,4392,0,0,0,0,4483,4484,0,4353,4354,0,4391,4392,0,0,0,0,0,0,0,33437,33440,33441,33442,0,0,0,0,0,0,0,0,4387,4388,0,0,0,0,0,0,0,33289,33290,0,0,0,0,4022,4023,4024,4025,0,0,4355,4356,4391,4392,0,0,4003,4004,0,0,
0,0,0,4391,4392,0,0,0,0,0,0,0,0,0,4355,4356,0,4515,4516,0,4385,4386,0,0,0,0,0,0,0,0,0,0,33453,33456,33457,33458,0,0,0,0,0,0,4359,4360,4549,4550,0,0,0,0,0,0,0,0,0,0,0,0,4417,4418,4055,4056,4057,0,0,4387,4388,0,0,0,0,0,0,0,0,
0,0,4417,4418,0,0,0,0,0,0,0,4359,4360,0,4387,4388,0,0,0,0,0,0,0,0,0,0,0,0,0,0,0,0,0,0,0,0,0,0,0,0,0,0,4391,4392,4581,4582,0,0,3946,3947,3948,3949,0,0,0,0,0,0,4449,4450,0,0,0,4485,4486,0,0,4359,4360,0,0,0,0,0,0,
0,0,4449,4450,0,0,0,0,0,0,0,4391,4392,0,0,0,0,0,0,0,0,0,0,0,0,0,0,0,0,0,0,0,0,0,0,0,0,0,0,0,0,0,0,0,0,3975,3976,0,3978,3979,3980,3981,0,0,0,0,0,0,0,0,0,0,0,4517,4518,0,0,4391,4392,0,0,0,0,0,0,
0,0,0,0,0,4419,4420,0,0,0,0,0,0,0,0,0,4355,4356,0,0,0,0,0,0,0,0,0,0,0,0,0,0,0,0,0,0,0,0,0,0,0,0,0,0,0,4007,4008,0,4010,4011,4012,4013,0,0,0,0,4417,4418,0,0,0,0,0,0,0,4485,4486,0,0,0,0,0,0,0,0,
0,4423,4424,0,0,4451,4452,0,4357,4358,0,0,0,0,0,0,4387,4388,0,0,0,0,0,0,0,0,0,0,0,0,0,4357,4358,0,0,0,0,0,0,0,0,0,0,0,4549,4550,0,4359,4360,4427,0,0,0,0,0,0,4449,4450,0,4421,4422,0,4357,4358,0,4517,4518,0,0,0,0,0,0,0,0,
0,4455,4456,0,0,0,0,0,4389,4390,0,0,0,0,0,0,0,0,0,0,0,0,0,0,0,0,0,0,0,0,0,4389,4390,0,0,0,0,0,0,0,0,0,0,0,4581,4582,0,4391,4392,4419,4420,0,0,0,0,0,0,0,0,4453,4454,0,4389,4390,0,0,0,4353,4354,33469,33470,33471,33472,33473,33474,
0,0,0,0,0,0,0,0,0,0,0,0,0,0,0,0,0,0,0,0,0,0,0,0,0,0,0,0,0,0,0,0,0,0,3975,3976,3977,0,0,0,0,0,0,0,4357,4358,0,0,0,4451,4452,0,0,0,0,0,0,4421,4422,0,0,0,0,0,0,0,0,4385,4386,33389,33550,33551,33552,33553,33394,
0,0,0,0,0,0,0,0,0,0,0,4353,4354,0,0,0,0,0,0,0,0,0,0,0,0,0,0,0,0,0,4357,4358,0,0,4007,4008,4009,0,0,0,0,0,0,0,4389,4390,0,0,4485,4486,4421,4422,0,0,0,0,0,4453,4454,4418,0,0,0,4353,4354,4357,4358,0,0,33405,33566,33567,33568,33569,33410,
0,0,0,0,0,0,0,0,0,0,0,4385,4386,0,0,0,0,0,0,0,0,4353,4354,0,0,0,0,0,0,0,4389,4390,0,0,0,0,0,0,0,0,0,0,0,0,0,0,0,0,4517,4518,4453,4454,0,0,0,4545,4546,0,4449,4450,0,0,0,4385,4386,4389,4390,0,0,33421,33582,33583,33584,33585,33426,
0,0,0,0,0,0,0,0,0,0,0,0,0,0,0,0,4353,4354,0,0,0,4385,4386,0,0,0,0,0,0,0,4357,4358,0,0,0,4357,4358,0,0,0,0,4483,4484,0,4485,4486,0,0,4483,4484,0,0,0,0,0,4577,4578,0,0,0,0,0,0,0,0,0,0,0,0,33437,33598,33599,33600,33601,33442,
0,0,0,0,0,0,0,0,0,0,0,0,0,0,0,0,4385,4386,0,0,4481,4482,0,0,0,0,0,0,0,0,4389,4390,0,0,0,4389,4390,0,0,0,0,4515,4516,0,4517,4518,0,0,4515,4516,0,4353,4354,0,0,0,0,0,0,0,4421,4422,0,0,0,0,0,0,0,33485,33486,33487,33488,33489,33490,
0,0,0,0,0,0,0,0,0,0,0,0,0,0,0,0,0,0,0,0,4513,4514,0,0,0,0,0,0,0,0,0,0,0,0,0,0,0,0,4353,4354,0,0,0,0,0,0,4421,4422,4423,4424,0,4385,4386,0,4545,4546,0,0,0,0,4453,4454,0,0,0,4549,4550,0,0,0,0,0,0,0,0,
0,0,0,0,0,0,0,0,0,0,0,0,0,0,0,0,0,0,0,0,0,0,0,0,0,0,0,0,0,0,0,0,0,0,0,0,0,0,4385,4386,0,4353,4354,0,0,0,4453,4454,4455,4456,0,0,0,0,4577,4578,0,0,0,0,2859,2860,0,0,0,4581,4582,0,0,0,0,0,0,0,0,
0,0,0,0,0,0,0,0,0,0,0,0,0,0,0,0,0,0,0,0,0,0,0,0,0,0,0,0,0,0,0,0,0,0,0,0,4417,4418,0,0,0,4385,4386,0,0,0,0,0,4357,4358,0,0,4357,4358,0,0,4421,4422,0,0,2891,2892,0,0,0,4421,4422,4333,0,0,0,0,4357,4358,0,
0,0,0,0,0,0,0,0,0,0,0,0,0,0,0,0,0,0,0,0,0,4359,4360,0,0,0,0,0,0,0,0,0,0,0,0,0,4449,4450,0,0,0,0,0,0,4483,4484,0,0,4389,4390,0,0,4389,4390,0,0,4453,4454,0,0,2923,2924,0,0,0,4453,4454,4333,4353,4354,0,0,4389,4390,0,
0,0,0,0,0,0,0,0,0,0,0,0,0,0,0,0,0,0,0,0,0,4391,4392,0,0,0,0,0,0,4355,4356,0,0,0,0,0,0,0,0,0,0,0,4419,4420,4515,4516,0,0,0,0,4357,4358,0,0,0,0,0,0,0,0,0,0,0,0,4359,4360,0,0,4385,4386,0,0,0,0,0,
0,0,0,0,0,0,0,0,0,0,0,0,0,0,0,0,0,0,0,0,0,0,0,0,0,0,0,0,0,4387,4388,0,0,0,0,0,4419,4420,0,0,0,0,4451,4452,0,0,0,0,0,0,4389,4390,0,0,0,0,0,0,0,0,0,0,0,0,4391,4392,0,0,0,0,0,0,0,0,0,
0,0,0,0,0,0,0,0,0,0,0,0,0,0,0,0,0,0,0,0,0,0,0,0,4357,4358,0,0,0,0,0,0,0,0,0,0,4451,4452,0,0,0,0,0,0,0,0,0,0,0,0,0,0,0,0,0,0,0,0,0,0,0,0,0,0,0,0,4483,4484,4359,4360,0,0,0,0,0,
0,0,0,0,0,3529,3530,0,4359,4360,4359,4360,0,0,0,0,0,4359,4360,0,0,0,0,0,4389,4390,0,0,0,0,4359,4360,0,0,0,0,0,0,0,0,0,0,0,0,0,0,0,0,4481,4482,0,0,4355,4356,0,4417,4418,0,0,0,0,0,0,3535,3536,0,4515,4516,4391,4392,0,0,0,0,0,
0,0,0,0,0,3561,3562,0,4391,4392,4391,4392,4355,4356,0,0,0,4391,4392,0,0,0,0,0,0,0,0,0,0,0,4391,4392,0,0,0,0,0,0,0,0,0,0,0,0,0,0,0,0,4513,4514,0,0,4387,4388,0,4449,4450,0,0,0,0,0,0,3567,3568,0,0,0,0,0,0,0,0,0,0,
0,0,0,0,0,4353,4354,3393,3394,3395,3396,0,4387,4388,0,0,0,0,0,0,0,0,0,0,0,4353,4354,0,0,0,0,0,0,0,0,0,0,0,0,0,0,0,0,0,0,0,0,0,0,0,4545,4546,0,0,0,0,0,0,0,0,0,0,0,0,0,0,0,0,0,0,0,0,0,0,0,
0,0,0,0,0,4385,4386,3425,3426,3427,3428,0,0,0,0,0,4359,4360,0,0,4355,4356,0,0,0,4385,4386,0,0,0,0,0,0,0,0,0,0,0,0,0,0,0,0,0,0,0,4545,4546,4485,4486,4577,4578,0,0,4481,4482,0,0,33272,0,0,0,0,0,0,0,0,0,3537,3538,0,0,0,0,0,
0,0,0,0,0,0,0,3457,3458,3459,3460,0,0,4417,4418,0,4391,4392,0,0,4387,4388,0,0,0,0,0,0,0,0,0,0,4355,4356,0,0,0,0,0,0,0,0,0,0,0,0,4577,4578,4517,4518,0,4353,4354,0,4513,4514,0,0,33271,0,0,0,4549,4550,0,0,0,0,3569,3570,4549,4550,0,0,0,
0,0,0,0,0,0,0,3489,3490,3491,3492,0,0,4449,4450,0,4481,4482,0,0,0,4487,4488,0,4357,4358,0,0,4353,4354,0,0,4387,4388,0,0,0,0,0,0,4419,4420,0,0,4551,4552,4545,4546,0,0,0,4385,4386,0,4353,4354,0,0,33287,0,0,0,4581,4582,0,0,0,0,0,0,4581,4582,0,0,0,
0,0,0,0,0,0,0,0,0,0,0,0,0,0,0,0,4513,4514,0,0,0,4519,4520,0,4389,4390,0,0,4385,4386,0,0,0,0,0,0,0,0,0,0,4451,4452,0,0,4583,4584,4577,4578,0,0,0,0,0,0,4385,4386,0,0,33271,0,0,0,0,0,0,0,0,0,0,0,0,0,0,0,0,
0,0,0,0,0,0,0,0,0,0,0,0,0,0,0,0,0,0,0,0,0,0,0,0,0,0,0,0,0,0,0,0,0,0,0,0,0,0,0,0,0,0,0,0,0,0,0,0,0,0,0,0,0,0,0,0,0,0,0,0,0,0,0,0,0,0,0,0,0,0,0,0,0,0,0
</data>
 </layer>
 <layer id="5" name="doors" width="75" height="75">
  <data encoding="csv">
0,0,0,0,0,0,0,0,0,0,0,0,0,0,0,0,0,0,0,0,0,0,0,0,0,0,0,0,0,0,0,0,0,0,0,0,0,0,0,0,0,0,0,0,0,0,0,0,0,0,0,0,0,0,0,0,0,0,0,0,0,0,0,0,0,0,0,0,0,0,0,0,0,0,0,
0,0,0,0,0,0,0,0,0,0,0,0,0,0,0,0,0,0,0,0,0,0,0,0,0,0,0,0,0,0,0,0,0,0,0,0,0,0,0,0,0,0,0,0,0,0,0,0,0,0,0,0,0,0,0,0,0,0,0,0,0,0,0,0,0,0,0,0,0,0,0,0,0,0,0,
0,0,0,0,0,0,0,0,0,0,0,0,0,0,0,0,0,0,0,0,0,0,0,0,0,0,0,0,0,0,0,0,0,0,0,0,0,0,0,0,0,0,0,0,0,0,0,0,0,0,0,0,0,0,0,0,0,0,0,0,0,0,0,0,0,0,0,0,0,0,0,0,0,0,0,
0,0,0,0,0,0,0,0,0,0,0,0,0,0,0,0,0,0,0,0,0,0,0,0,0,0,0,0,0,0,0,0,0,0,0,0,0,0,0,0,0,0,0,0,0,0,0,0,0,0,0,0,0,0,0,0,0,0,0,0,0,0,0,0,0,0,0,0,0,0,0,0,0,0,0,
0,0,0,0,0,0,0,0,0,0,0,0,0,0,0,0,0,0,0,0,0,0,0,0,0,0,0,0,0,0,0,0,0,0,0,0,0,0,0,0,0,0,0,0,0,0,0,0,0,0,0,0,0,0,0,0,0,0,0,0,0,0,0,0,0,0,0,0,0,0,0,0,0,0,0,
0,0,0,0,0,0,0,0,0,0,0,0,0,0,0,0,0,0,0,0,0,0,0,0,0,0,0,0,0,0,0,0,0,0,0,0,0,0,0,0,0,0,0,0,0,0,0,0,0,0,0,0,0,0,0,0,0,0,0,0,0,0,0,0,0,0,0,0,0,0,0,0,0,0,0,
0,0,0,0,0,0,0,0,0,0,0,0,0,0,0,0,0,0,0,0,0,0,0,0,0,0,0,0,0,0,0,0,0,0,0,0,0,0,0,0,0,0,0,0,0,0,0,0,0,0,0,0,0,0,0,0,0,0,0,0,0,0,0,0,0,0,0,0,0,0,0,0,0,0,0,
0,0,0,0,0,0,0,0,0,0,0,0,0,0,0,0,0,0,0,0,0,0,0,0,0,0,0,0,0,0,0,0,0,0,0,0,0,0,0,0,0,0,0,0,0,0,0,0,0,0,0,0,0,0,0,0,0,0,0,0,0,0,0,0,0,0,0,0,0,0,0,0,0,0,0,
0,0,0,0,0,0,0,0,0,0,0,0,0,0,0,0,0,0,0,0,0,0,0,0,0,0,0,0,0,0,0,0,0,0,0,0,0,0,0,0,0,0,0,0,0,0,0,0,0,0,0,0,0,0,0,0,0,0,0,0,0,0,0,0,0,0,0,0,0,0,0,0,0,0,0,
0,0,0,0,0,0,0,0,0,0,0,0,0,0,0,0,0,0,0,0,0,0,0,0,0,0,0,0,0,0,0,0,0,0,0,0,0,0,0,0,0,0,0,0,0,0,0,0,0,0,0,0,0,0,0,0,0,0,0,0,0,0,0,0,0,0,0,0,0,0,0,0,0,0,0,
0,0,0,0,0,0,0,0,0,0,0,0,0,0,0,0,0,0,0,0,0,0,0,0,0,0,0,0,0,0,0,0,0,0,0,0,0,0,0,0,0,0,0,0,0,0,0,0,0,0,0,0,0,0,0,0,0,0,0,0,0,0,0,0,0,0,0,0,0,0,0,0,0,0,0,
0,0,0,0,0,0,0,0,0,0,0,0,0,0,0,0,0,0,0,0,0,0,0,0,0,0,0,0,0,0,0,0,0,0,0,0,0,0,0,0,0,0,0,0,0,0,0,0,0,0,0,0,0,0,0,0,0,0,0,0,0,0,0,0,0,0,0,0,0,0,0,0,0,0,0,
0,0,0,0,0,0,0,0,0,0,0,0,0,0,0,0,0,0,0,0,0,0,0,0,0,0,0,0,0,0,0,0,0,0,0,0,0,0,0,0,0,0,0,0,0,0,0,0,0,0,0,0,0,0,0,0,0,0,0,0,0,0,0,0,0,0,0,0,0,0,0,0,0,0,0,
0,0,0,0,0,0,0,0,0,0,0,0,0,0,0,0,0,0,0,0,0,0,0,0,0,0,0,0,0,0,0,0,0,0,0,0,0,0,0,0,0,0,0,0,0,0,0,0,0,0,0,0,0,0,0,0,0,0,0,0,0,0,0,0,0,0,0,0,0,0,0,0,0,0,0,
0,0,0,0,0,0,0,0,0,0,0,0,0,0,0,0,0,0,0,0,0,0,0,0,0,0,0,0,0,0,0,0,0,0,0,0,0,0,0,0,0,0,0,0,0,0,0,0,0,0,0,0,0,0,0,0,0,0,0,0,0,0,0,0,0,0,0,0,0,0,0,0,0,0,0,
0,0,0,0,0,0,0,0,0,0,0,0,0,0,0,0,0,0,0,0,0,0,0,0,0,0,0,0,0,0,0,0,0,0,0,0,0,0,0,0,0,0,0,0,0,0,0,0,0,0,0,0,0,0,0,0,0,0,0,0,0,0,0,0,0,0,0,0,0,0,0,0,0,0,0,
0,0,0,0,0,0,0,0,0,0,0,0,0,0,0,0,0,0,0,0,0,0,0,0,0,0,0,0,0,0,0,0,0,0,0,0,0,0,0,0,0,0,0,0,0,0,0,0,0,0,0,0,0,0,0,0,0,0,0,0,0,0,0,0,0,0,0,0,0,0,0,0,0,0,0,
0,0,0,0,0,0,0,0,0,0,0,0,0,0,0,0,0,0,0,0,0,0,0,0,0,0,0,0,0,0,0,0,0,0,0,0,0,0,0,0,0,0,0,0,0,0,0,0,0,0,0,0,0,0,0,0,0,0,0,0,0,0,0,0,0,0,0,0,0,0,0,0,0,0,0,
0,0,0,0,0,0,0,0,0,0,0,0,0,0,0,0,0,0,0,0,0,0,0,0,0,0,0,0,0,0,0,0,0,0,0,0,0,0,0,0,0,0,0,0,0,0,0,0,0,0,0,0,0,0,0,0,0,0,0,0,0,0,0,0,0,0,0,0,0,0,0,0,0,0,0,
0,0,0,0,0,0,0,0,0,0,0,0,0,0,0,0,0,0,0,0,0,0,0,0,0,0,0,0,0,0,0,0,0,0,0,0,0,0,0,0,0,0,0,0,0,0,0,0,0,0,0,0,0,0,0,0,0,0,0,0,0,0,0,0,0,0,0,0,0,0,0,0,0,0,0,
0,0,0,0,0,0,0,0,0,0,0,0,0,0,0,0,0,0,0,0,0,0,0,0,0,0,0,0,0,0,0,0,0,0,0,0,0,0,0,0,0,0,0,0,0,0,0,0,0,0,0,0,0,0,0,0,0,0,0,0,0,0,0,0,0,0,0,0,0,0,0,0,0,0,0,
0,0,0,0,0,0,0,0,0,0,0,0,0,0,0,0,0,0,0,0,0,0,0,0,0,0,0,0,0,0,0,0,0,0,0,0,0,0,0,0,0,0,0,0,0,0,0,0,0,0,0,0,0,0,0,0,0,0,0,0,0,0,0,0,0,0,0,0,0,0,0,0,0,0,0,
0,0,0,0,0,0,0,0,0,0,0,0,0,0,0,0,0,0,0,0,0,0,0,0,0,0,0,0,0,0,0,0,0,0,0,0,0,0,0,0,0,0,0,0,0,0,0,0,0,0,0,0,0,0,0,0,0,0,0,0,0,0,0,0,0,0,0,0,0,0,0,0,0,0,0,
0,0,0,0,0,0,0,0,0,0,0,0,0,0,0,0,0,0,0,0,0,0,0,0,0,0,0,0,0,0,0,0,0,0,0,0,0,0,0,0,0,0,0,0,0,0,0,0,0,0,0,0,0,0,0,0,0,0,0,0,0,0,0,0,0,0,0,0,0,0,0,0,0,0,0,
0,0,0,0,0,0,0,0,0,0,0,0,0,0,0,0,0,0,0,0,0,0,0,0,0,0,0,0,0,0,0,0,0,0,0,0,0,0,0,0,0,0,0,0,0,0,0,0,0,0,0,0,0,0,0,0,0,0,0,0,0,0,0,0,0,0,0,0,0,0,0,0,0,0,0,
0,0,0,0,0,0,0,0,0,0,0,0,0,0,0,0,0,0,0,0,0,0,0,0,0,0,0,0,0,0,0,0,0,0,0,0,0,0,0,0,0,0,0,0,0,0,0,0,0,0,0,0,0,0,0,0,0,0,0,0,0,0,0,0,0,0,0,0,0,0,0,0,0,0,0,
0,0,0,0,0,0,0,0,0,0,0,0,0,0,0,0,0,0,0,0,0,0,0,0,0,0,0,0,0,0,0,0,0,0,0,0,0,0,0,0,0,0,0,0,0,0,0,0,0,0,0,0,0,0,0,0,0,0,0,0,0,0,0,0,0,0,0,0,0,0,0,0,0,0,0,
0,0,0,0,0,0,0,0,0,0,0,0,0,0,0,0,0,0,0,0,0,0,0,0,0,0,0,0,0,0,0,0,0,0,0,0,0,0,0,0,0,0,0,0,0,0,0,0,0,0,0,0,0,0,0,0,0,0,0,0,0,0,0,0,0,0,0,0,0,0,0,0,0,0,0,
0,0,0,0,0,0,0,0,0,0,0,0,0,0,0,0,0,0,0,0,0,0,0,0,0,0,0,0,0,0,0,0,0,0,0,0,0,0,0,0,0,0,0,0,0,0,0,0,0,0,0,0,0,0,0,0,0,0,0,0,0,0,0,0,0,0,0,0,0,0,0,0,0,0,0,
0,0,0,0,0,0,0,0,0,0,0,0,0,0,0,0,0,0,0,0,0,0,0,0,0,0,0,0,0,0,0,0,0,0,0,0,0,0,0,0,0,0,0,0,0,0,0,0,0,0,0,0,0,0,0,0,0,0,0,0,0,0,0,0,0,0,0,0,0,0,0,0,0,0,0,
0,0,0,0,0,0,0,0,0,0,0,0,0,0,0,0,0,0,0,0,0,0,0,0,0,0,0,0,0,0,0,0,0,0,0,0,0,0,0,0,0,0,0,0,0,0,0,0,0,0,0,0,0,0,0,0,0,0,0,0,0,0,0,0,0,0,0,0,0,0,0,0,0,0,0,
0,0,0,0,0,0,0,0,0,0,0,0,0,0,0,0,0,0,0,0,0,0,0,0,0,0,0,0,0,0,0,0,0,0,0,0,0,0,0,0,0,0,0,0,0,0,0,0,0,0,0,0,0,0,0,0,0,0,0,0,0,0,0,0,0,0,0,0,0,0,0,0,0,0,0,
0,0,0,0,0,0,0,0,0,0,0,0,0,0,0,0,0,0,0,0,0,0,0,0,0,0,0,0,0,0,0,0,0,0,0,0,0,0,0,0,0,0,4875,4876,4877,4878,4879,4880,4875,4876,4877,4878,4879,4880,0,0,0,0,0,0,0,0,0,0,0,0,0,0,0,0,0,0,0,0,0,
0,0,0,0,0,0,0,0,0,0,0,0,0,0,0,0,0,0,0,0,0,0,0,0,0,0,0,0,0,0,0,0,0,0,0,0,0,0,0,0,0,0,0,0,0,0,0,0,0,0,0,0,0,0,0,0,0,0,0,0,0,0,0,0,0,0,0,0,0,0,0,0,0,0,0,
0,0,0,0,0,0,0,0,0,0,0,0,0,0,0,0,0,0,0,0,0,0,0,0,0,0,0,0,0,0,0,0,0,0,0,0,0,0,0,0,0,0,0,0,0,0,0,0,0,0,0,0,0,0,0,0,0,0,0,0,0,0,0,0,0,0,0,0,0,0,0,0,0,0,0,
0,0,0,0,0,0,0,0,0,0,0,0,0,0,0,0,0,0,0,0,0,0,0,0,0,0,0,0,0,0,4676,0,0,0,0,0,0,0,0,0,0,0,0,0,0,0,0,0,0,0,0,0,0,0,0,0,0,0,0,0,0,0,0,0,0,0,0,0,0,0,0,0,0,0,0,
0,0,0,0,0,0,0,0,0,0,0,0,0,0,0,0,0,0,0,0,0,0,0,0,0,0,0,0,0,0,0,0,0,0,0,0,0,0,0,0,0,0,0,0,0,0,0,0,0,0,0,0,0,0,0,0,0,0,0,0,0,0,0,0,0,0,0,0,0,0,0,0,0,0,0,
0,0,0,0,0,0,0,0,0,0,0,0,0,0,0,0,0,0,0,0,0,0,0,0,0,0,0,0,0,0,0,0,0,0,0,0,0,0,0,0,0,0,0,0,0,0,0,0,0,0,0,0,0,0,0,0,0,0,0,0,0,0,0,0,0,0,0,0,0,0,0,0,0,0,0,
0,0,0,0,0,0,0,0,0,0,0,0,0,0,0,0,0,0,0,0,0,0,0,0,0,0,0,0,0,0,0,0,0,0,0,0,0,0,0,0,0,0,0,0,0,0,0,0,0,0,0,0,0,0,0,0,0,0,0,0,0,0,0,0,0,0,0,0,0,0,0,0,0,0,0,
0,0,0,0,0,0,0,0,0,0,0,0,0,0,0,0,0,0,0,0,0,0,0,0,0,0,0,0,0,0,0,0,0,0,0,0,0,0,0,0,0,0,0,0,0,0,0,0,0,0,0,0,0,0,0,0,0,0,0,0,0,0,0,0,0,0,0,0,0,0,0,0,0,0,0,
0,0,0,0,0,0,0,0,0,0,0,0,0,0,0,0,0,0,0,0,0,0,0,0,0,0,0,0,0,0,0,0,0,0,0,0,0,0,0,0,0,0,0,0,0,0,0,0,0,0,0,0,0,0,0,0,0,0,0,0,0,0,0,0,0,0,0,0,0,0,0,0,0,0,0,
0,0,0,0,0,0,0,0,0,0,0,0,0,0,0,0,0,0,0,0,0,0,0,0,0,0,0,0,0,0,0,0,0,0,0,0,0,0,0,0,0,0,0,0,0,0,0,0,0,0,0,0,0,0,0,0,0,0,0,0,0,0,0,0,0,0,0,0,0,0,0,0,0,0,0,
0,0,0,0,0,0,0,0,0,0,0,0,0,0,0,0,0,0,0,0,0,0,0,0,0,0,0,0,0,0,0,0,0,0,0,0,0,0,0,0,0,0,0,0,0,0,0,0,0,0,0,0,0,0,0,0,0,0,0,0,0,0,0,0,0,0,0,0,0,0,0,0,0,0,0,
0,0,0,0,0,0,0,0,0,0,0,0,0,0,0,0,0,0,0,0,0,0,0,0,0,0,0,0,0,0,0,0,0,0,0,0,0,2754,2755,2756,2757,0,0,0,0,0,0,0,0,0,0,0,0,0,0,0,0,0,0,0,0,0,0,0,0,0,0,0,0,0,0,0,0,0,0,
0,0,0,0,0,0,3946,0,0,3949,0,0,0,0,0,0,0,0,0,0,0,0,0,0,0,0,0,0,0,0,0,0,0,0,0,0,0,2786,2787,2788,2789,0,0,0,0,0,0,0,0,0,0,0,0,0,0,0,0,0,0,0,0,0,0,0,0,0,0,0,0,0,0,0,0,0,0,
0,0,0,0,0,0,3076,3076,3076,3076,0,0,0,0,0,0,0,0,0,0,0,0,0,0,0,0,0,0,0,0,0,0,0,0,0,0,0,2818,2819,2820,2821,0,0,0,0,0,0,0,0,0,0,0,0,0,0,0,0,0,0,0,0,0,0,0,0,0,0,0,0,0,0,0,0,0,0,
0,0,0,0,0,0,3076,3076,3076,3076,0,0,0,0,0,0,0,0,0,0,0,0,0,0,0,0,0,0,0,0,0,0,0,0,0,0,0,2850,2851,2852,2853,0,0,0,0,0,0,0,0,0,0,0,0,0,0,0,0,0,0,0,0,0,0,0,0,0,0,0,0,0,0,0,0,0,0,
0,0,0,0,0,0,3076,3076,3076,3076,0,0,0,0,0,0,0,0,0,0,0,0,0,0,0,0,0,0,0,0,0,0,0,0,0,0,0,0,0,0,0,0,0,0,0,0,0,0,0,0,0,0,0,0,0,0,0,0,0,0,0,0,0,0,0,0,0,0,0,0,0,0,0,0,0,
0,0,0,0,0,0,0,0,0,0,0,0,0,0,0,0,0,0,0,0,0,0,0,0,0,0,0,0,0,0,0,0,0,0,0,0,0,0,0,0,0,0,0,0,0,0,0,0,0,0,0,0,0,0,0,0,0,0,0,0,0,0,0,0,0,0,0,0,0,0,0,0,0,0,0,
0,0,0,0,0,0,0,0,0,0,0,0,0,0,0,0,0,0,0,0,0,0,0,0,0,0,0,0,0,0,0,0,0,0,0,0,0,0,0,0,0,0,0,0,0,0,0,0,0,0,0,0,0,0,0,0,0,0,0,0,0,0,0,0,0,0,0,0,0,0,0,0,0,0,0,
0,0,0,0,0,0,0,0,0,0,0,0,0,0,0,0,0,0,0,0,0,0,0,0,0,0,0,0,0,0,0,0,0,0,0,0,0,0,0,0,0,0,0,0,0,0,0,0,0,0,0,0,0,0,0,0,0,0,0,0,0,0,0,0,0,0,0,0,0,0,0,0,0,0,0,
0,0,0,0,0,0,0,0,0,0,0,0,0,0,0,0,0,0,0,0,0,0,0,2754,2755,2756,2757,0,0,0,0,0,0,0,0,0,0,0,0,0,0,0,0,0,0,0,0,0,0,0,0,0,0,0,0,0,0,0,0,0,0,0,0,0,0,0,0,0,0,0,0,0,0,0,0,
0,0,0,0,0,0,0,0,0,0,0,0,0,0,0,0,0,0,0,0,0,0,0,2786,2787,2788,2789,0,0,0,0,0,0,0,0,0,0,0,0,0,0,0,0,0,0,0,0,0,0,0,0,0,0,0,0,0,0,0,0,0,0,0,0,0,0,0,0,0,0,0,0,0,0,0,0,
0,0,0,0,0,0,0,0,0,0,0,0,0,0,0,0,0,0,0,0,0,0,0,2818,2819,2820,2821,0,0,0,0,0,0,0,0,0,0,0,0,0,0,0,0,0,0,0,0,0,0,0,0,0,0,0,0,0,0,0,0,0,0,0,0,0,0,0,0,0,0,0,0,0,0,0,0,
0,0,0,0,0,0,0,0,0,0,0,0,0,0,0,0,0,0,0,0,0,0,0,2850,2851,2852,2853,0,0,0,0,0,0,0,0,0,0,0,0,0,0,0,0,0,0,0,0,0,0,0,0,0,0,0,0,0,0,0,0,0,0,0,0,0,0,0,0,0,0,0,0,0,0,0,0,
0,0,0,0,0,0,0,0,0,0,0,0,0,0,0,0,0,0,0,0,0,0,0,0,0,0,0,0,0,0,0,0,0,0,0,0,0,0,0,0,0,0,0,0,0,0,0,0,0,0,0,0,0,0,0,0,0,0,0,0,0,0,0,0,0,0,0,0,0,0,0,0,0,0,0,
0,0,0,0,0,0,0,0,0,0,0,0,0,0,0,0,0,0,0,0,0,0,0,0,0,0,0,0,0,0,0,0,0,0,0,0,0,0,0,0,0,0,0,0,0,0,0,0,0,0,0,0,0,0,0,0,0,0,0,0,0,0,0,0,0,0,0,0,0,0,0,0,0,0,0,
0,0,0,0,0,0,0,0,0,0,0,0,0,0,0,0,0,0,0,0,0,0,0,0,0,0,0,0,0,0,0,0,0,0,0,0,0,0,0,0,0,0,0,0,0,0,0,0,0,0,0,0,0,0,0,0,0,0,0,0,0,0,0,0,0,0,0,0,0,0,0,0,0,0,0,
0,0,0,0,0,0,0,0,0,0,0,0,0,0,0,0,0,0,0,0,0,0,0,0,0,0,0,0,0,0,0,0,0,0,0,0,0,0,0,0,0,0,0,0,0,0,0,0,0,0,0,0,0,0,0,0,0,0,0,0,0,0,0,0,0,0,0,0,0,0,0,0,0,0,0,
0,0,0,0,0,0,0,0,0,0,0,0,0,0,0,0,0,0,0,0,0,0,0,0,0,0,0,0,0,0,0,0,0,0,0,0,0,0,0,0,0,0,0,0,0,0,0,0,0,0,0,0,0,0,0,0,0,0,0,0,0,0,0,0,0,0,0,0,0,0,0,0,0,0,0,
0,0,0,0,0,0,0,0,0,0,0,0,0,0,0,0,0,0,0,0,0,0,0,0,0,0,0,0,0,0,0,0,0,0,0,0,0,0,0,0,0,0,0,0,0,0,0,0,0,0,0,0,0,0,0,0,0,0,0,0,0,0,0,0,0,0,0,0,0,0,0,0,0,0,0,
0,0,0,0,0,0,0,0,0,0,0,0,0,0,0,0,0,0,0,0,0,0,0,0,0,0,0,0,0,0,0,0,0,0,0,0,0,0,0,0,0,0,0,0,0,0,0,0,0,0,0,0,0,0,0,0,0,0,0,0,0,0,0,0,0,0,0,0,0,0,0,0,0,0,0,
0,0,0,0,0,0,0,0,0,0,0,0,0,0,0,0,0,0,0,0,0,0,0,0,0,0,0,0,0,0,0,0,0,0,0,0,0,0,0,0,0,0,0,0,0,0,0,0,0,0,0,0,0,0,0,0,0,0,0,0,0,0,0,0,0,0,0,0,0,0,0,0,0,0,0,
0,0,0,0,0,0,0,0,0,0,0,0,0,0,0,0,0,0,0,0,0,0,0,0,0,0,0,0,0,0,0,0,0,0,0,0,0,0,0,0,0,0,0,0,0,0,0,0,0,0,0,0,0,0,0,0,0,0,0,0,0,0,0,0,0,0,0,0,0,0,0,0,0,0,0,
0,0,0,0,0,0,0,0,0,0,0,0,0,0,0,0,0,0,0,0,0,0,0,0,0,0,0,0,0,0,0,0,0,0,0,0,0,0,0,0,0,0,0,0,0,0,0,0,0,0,0,0,0,0,0,0,0,0,0,0,0,0,0,0,0,0,0,0,0,0,0,0,0,0,0,
0,0,0,0,0,0,0,0,0,0,0,0,0,0,0,0,0,0,0,0,0,0,0,0,0,0,0,0,0,0,0,0,0,0,0,0,0,0,0,0,0,0,0,0,0,0,0,0,0,0,0,0,0,0,0,0,0,0,0,0,0,0,0,0,0,0,0,0,0,0,0,0,0,0,0,
0,0,0,0,0,0,0,0,0,0,0,0,0,0,0,0,0,0,0,0,0,0,0,0,0,0,0,0,0,0,0,0,0,0,0,0,0,0,0,0,0,0,0,0,0,0,0,0,0,0,0,0,0,0,0,0,0,0,0,0,0,0,0,0,0,0,0,0,0,0,0,0,0,0,0,
0,0,0,0,0,0,0,0,0,0,0,0,0,0,0,0,0,0,0,0,0,0,0,0,0,0,0,0,0,0,0,0,0,0,0,0,0,0,0,0,0,0,0,0,0,0,0,0,0,0,0,0,0,0,0,0,0,0,0,0,0,0,0,0,0,0,0,0,0,0,0,0,0,0,0,
0,0,0,0,0,0,0,0,0,0,0,0,0,0,0,0,0,0,0,0,0,0,0,0,0,0,0,0,0,0,0,0,0,0,0,0,0,0,0,0,0,0,0,0,0,0,0,0,0,0,0,0,0,0,0,0,0,0,0,0,0,0,0,0,0,0,0,0,0,0,0,0,0,0,0,
0,0,0,0,0,0,0,0,0,0,0,0,0,0,0,0,0,0,0,0,0,0,0,0,0,0,0,0,0,0,0,0,0,0,0,0,0,0,0,0,0,0,0,0,0,0,0,0,0,0,0,0,0,0,0,0,0,0,0,0,0,0,0,0,0,0,0,0,0,0,0,0,0,0,0,
0,0,0,0,0,0,0,0,0,0,0,0,0,0,0,0,0,0,0,0,0,0,0,0,0,0,0,0,0,0,0,0,0,0,0,0,0,0,0,0,0,0,0,0,0,0,0,0,0,0,0,0,0,0,0,0,0,0,242,243,244,245,0,0,0,0,0,0,0,0,0,0,0,0,0,
0,0,0,0,0,0,0,0,0,0,0,0,0,0,0,0,0,0,0,0,0,0,0,0,0,0,0,0,0,0,0,0,0,0,0,0,0,0,0,0,0,0,0,0,0,0,0,0,0,0,0,0,0,0,0,0,0,0,306,307,308,309,0,0,0,0,0,0,0,0,0,0,0,0,0,
0,0,0,0,0,0,0,0,0,0,0,0,0,0,0,0,0,0,0,0,0,0,0,0,0,0,0,0,0,0,0,0,0,0,0,0,0,0,0,0,0,0,0,0,0,0,0,0,0,0,0,0,0,0,0,0,0,0,370,371,372,373,0,0,0,0,0,0,0,0,0,0,0,0,0,
0,0,0,0,0,0,0,0,0,0,0,0,0,0,0,0,0,0,0,0,0,0,0,0,0,0,0,0,0,0,0,0,0,0,0,0,0,0,0,0,0,0,0,0,0,0,0,0,0,0,0,0,0,0,0,0,0,0,434,435,436,437,0,0,0,0,0,0,0,0,0,0,0,0,0,
0,0,0,0,0,0,0,0,0,0,0,0,0,0,0,0,0,0,0,0,0,0,0,0,0,0,0,0,0,0,0,0,0,0,0,0,0,0,0,0,0,0,0,0,0,0,0,0,0,0,0,0,0,0,0,0,0,0,0,0,0,0,0,0,0,0,0,0,0,0,0,0,0,0,0
</data>
 </layer>
 <layer id="4" name="walls" width="75" height="75">
  <data encoding="csv">
0,0,0,0,0,0,0,0,0,0,0,0,0,0,0,0,0,0,0,0,0,0,0,0,0,0,0,0,0,0,0,0,0,0,0,0,0,0,0,0,0,0,0,0,0,0,0,0,0,0,0,0,0,0,0,0,0,0,0,0,0,0,0,0,0,0,0,0,0,0,0,0,0,0,0,
0,0,0,0,0,0,0,0,0,0,0,0,0,0,0,0,0,0,0,0,0,0,0,0,0,0,0,0,0,0,0,0,0,0,0,0,0,0,0,0,0,0,0,0,0,0,0,0,0,0,0,0,0,0,0,0,0,0,0,0,0,0,0,0,0,0,0,0,0,0,0,0,0,0,0,
0,0,0,0,0,0,0,0,0,0,0,0,0,0,0,0,0,0,0,0,0,0,0,0,0,0,0,0,0,0,0,0,0,0,0,0,0,0,0,0,0,0,0,0,0,0,0,0,0,0,0,0,0,0,0,0,0,0,0,0,0,0,0,0,0,0,0,0,0,0,0,0,0,0,0,
0,0,0,0,0,0,0,0,0,0,0,0,0,0,0,0,0,0,0,0,0,0,0,0,0,0,0,0,0,0,0,0,0,0,0,0,0,0,0,0,0,0,0,0,0,0,0,0,0,0,0,0,0,0,0,0,0,0,0,0,0,0,0,0,0,0,0,0,0,0,0,0,0,0,0,
0,0,0,0,0,0,0,0,0,0,0,0,0,0,0,0,0,0,0,0,0,0,0,0,0,0,0,0,0,0,0,0,0,0,0,0,0,0,0,0,0,0,0,0,0,0,0,0,0,0,0,0,0,0,0,0,0,0,0,0,0,0,0,0,0,0,0,0,0,0,0,0,0,0,0,
0,0,0,0,0,0,0,0,0,0,0,0,0,0,0,0,0,0,0,0,0,0,0,0,0,0,0,0,0,0,0,0,0,0,0,0,0,0,0,0,0,0,0,0,0,0,0,0,0,0,0,0,0,0,0,0,0,0,0,0,0,0,0,0,0,0,0,0,0,0,0,0,0,0,0,
0,0,0,0,0,0,0,0,0,0,0,0,0,0,0,0,0,0,0,0,0,0,0,0,0,0,0,0,0,0,0,0,0,0,0,0,0,0,0,0,0,0,0,0,0,0,0,0,0,0,0,0,0,0,0,0,0,0,0,0,0,0,0,0,0,0,0,0,0,0,0,0,0,0,0,
0,0,0,0,0,0,0,0,0,0,0,0,0,0,0,0,0,0,0,0,0,0,0,0,0,0,0,0,0,0,0,0,0,0,0,0,0,0,0,0,0,0,0,0,0,0,0,0,0,0,0,0,0,0,0,0,0,0,0,0,0,0,0,0,0,0,0,0,0,0,0,0,0,0,0,
0,0,0,0,0,0,0,0,0,0,0,0,0,0,0,0,0,0,0,0,0,0,0,0,0,0,0,0,0,0,0,0,0,0,0,0,0,0,0,0,0,0,0,0,0,0,0,0,0,0,0,0,0,0,0,0,0,0,0,0,0,0,0,0,0,0,0,0,0,0,0,0,0,0,0,
0,0,0,0,0,0,0,0,0,0,0,0,0,0,0,0,0,0,0,0,0,0,0,0,0,0,0,0,0,0,0,0,0,0,0,0,0,0,0,0,0,0,0,0,0,0,0,0,0,0,0,0,0,0,0,0,0,0,0,0,0,0,0,0,0,0,0,0,0,0,0,0,0,0,0,
0,0,0,0,0,0,0,0,0,0,0,0,0,0,0,0,0,0,0,0,0,0,0,0,0,0,0,0,0,0,0,0,0,0,0,0,0,0,0,0,0,0,0,0,0,0,0,0,0,0,0,0,0,0,0,0,0,0,0,0,0,0,0,0,0,0,0,0,0,0,0,0,0,0,0,
0,0,0,0,0,0,0,0,0,0,0,0,0,0,0,0,0,0,0,0,0,0,0,0,0,0,0,0,0,0,0,0,0,0,0,0,0,0,0,0,0,0,0,0,0,0,0,0,0,0,0,0,0,0,0,0,0,0,0,0,0,0,0,0,0,0,0,0,0,0,0,0,0,0,0,
0,0,0,0,0,0,0,0,0,0,0,0,0,0,0,0,0,0,0,0,0,0,0,0,0,0,0,0,0,0,0,0,0,0,0,0,0,0,0,0,0,0,0,0,0,0,0,0,0,0,0,0,0,0,0,0,0,0,0,0,0,0,0,0,0,0,0,0,0,0,0,0,0,0,0,
0,0,0,0,0,0,0,0,0,0,0,0,0,0,0,0,0,0,0,0,0,0,0,0,0,0,0,0,0,0,0,0,0,0,0,0,0,0,0,0,0,0,0,0,0,0,0,0,0,0,0,0,0,0,0,0,0,0,0,0,0,0,0,0,0,0,0,0,0,0,0,0,0,0,0,
0,0,0,0,0,0,0,0,0,0,0,0,0,0,0,0,0,0,0,0,0,0,0,0,0,0,0,0,0,0,0,0,0,0,0,0,0,0,0,0,0,0,0,0,0,0,0,0,0,0,0,0,0,0,0,0,0,0,0,0,0,0,0,0,0,0,0,0,0,0,0,0,0,0,0,
0,0,0,0,0,0,0,0,0,0,0,0,0,0,0,0,0,0,0,0,0,0,0,0,0,0,0,0,0,0,0,0,0,0,0,0,0,0,0,0,0,0,0,0,0,0,0,0,0,0,0,0,0,0,0,0,0,0,0,0,4675,4676,4677,4678,4679,4677,4676,4677,4678,4679,4676,4680,0,0,0,
0,0,0,0,0,0,0,0,0,0,0,0,0,0,0,0,0,0,0,0,0,0,0,0,0,0,0,0,0,0,0,0,0,0,0,0,0,0,0,0,0,0,0,0,0,0,0,0,0,0,0,0,0,0,0,0,0,0,0,0,4707,4709,0,0,0,0,0,0,0,0,0,4712,0,0,0,
0,0,0,0,0,0,0,0,0,0,0,0,0,0,0,0,0,0,0,0,0,0,0,0,0,0,0,0,0,0,0,0,0,0,0,0,0,0,0,0,0,0,0,0,0,0,0,0,0,0,0,0,0,0,0,0,0,0,0,0,4707,4709,0,0,0,0,0,0,0,0,0,4712,0,0,0,
0,0,0,0,0,0,0,0,0,0,0,0,0,0,0,0,0,0,0,0,0,0,0,0,0,0,0,0,0,0,0,0,0,0,0,0,0,0,0,0,0,0,0,0,0,0,0,0,0,0,0,0,0,0,0,0,0,0,0,0,4739,4709,0,0,0,0,0,0,0,0,0,4744,0,0,0,
0,0,0,0,0,0,0,0,0,0,0,0,0,0,0,0,0,0,0,0,0,0,0,0,0,0,0,0,0,0,0,0,0,0,0,0,0,0,0,0,0,0,0,0,0,0,0,0,0,0,0,0,0,0,0,0,0,0,0,0,4771,4709,0,0,0,0,0,0,0,4648,0,4776,0,0,0,
0,0,0,0,0,0,0,0,0,0,0,0,0,0,0,0,0,4675,4676,4677,4678,4679,4676,4677,4678,4679,4676,4677,4678,4679,4676,4677,4678,4679,4676,4677,4678,4679,4676,4677,4678,4679,4676,4677,4678,4679,4676,4677,4678,4677,4678,4676,4677,4678,4679,4680,0,0,0,0,4707,4709,0,0,0,0,0,0,0,0,0,4712,0,0,0,
0,0,0,0,0,0,0,0,0,0,0,0,0,0,0,0,0,4707,0,0,0,0,0,0,0,0,0,0,0,0,0,0,0,0,0,0,0,0,0,0,0,0,0,0,0,0,0,0,0,0,0,0,0,0,0,4712,0,0,0,0,4739,4709,0,0,0,0,0,0,0,0,0,4744,0,0,0,
0,0,0,0,0,0,0,0,0,0,0,0,0,0,0,0,0,4739,0,0,0,0,0,0,0,0,0,0,0,0,0,0,0,0,0,4761,4762,4763,4764,0,0,0,0,0,0,0,0,0,0,0,0,0,0,0,0,4744,0,0,0,0,4771,4709,0,0,0,0,0,0,0,0,0,4776,0,0,0,
0,0,0,0,0,0,0,0,0,0,0,0,0,0,0,0,0,4771,0,0,0,0,0,0,0,0,0,0,0,0,0,0,0,0,0,4793,4794,4795,4796,0,0,0,0,0,0,0,0,0,0,0,0,0,0,0,0,4694,0,0,0,0,4707,4709,0,0,0,0,0,0,0,0,0,4712,0,0,0,
0,0,0,0,0,0,0,0,0,0,0,0,0,0,0,0,0,4771,0,0,0,0,0,0,0,0,0,0,0,0,0,0,0,0,0,4825,4826,4827,4828,0,0,0,0,0,0,0,0,0,0,0,0,0,0,0,0,4726,0,0,0,0,4739,4709,0,0,0,0,0,0,0,0,0,4744,0,0,0,
0,0,0,0,0,0,0,0,0,0,0,0,0,0,0,0,0,4707,0,0,0,0,0,0,0,0,0,0,0,0,0,0,0,0,0,4857,4858,4859,4860,0,0,0,0,0,0,0,0,0,0,0,0,0,0,0,0,4758,0,0,0,0,4771,4709,0,0,0,0,0,0,0,0,0,4776,0,0,0,
0,0,0,0,0,0,0,0,0,0,0,0,0,0,0,0,0,4739,0,0,0,0,0,0,0,0,0,0,0,0,0,0,0,0,0,4889,4890,4891,4892,0,0,0,0,0,0,0,0,0,0,0,0,0,0,0,0,4790,0,0,0,0,4803,4804,4805,4996,4997,4998,4999,5000,4804,4805,4806,4808,0,0,0,
0,0,0,0,0,0,0,0,0,0,0,0,0,0,0,0,0,4771,0,0,0,0,0,0,0,0,0,0,0,0,0,0,0,0,0,4921,4922,4923,4924,0,0,0,0,0,0,0,0,0,0,0,0,0,0,0,0,4822,0,0,0,0,4835,4836,4837,5028,5029,5030,5031,5032,4836,4837,4838,4840,0,0,0,
0,0,0,0,0,0,0,0,0,0,0,0,0,0,0,0,0,4803,4804,4805,4806,4807,4685,4686,4687,4688,4689,0,0,0,0,0,0,0,0,0,0,0,0,0,0,0,0,0,0,0,0,0,0,0,0,0,0,0,0,4854,0,0,0,0,4867,4868,4869,5060,5061,5062,5063,5064,4868,4869,4870,4872,0,0,0,
0,0,0,0,0,0,0,0,0,0,0,0,0,0,0,0,0,4835,4836,4837,4838,4839,4717,4718,4719,4720,4721,0,0,0,0,0,0,0,0,0,0,0,0,0,0,0,0,0,0,0,0,0,0,0,0,0,0,0,0,4712,0,0,0,0,4899,4900,4901,5092,5093,5094,5095,5096,4900,4901,4902,4904,0,0,0,
0,0,0,0,0,0,0,0,0,0,0,0,0,0,0,0,0,4867,4868,4869,4870,4871,4749,4750,4751,4752,4753,0,0,0,0,0,0,0,0,0,0,0,0,0,0,0,0,0,0,0,0,0,0,0,0,0,0,0,4816,4744,0,0,0,0,0,0,0,0,0,0,0,0,0,0,0,0,0,0,0,
0,0,0,0,0,0,0,0,0,0,0,0,0,0,0,0,0,4899,4900,4901,4902,4903,4781,4782,4783,4784,4785,0,0,0,0,0,0,0,0,0,0,0,0,0,0,0,0,0,0,0,0,0,0,0,0,0,0,0,4848,4776,0,0,0,0,0,0,0,0,0,0,0,0,0,0,0,0,0,0,0,
0,0,0,0,0,0,0,0,0,0,0,0,0,0,0,0,0,0,0,0,0,0,0,0,0,0,32165,32166,32167,32168,4683,4684,4685,4684,4685,4686,4687,4688,4684,4685,4686,4687,4688,4686,4687,4675,4676,4677,4678,4679,4680,4686,4687,4806,4807,4808,0,0,0,0,0,0,0,0,0,0,0,0,0,0,0,0,0,0,0,
0,0,0,0,0,0,0,0,0,0,0,0,0,0,0,0,0,0,0,0,0,0,0,0,0,0,32197,32198,32199,32200,4715,4716,4717,4716,4717,4718,4719,4720,4716,4717,4718,4719,4720,4718,4719,4707,4708,4709,4710,4711,4712,4718,4719,4838,4839,4840,0,0,0,0,0,0,0,0,0,0,0,0,0,0,0,0,0,0,0,
0,0,0,0,0,0,0,0,0,0,0,0,0,0,0,0,0,0,0,0,0,0,0,0,0,0,32229,32230,32231,32232,4747,4748,4749,4748,4749,4750,4751,4752,4748,4749,4750,4751,4752,4750,4751,4739,4740,4741,4742,4743,4744,4750,4751,4870,4871,4872,0,0,0,0,0,0,0,0,0,0,0,0,0,0,0,0,0,0,0,
0,0,0,0,0,0,0,0,0,0,4675,4676,4677,4697,4698,4699,4700,4701,4702,4697,4698,4699,4700,4701,4702,4697,32261,32262,32263,32264,4779,4780,4781,4780,4781,4782,4783,4784,4780,4781,4782,4783,4784,4782,4783,4771,4772,4773,4774,4775,4776,4782,4783,4902,4903,4904,4698,4699,4700,4701,4702,4697,4698,4699,4700,4701,4702,4697,4698,4699,4700,4701,4702,4679,4680,
0,0,0,0,0,0,0,0,0,0,4707,4708,4709,0,0,0,0,0,0,0,0,0,0,0,0,0,32293,32294,32295,32296,32297,0,0,0,0,0,0,0,0,0,0,0,0,0,0,4803,4804,5005,5006,4807,4808,0,0,0,0,0,0,0,0,0,0,0,0,0,0,0,0,0,0,0,0,0,4710,4711,4712,
0,0,0,0,0,0,0,0,0,0,4739,4740,4741,4675,4676,4677,4678,4679,4680,0,0,0,0,0,0,0,32325,32326,32327,32328,32329,0,0,0,0,0,0,0,0,0,0,0,0,0,0,4835,4836,5037,5038,4839,4840,0,0,0,0,0,0,0,0,0,0,0,0,0,0,0,0,0,0,0,0,0,4742,4743,4744,
0,0,0,0,0,0,0,0,0,0,4691,0,0,4707,4708,4709,4710,4711,4712,0,0,0,0,0,0,0,0,0,0,0,0,0,0,0,0,0,0,0,0,0,0,0,0,0,0,4867,4868,5069,5070,4871,4872,0,0,0,0,0,0,0,0,0,0,0,0,0,0,0,0,0,0,0,0,0,0,0,4694,
0,0,0,0,0,0,0,0,0,0,4723,0,0,4739,4740,4741,4742,4743,4744,0,0,0,0,0,0,0,0,0,0,0,0,0,0,0,0,0,0,0,0,0,0,0,0,0,0,4899,4900,5101,5102,4903,4904,0,0,0,0,0,0,0,0,0,0,0,0,0,0,0,0,0,0,0,0,0,0,0,4726,
0,0,0,0,0,0,0,0,0,0,4755,0,0,4771,4772,4773,4774,4775,4776,0,0,0,0,0,0,0,0,0,0,0,0,0,0,0,0,0,0,0,0,0,0,0,0,0,0,0,0,0,0,0,0,0,0,0,0,0,0,0,0,0,0,0,0,0,0,0,0,0,0,0,0,0,0,0,4758,
0,0,0,0,0,0,0,0,0,0,4787,0,0,4803,32375,32376,32377,32378,4808,0,0,0,0,0,0,0,0,0,0,0,0,0,0,0,0,0,0,0,0,0,0,0,0,0,0,0,0,0,0,0,0,0,0,0,0,0,0,0,0,0,0,0,0,0,0,0,0,0,0,0,0,0,0,0,4790,
0,0,0,0,0,0,0,0,0,0,4819,0,0,4835,32407,32408,32409,32410,4840,0,0,0,0,0,0,0,0,0,0,0,0,0,0,0,0,0,0,0,0,0,0,0,0,0,0,0,0,0,0,0,0,0,0,0,0,0,0,0,0,0,0,0,0,0,0,0,0,0,0,0,0,0,0,0,4822,
4675,4676,4677,4677,4678,4679,4676,4677,4678,4679,4851,0,0,4867,32439,32440,32441,32442,4872,0,0,0,0,0,0,0,0,0,0,0,4682,4683,4996,5005,5006,4999,5000,32375,32376,32377,32378,4999,5000,5005,5006,5001,4689,0,0,4682,4683,4996,32159,32160,32161,32162,5005,5006,5001,4686,4687,4688,4689,0,0,0,0,0,0,0,0,0,0,0,4854,
4707,0,0,0,0,0,0,0,0,0,4691,0,0,4899,32471,32472,32473,32474,4904,0,0,0,0,0,0,0,0,0,0,0,4714,4715,5028,5037,5038,5031,5032,32407,32408,32409,32410,5031,5032,5037,5038,5033,4721,0,0,4714,4715,5028,32191,32192,32193,32194,5037,5038,5033,4718,4719,4720,4721,0,0,0,0,0,0,0,0,0,0,0,4726,
4739,0,0,0,0,0,0,0,0,0,4723,0,0,0,0,0,0,0,0,0,0,0,0,0,0,0,0,0,0,0,4746,4747,5060,5069,5070,5063,5064,32439,32440,32441,32442,5063,5064,5069,5070,5065,4793,4794,4795,4796,4747,5060,32223,32224,32225,32226,5069,5070,5065,4750,4751,4752,4753,0,0,0,0,0,0,0,0,0,0,0,4758,
4707,0,0,0,0,32680,32681,32682,32683,32684,32685,0,0,0,0,0,0,0,0,0,0,0,0,0,0,0,0,0,0,0,4778,4779,5092,5101,5102,5095,5096,32471,32472,32473,32474,5095,5096,5101,5102,5097,4825,4826,4827,4828,4779,5092,32255,32256,32257,32258,5101,5102,5097,4782,4783,4784,4785,0,0,0,0,0,0,0,0,0,0,0,4790,
4739,0,0,0,0,32712,32713,32714,32715,32716,32717,0,0,0,0,0,0,0,0,0,0,0,0,0,0,0,0,0,0,0,4758,0,0,0,0,0,0,0,0,0,0,0,0,0,0,0,4857,4858,4859,4860,0,0,32287,32288,32289,32290,0,0,0,4814,4815,4816,4817,0,0,0,0,0,0,0,0,0,0,0,4822,
4707,0,0,0,0,32744,32745,32746,32747,32748,32749,0,0,0,0,0,0,0,0,0,0,0,0,0,0,0,0,0,0,0,4790,0,0,0,0,0,0,0,0,0,0,0,0,0,0,0,4889,4890,4891,4892,0,0,32319,32320,32321,32322,0,0,0,0,0,0,4691,0,0,0,0,0,0,0,0,0,0,0,4854,
4739,0,0,0,0,32776,32777,32778,32779,32780,32781,0,0,0,0,0,0,0,0,0,0,0,0,0,0,0,0,0,0,0,4822,0,0,0,0,0,0,0,0,0,0,0,0,0,0,0,4921,4922,4923,4924,0,0,0,0,0,0,0,0,0,0,0,0,4723,0,0,0,0,0,0,0,0,0,0,0,4694,
4707,0,0,0,0,32808,32809,32810,32811,32812,32813,0,0,0,0,0,0,0,0,0,0,0,0,0,0,0,0,0,0,0,4854,0,0,0,0,0,0,0,0,0,0,0,0,0,0,0,0,0,0,0,0,0,0,0,0,0,0,0,0,0,0,0,4755,0,0,0,0,0,0,0,0,0,0,0,4726,
4739,0,0,0,0,32840,32841,32842,32843,32844,32845,0,0,0,0,0,0,0,4682,4683,4996,5005,5006,32375,32376,32377,32378,5005,5006,4807,4808,0,0,0,0,0,0,0,0,0,0,0,0,0,0,0,0,0,0,0,0,0,0,0,0,0,0,0,0,0,0,0,4787,0,0,0,0,0,0,0,0,0,0,0,4758,
4707,0,0,0,0,0,0,0,0,0,4755,0,0,0,0,0,0,0,4714,4715,5028,5037,5038,32407,32408,32409,32410,5037,5038,4839,4840,0,0,0,0,0,0,0,0,0,0,0,0,0,0,0,0,0,0,0,0,0,0,0,0,0,0,0,0,0,0,0,4819,0,0,0,0,0,0,0,0,0,0,0,4790,
4739,0,0,0,0,0,0,0,0,0,4787,0,0,0,0,0,0,0,4746,4747,5060,5069,5070,32439,32440,32441,32442,5069,5070,4871,4872,0,0,0,0,0,0,0,0,0,0,0,0,0,0,0,0,0,0,0,0,0,0,0,0,0,0,0,0,0,0,0,4851,0,0,0,0,0,0,0,0,0,0,0,4822,
4771,0,0,0,0,0,0,0,0,0,4819,0,0,0,0,0,0,0,4778,4779,5092,5101,5102,32471,32472,32473,32474,5101,5102,4903,4904,0,0,0,0,0,0,0,0,0,0,0,0,0,0,0,0,0,0,0,0,0,0,0,0,0,0,0,0,0,0,0,4691,0,0,0,0,0,0,0,0,0,0,0,4854,
4803,4804,4805,4806,4804,4805,4806,4807,4804,4805,4851,0,0,0,0,0,0,0,4810,0,0,0,0,0,0,0,0,0,0,0,0,0,0,0,0,0,0,0,0,0,0,0,0,0,0,0,0,0,0,0,0,0,0,0,0,0,0,0,0,0,0,0,4723,0,0,0,0,0,0,0,0,0,0,0,4694,
4835,4836,4837,4838,4836,4837,4838,4839,4836,4837,4723,0,0,0,0,0,0,0,4842,0,0,0,0,0,0,0,0,0,0,0,0,0,0,0,0,0,0,0,0,0,0,0,0,0,0,0,0,0,0,0,0,0,0,0,0,0,0,0,0,0,0,0,4755,0,0,0,0,0,0,0,0,0,0,0,4726,
4867,4868,4869,4870,4868,4869,4870,4871,4868,4869,4755,0,0,0,0,0,0,0,4810,0,0,0,0,0,0,0,0,0,0,0,0,0,0,0,0,0,0,0,0,0,0,0,0,0,0,0,0,0,0,0,0,0,0,0,0,0,0,0,0,0,0,0,4787,0,0,0,0,0,0,0,0,0,0,0,4758,
4899,4900,4901,4902,4900,4901,4902,4903,4900,4901,4787,0,0,0,0,0,0,0,4842,0,0,0,33129,0,0,0,0,0,0,0,0,0,0,0,0,0,0,0,0,0,0,0,0,0,0,0,0,0,0,0,0,0,0,0,0,0,0,0,0,0,0,0,4819,0,0,0,0,0,0,0,0,0,0,0,4790,
0,0,0,0,0,0,0,0,0,0,4819,0,0,0,0,0,0,0,4810,0,0,0,33145,0,0,0,0,0,0,0,0,0,0,0,0,0,0,0,0,0,0,0,0,0,0,0,0,0,0,0,0,0,0,0,0,0,0,0,0,0,0,0,4851,0,0,0,0,0,0,0,0,0,0,0,4822,
0,0,0,0,0,0,0,0,0,0,4851,0,0,0,0,0,0,0,4842,0,0,0,0,0,0,0,0,0,0,0,0,0,0,0,0,0,0,0,0,0,0,0,0,0,0,0,0,0,0,0,0,0,0,0,0,0,0,0,0,0,0,0,4691,0,0,0,0,0,0,0,0,0,0,0,4854,
0,0,0,0,0,0,0,0,0,0,4803,4996,32415,32416,32417,32418,4806,4807,4808,0,0,0,0,0,0,0,0,0,0,0,0,0,0,0,0,0,0,0,0,0,0,0,0,0,0,0,0,0,0,0,0,0,0,0,0,0,0,0,0,0,0,0,4723,0,0,0,0,0,0,0,0,0,0,0,4694,
0,0,0,4942,0,0,0,0,0,0,4835,5028,32447,32448,32449,32450,4838,4839,4840,0,0,0,0,0,0,0,0,0,0,0,0,0,0,0,0,0,0,0,0,0,0,0,0,0,0,0,0,0,0,0,0,0,0,0,0,0,0,32680,32681,32682,32683,32684,32685,0,0,0,0,0,0,0,0,0,0,0,4726,
0,0,0,4675,4676,4677,4676,4677,4678,4679,4867,5060,32479,32480,32481,32482,4870,4871,4872,0,0,0,0,0,0,0,0,0,0,0,0,0,0,0,0,0,0,0,0,0,0,0,0,0,0,0,0,0,0,0,0,0,0,0,0,0,0,32712,32713,32714,32715,32716,32717,0,0,0,0,0,0,0,0,0,0,0,4758,
0,0,0,4707,4708,0,0,0,0,0,4899,5092,32511,32512,32513,32514,4902,4903,4904,0,0,0,0,0,0,0,0,0,0,0,0,0,0,0,0,0,0,0,0,0,0,0,0,0,0,0,0,0,0,0,0,0,0,0,0,0,0,32744,32745,32746,32747,32748,32749,0,0,0,0,0,0,0,0,0,0,0,4790,
0,0,0,4707,0,0,0,0,0,0,0,0,32543,32544,32545,32546,0,0,0,0,0,0,0,0,0,0,0,0,0,0,0,0,0,0,0,0,0,0,0,0,0,0,0,0,0,0,0,0,0,0,0,0,0,0,0,0,0,32776,32777,32778,32779,32780,32781,0,0,0,0,0,0,0,0,0,0,0,4822,
0,0,0,4739,0,0,0,0,0,0,0,0,32575,32576,32577,32578,0,0,0,0,0,0,0,0,0,0,0,0,0,0,0,0,0,0,0,0,0,0,0,0,0,0,0,0,0,0,0,0,0,0,0,0,0,0,0,0,0,32808,32809,32810,32811,32812,32813,0,0,0,0,0,0,0,0,0,0,0,4854,
0,0,0,4771,0,0,0,0,0,0,0,0,0,0,0,0,0,0,0,0,0,0,0,0,0,0,0,0,0,0,0,0,0,0,0,0,0,0,0,0,0,0,0,0,0,0,0,0,0,0,0,0,0,0,0,0,0,32840,32841,32842,32843,32844,32845,0,0,0,0,0,0,0,0,0,0,0,4694,
0,0,0,4707,0,0,0,0,0,0,0,0,0,0,0,0,0,0,0,0,0,0,0,0,0,0,0,0,0,0,0,0,0,0,0,0,0,0,0,0,0,0,0,0,0,0,0,0,0,0,0,0,0,0,0,0,0,0,0,0,0,0,4755,0,0,0,0,0,0,0,0,0,0,0,4726,
0,0,0,4739,0,0,0,0,0,0,0,0,0,0,0,0,0,0,0,0,0,0,0,0,0,0,0,0,0,0,0,0,0,0,0,0,0,0,0,0,0,0,0,0,0,0,0,0,0,0,0,0,0,0,0,0,0,0,0,0,0,0,4787,0,0,0,0,0,0,0,0,0,0,0,4758,
0,0,0,4771,0,0,0,0,0,0,0,0,0,0,0,0,0,0,0,0,0,0,0,0,0,0,0,0,0,0,0,0,0,0,0,0,0,0,0,0,0,0,0,0,0,0,0,0,0,0,0,0,0,0,0,0,0,0,0,0,0,0,4707,0,0,0,0,0,0,0,0,0,0,0,4790,
0,0,0,4707,0,0,0,0,0,0,0,0,0,0,0,0,0,0,0,0,0,0,0,0,0,0,0,0,0,0,0,0,0,0,0,0,0,0,0,0,0,0,0,0,0,0,0,0,0,0,0,0,0,0,0,0,0,0,0,0,0,0,4739,0,0,0,0,0,0,0,0,0,0,0,4822,
0,0,0,4739,4811,4812,4813,4814,4815,4816,0,0,0,0,0,0,0,0,0,0,0,0,0,0,0,0,0,0,0,0,0,0,0,0,0,0,0,0,0,0,0,0,0,0,0,0,0,0,0,0,0,0,0,0,0,0,0,0,0,0,0,0,4771,0,0,0,0,0,0,0,0,0,0,0,4854,
0,0,0,4771,4843,4844,4845,4846,4847,4848,0,0,0,0,0,0,0,0,0,0,0,0,0,0,0,0,0,0,0,0,0,0,0,0,0,0,0,0,0,0,0,0,0,0,0,0,0,0,0,0,0,0,0,0,0,0,0,0,0,0,0,0,4803,4996,4997,4996,4997,4996,4997,4996,4997,4996,4997,4807,4808,
0,0,0,4803,4804,4805,4806,4807,4683,4684,4685,4686,4687,4688,4683,4684,4685,4686,4687,4688,4683,4684,4685,4686,4687,4688,4683,4684,4685,4686,4687,4688,4683,4684,4685,4686,4687,4688,4683,4684,4685,4686,4687,4688,4683,4684,4685,4686,4687,4688,4683,4684,4685,4686,4687,4688,4683,4684,4685,4686,4687,4688,4835,5028,5029,5028,5029,5028,5029,5028,5029,5028,5029,4839,4840
</data>
 </layer>
 <layer id="14" name="decoration1(player over them)" width="75" height="75">
  <data encoding="csv">
0,0,0,0,0,0,0,0,0,0,0,0,0,0,0,0,0,0,0,0,0,0,0,0,0,0,0,0,0,0,0,0,0,0,0,0,0,0,0,0,0,0,0,0,0,0,0,0,0,0,0,0,0,0,0,0,0,0,0,0,0,0,0,0,0,0,0,0,0,0,0,0,0,0,0,
0,0,0,0,0,0,0,0,0,0,0,0,0,0,0,0,0,0,0,0,0,0,0,0,0,0,0,0,0,0,0,0,0,0,0,0,0,0,0,0,0,0,0,0,0,0,0,0,0,0,0,0,0,0,0,0,0,0,0,0,0,0,0,0,0,0,0,0,0,0,0,0,0,0,0,
0,0,0,0,0,0,0,0,0,0,0,0,0,0,0,0,0,0,0,0,0,0,0,0,0,0,0,0,0,0,0,0,0,0,0,0,0,0,0,0,0,0,0,0,0,0,0,0,0,0,0,0,0,0,0,0,0,0,0,0,0,0,0,0,0,0,0,0,0,0,0,0,0,0,0,
0,0,0,0,0,0,0,0,0,0,0,0,0,0,0,0,0,0,0,0,0,0,0,0,0,0,0,0,0,0,0,0,0,0,0,0,0,0,0,0,0,0,0,0,0,0,0,0,0,0,0,0,0,0,0,0,0,0,0,0,0,0,0,0,0,0,0,0,0,0,0,0,0,0,0,
0,0,0,0,0,0,0,0,0,0,0,0,0,0,0,0,0,0,0,0,0,0,0,0,0,0,0,0,0,0,0,0,0,0,0,0,0,0,0,0,0,0,0,0,0,0,0,0,0,0,0,0,0,0,0,0,0,0,0,0,0,0,0,0,0,0,0,0,0,0,0,0,0,0,0,
0,0,0,0,0,0,0,0,0,0,0,0,0,0,0,0,0,0,0,0,0,0,0,0,0,0,0,0,0,0,0,0,0,0,0,0,0,0,0,0,0,0,0,0,0,0,0,0,0,0,0,0,0,0,0,0,0,0,0,0,0,0,0,0,0,0,0,0,0,0,0,0,0,0,0,
0,0,0,0,0,0,0,0,0,0,0,0,0,0,0,0,0,0,0,0,0,0,0,0,0,0,0,0,0,0,0,0,0,0,0,0,0,0,0,0,0,0,0,0,0,0,0,0,0,0,0,0,0,0,0,0,0,0,0,0,0,0,0,0,0,0,0,0,0,0,0,0,0,0,0,
0,0,0,0,0,0,0,0,0,0,0,0,0,0,0,0,0,0,0,0,0,0,0,0,0,0,0,0,0,0,0,0,0,0,0,0,0,0,0,0,0,0,0,0,0,0,0,0,0,0,0,0,0,0,0,0,0,0,0,0,0,0,0,0,0,0,0,0,0,0,0,0,0,0,0,
0,0,0,0,0,0,0,0,0,0,0,0,0,0,0,0,0,0,0,0,0,0,0,0,0,0,0,0,0,0,0,0,0,0,0,0,0,0,0,0,0,0,0,0,0,0,0,0,0,0,0,0,0,0,0,0,0,0,0,0,0,0,0,0,0,0,0,0,0,0,0,0,0,0,0,
0,0,0,0,0,0,0,0,0,0,0,0,0,0,0,0,0,0,0,0,0,0,0,0,0,0,0,0,0,0,0,0,0,0,0,0,0,0,0,0,0,0,0,0,0,0,0,0,0,0,0,0,0,0,0,0,0,0,0,0,0,0,0,0,0,0,0,0,0,0,0,0,0,0,0,
0,0,0,0,0,0,0,0,0,0,0,0,0,0,0,0,0,0,0,0,0,0,0,0,0,0,0,0,0,0,0,0,0,0,0,0,0,0,0,0,0,0,0,0,0,0,0,0,0,0,0,0,0,0,0,0,0,0,0,0,0,0,0,0,0,0,0,0,0,0,0,0,0,0,0,
0,0,0,0,0,0,0,0,0,0,0,0,0,0,0,0,0,0,0,0,0,0,0,0,0,0,0,0,0,0,0,0,0,0,0,0,0,0,0,0,0,0,0,0,0,0,0,0,0,0,0,0,0,0,0,0,0,0,0,0,0,0,0,0,0,0,0,0,0,0,0,0,0,0,0,
0,0,0,0,0,0,0,0,0,0,0,0,0,0,0,0,0,0,0,0,0,0,0,0,0,0,0,0,0,0,0,0,0,0,0,0,0,0,0,0,0,0,0,0,0,0,0,0,0,0,0,0,0,0,0,0,0,0,0,0,0,2903,2904,0,0,0,0,0,0,2903,2904,0,0,0,0,
0,0,0,0,0,0,0,0,0,0,0,0,0,0,0,0,0,0,0,0,0,0,0,0,0,0,0,0,0,0,0,0,0,0,0,0,0,0,0,0,0,0,0,0,0,0,0,0,0,0,0,0,0,0,0,0,0,0,0,0,0,2935,2936,0,0,0,0,0,0,2935,2936,0,0,0,0,
0,0,0,0,0,0,0,0,0,0,0,0,0,0,0,0,0,0,0,0,0,0,0,0,0,0,0,0,0,0,0,0,0,0,0,0,0,0,0,0,0,0,0,0,0,0,0,0,0,0,0,0,0,0,0,0,0,0,0,0,0,2967,2968,0,0,0,0,0,0,2967,2968,0,0,0,0,
0,0,0,0,0,0,0,0,0,0,0,0,0,0,0,0,0,0,0,0,0,0,0,0,0,0,0,0,0,0,0,0,0,0,0,0,0,0,0,0,0,0,0,0,0,0,0,0,0,0,0,0,0,0,0,0,0,0,0,0,0,2999,3000,0,0,2599,2600,0,0,2999,3000,0,0,0,0,
0,0,0,0,0,0,0,0,0,0,0,0,0,0,0,0,0,0,0,0,0,0,0,0,0,0,0,0,0,0,0,0,0,0,0,0,0,0,0,0,0,0,0,0,0,0,0,0,0,0,0,0,0,0,0,0,0,0,0,0,0,3031,3032,0,0,2631,2632,0,0,3031,3032,0,0,0,0,
0,0,0,0,0,0,0,0,0,0,0,0,0,0,0,0,0,0,0,0,0,0,0,0,0,0,0,0,0,0,0,0,0,0,0,0,0,0,0,0,0,0,0,0,0,0,0,0,0,0,0,0,0,0,0,0,0,0,0,0,0,3063,3064,0,0,2663,2664,0,0,3063,3064,0,0,0,0,
0,0,0,0,0,0,0,0,0,0,0,0,0,0,0,0,0,0,0,0,0,0,0,0,0,0,0,0,0,0,0,0,0,0,0,0,0,0,0,0,0,0,0,0,0,0,0,0,0,0,0,0,0,0,0,0,0,0,0,0,0,2887,2888,0,0,0,0,0,0,3015,3016,0,0,0,0,
0,0,0,0,0,0,0,0,0,0,0,0,0,0,0,0,0,0,0,0,0,0,0,0,0,0,0,0,0,0,0,0,0,0,0,0,0,0,0,0,0,0,0,0,0,0,0,0,0,0,0,0,0,0,0,0,0,0,0,0,0,2919,2920,0,0,0,0,0,0,3047,3048,0,0,0,0,
0,0,0,0,0,0,0,0,0,0,0,0,0,0,0,0,0,0,0,0,0,0,2859,2860,0,2611,2612,2613,2614,0,0,0,0,0,0,0,0,0,0,0,0,0,0,0,0,0,0,0,0,0,0,0,3954,3955,3956,3957,0,0,0,0,0,0,0,0,0,0,0,0,0,0,0,0,0,0,0,
0,0,0,0,0,0,0,0,0,0,0,0,0,0,0,0,0,0,6336,6337,6338,6339,2891,2892,0,2643,2644,2645,2646,3853,3854,0,0,0,0,0,0,0,0,0,0,0,0,0,0,0,0,3845,3846,0,0,0,3986,3987,3988,3989,0,0,0,0,0,0,0,0,1576,1577,1578,1579,0,0,0,0,0,0,0,
0,0,0,0,0,0,0,0,0,0,0,0,0,0,0,0,0,0,6476,6477,6478,6479,2923,2924,0,2675,2676,2677,2678,3885,3886,0,0,0,0,0,0,0,0,0,0,0,0,0,0,0,0,3877,3878,0,0,0,4018,4019,4020,4021,0,0,0,0,0,0,0,0,1640,1641,1642,1643,0,0,0,0,0,0,0,
0,0,0,0,0,0,0,0,0,0,0,0,0,0,0,0,0,0,0,0,0,0,0,0,0,0,0,0,0,0,0,0,0,0,0,0,0,0,0,0,0,0,3525,3526,0,0,0,0,0,0,0,0,4050,4051,4052,4053,0,0,0,0,0,0,0,0,1704,1705,1706,1707,0,0,0,0,0,0,0,
0,0,0,0,0,0,0,0,0,0,0,0,0,0,0,0,0,0,0,0,0,0,0,0,0,0,0,0,0,0,0,0,0,0,0,0,0,0,0,0,0,0,3557,3558,1576,1577,1578,1579,0,0,0,0,0,2585,2586,0,0,0,0,0,0,0,0,0,1768,1769,1770,1771,0,0,0,0,0,0,0,
0,0,0,0,0,0,0,0,0,0,0,0,0,0,0,0,0,0,0,0,0,0,0,0,0,0,0,0,0,0,0,0,0,0,0,0,0,0,0,0,0,0,0,0,1640,1641,1642,1643,0,0,0,0,0,2617,2618,0,0,0,0,0,0,0,0,0,0,0,0,0,0,0,0,0,0,0,0,
0,0,0,0,0,0,0,0,0,0,0,0,0,0,0,0,0,0,0,0,0,0,0,0,0,0,0,0,0,0,0,0,0,0,0,0,0,0,0,0,0,0,0,0,1704,1705,1706,1707,0,0,0,0,0,2649,2650,0,0,0,0,0,0,0,0,0,0,0,0,0,0,0,0,0,0,0,0,
0,0,0,0,0,0,0,0,0,0,0,0,0,0,0,0,0,0,0,0,0,0,0,0,0,0,0,0,0,0,0,0,0,0,0,0,0,0,0,0,0,0,0,0,1768,1769,1770,1771,0,0,0,0,0,2681,2682,0,0,0,0,0,0,0,0,0,0,0,0,0,0,0,0,0,0,0,0,
0,0,0,0,0,0,0,0,0,0,0,0,0,0,0,0,0,0,0,0,0,0,0,0,0,0,0,0,0,0,0,0,0,0,0,0,0,0,0,0,0,0,0,0,0,0,0,0,0,0,0,0,0,0,0,0,0,0,0,0,0,0,0,0,0,0,0,0,0,0,0,0,0,0,0,
0,0,0,0,0,0,0,0,0,0,0,0,0,0,0,0,0,0,0,0,0,0,0,0,0,0,0,0,0,0,0,0,0,0,0,0,0,0,0,0,0,0,0,0,0,0,0,0,0,0,0,0,0,0,0,0,0,0,0,0,0,0,0,0,0,0,0,0,0,0,0,0,0,0,0,
0,0,0,0,0,0,0,0,0,0,0,0,0,0,0,0,0,0,0,0,0,0,0,0,0,0,0,0,0,0,0,0,0,0,0,0,0,0,0,0,0,0,0,0,0,0,0,0,0,0,0,0,0,0,0,0,0,0,0,0,0,0,0,0,0,0,0,0,0,0,0,0,0,0,0,
0,0,0,0,0,0,0,0,0,0,0,0,0,0,0,0,0,0,0,0,0,0,0,0,0,0,0,0,0,0,0,0,0,0,0,0,0,0,0,0,0,0,0,0,0,0,0,0,0,0,0,0,0,0,0,0,0,0,0,0,0,0,0,0,0,0,0,0,0,0,0,0,0,0,0,
0,0,0,0,0,0,0,0,0,0,0,0,0,0,0,0,0,0,0,0,0,0,0,0,0,0,0,0,0,0,0,0,0,0,0,0,0,0,0,0,0,0,0,0,0,0,0,0,0,0,0,0,0,0,0,0,0,0,0,0,0,0,0,0,0,0,0,0,0,0,0,0,0,0,0,
0,0,0,0,0,0,0,0,0,0,0,0,0,0,0,0,0,0,0,0,0,0,0,0,0,0,0,0,0,0,0,0,0,0,0,0,0,0,0,0,0,0,0,0,0,0,0,0,0,0,0,0,0,0,0,0,0,0,0,0,0,0,0,0,0,0,0,0,0,0,0,0,0,0,0,
0,0,0,0,0,0,0,0,0,0,0,0,0,0,0,0,0,0,0,0,0,0,0,0,0,0,0,0,0,0,0,0,0,0,0,0,0,0,0,0,0,0,0,0,0,0,0,0,0,0,0,0,0,0,0,0,0,0,0,0,0,0,0,0,0,0,0,0,0,0,0,0,0,0,0,
0,0,0,0,0,0,0,0,0,0,0,0,0,0,0,0,0,0,0,0,2575,2576,0,0,0,0,0,0,0,0,0,3015,3016,0,0,0,0,0,0,0,0,0,0,0,0,0,0,0,0,0,0,0,2971,2972,0,0,0,0,0,2813,2814,0,0,0,0,0,0,0,0,0,0,0,0,0,0,
0,0,0,0,0,0,0,0,0,0,0,0,0,0,0,0,0,0,0,0,2607,2608,0,0,0,0,0,0,0,0,0,3047,3048,0,0,0,3845,3846,0,0,0,0,2927,2928,0,0,0,0,0,0,0,0,3003,3004,0,0,0,0,0,2845,2846,0,0,0,0,0,0,0,0,0,0,0,0,0,0,
0,0,0,0,0,0,0,0,0,0,0,0,0,0,0,0,0,0,0,0,2639,2640,0,0,0,0,0,0,0,0,0,0,0,0,0,0,3877,3878,0,0,0,0,2959,2960,0,0,0,0,0,0,0,0,3035,3036,0,0,0,0,0,2877,2878,0,0,0,0,0,0,0,12775,12776,12777,12778,12779,12780,0,
0,0,0,0,0,0,0,0,0,0,0,0,0,0,0,0,0,0,0,0,2671,2672,0,0,0,0,0,0,0,0,0,0,0,0,0,0,0,0,0,0,0,0,2991,2992,0,0,0,0,0,0,0,0,3067,3068,0,0,0,0,0,0,0,0,0,0,0,0,0,0,12915,12916,12917,12918,12919,12920,0,
0,0,0,0,0,0,0,0,0,0,0,0,0,0,0,0,0,0,0,0,0,0,0,0,0,0,0,0,0,0,0,0,0,0,0,0,0,0,0,0,0,0,0,0,0,0,0,0,0,0,0,0,0,0,0,0,0,0,0,0,0,0,0,0,0,0,0,0,13055,13056,13057,13058,13059,13060,0,
0,0,0,0,0,0,0,0,0,0,0,0,0,0,0,0,0,0,0,0,0,0,0,0,0,0,0,0,0,0,0,0,0,0,0,0,0,0,0,0,0,0,0,0,0,0,0,0,0,0,0,0,0,0,0,0,0,0,0,0,0,0,0,0,0,0,0,0,0,0,0,0,0,0,0,
0,0,0,0,0,0,0,0,0,0,0,0,0,0,0,0,0,0,0,0,0,0,0,0,0,0,0,0,0,0,0,0,0,0,0,0,0,0,0,0,0,0,0,0,0,0,0,0,0,0,0,0,0,0,0,0,0,0,0,0,0,0,0,0,0,0,0,0,0,0,0,0,0,0,0,
0,0,2599,2600,0,0,0,0,0,0,0,3023,3024,0,0,0,0,0,0,0,0,0,0,0,0,0,0,0,0,0,0,0,0,0,0,0,0,0,0,0,0,0,0,0,0,0,0,0,0,0,0,0,0,0,0,0,0,0,0,0,0,0,0,0,0,0,0,0,0,0,0,0,0,0,0,
0,0,2631,2632,0,0,0,0,0,0,0,3055,3056,0,0,0,0,0,0,0,0,0,0,0,0,0,0,0,0,0,0,0,0,0,0,0,0,0,0,0,0,0,0,0,0,0,0,0,0,0,0,0,0,0,0,0,0,0,0,0,0,0,0,0,0,0,0,0,0,0,0,0,2585,2586,0,
0,0,2663,2664,0,0,0,0,3531,3532,0,3087,3088,0,0,0,0,0,0,0,0,0,0,0,0,0,0,0,0,0,0,0,0,0,0,0,0,0,0,0,0,0,0,0,0,0,0,0,0,0,0,0,0,0,0,0,0,0,0,0,0,0,0,0,0,0,0,0,0,0,0,0,2617,2618,0,
0,0,0,0,0,0,0,0,3563,3564,0,3119,3120,0,0,0,0,0,0,0,0,0,0,0,0,0,0,0,0,0,0,0,0,0,0,0,0,0,0,0,0,0,0,0,0,0,0,0,0,0,0,0,0,0,0,0,0,0,0,0,0,0,0,0,0,0,0,0,0,0,0,0,2649,2650,0,
0,0,0,0,0,0,0,0,0,0,0,0,0,0,0,0,0,0,0,0,0,0,0,0,0,0,0,0,0,0,0,0,2611,2612,2613,2614,0,0,0,0,3147,3148,0,0,0,0,4042,4043,4044,4045,3059,3060,0,0,0,0,3059,3060,0,0,0,0,0,0,0,0,0,0,0,0,0,0,2681,2682,0,
0,0,0,0,0,0,0,0,0,0,0,0,0,0,0,0,0,0,0,0,0,0,0,0,0,0,0,0,0,0,0,0,2643,2644,2645,2646,0,0,0,0,3179,3180,0,0,0,0,0,0,0,0,3091,3092,0,0,0,0,3091,3092,0,0,0,0,0,0,0,0,0,0,0,0,0,0,0,0,0,
0,0,0,0,0,0,0,0,0,0,0,0,0,0,0,0,0,0,0,0,0,0,0,0,0,0,2716,2717,2718,2719,0,0,2675,2676,2677,2678,0,0,0,0,0,0,0,0,0,0,0,0,0,0,3123,3124,0,0,0,0,3123,3124,0,0,0,0,0,0,0,0,0,0,0,0,0,0,0,0,0,
0,0,0,0,0,0,0,0,0,0,0,0,0,0,0,0,0,0,0,0,0,0,0,0,0,0,2748,2749,2750,2751,0,0,0,0,0,0,0,0,0,0,0,0,0,0,0,0,0,0,0,0,0,0,0,0,0,0,0,0,0,0,2585,2586,0,0,0,0,0,0,0,0,0,0,0,0,0,
0,0,0,0,0,0,0,0,0,0,0,0,0,0,0,0,0,0,0,0,0,0,0,0,0,0,0,0,0,0,0,0,0,0,0,0,0,0,0,0,0,0,0,0,0,0,0,0,0,0,0,0,0,0,0,0,0,0,0,0,2617,2618,0,0,0,0,0,0,0,0,0,0,0,0,0,
0,0,0,0,0,0,0,2731,2732,0,0,0,0,0,0,0,0,0,0,0,0,0,0,0,0,0,0,0,0,0,0,0,0,0,0,0,0,0,0,0,0,0,0,0,0,0,0,0,0,0,0,0,0,0,0,0,0,0,0,0,2649,2650,0,0,0,0,0,0,0,0,0,0,0,0,0,
0,0,0,0,0,0,0,2763,2764,0,0,0,0,0,0,0,0,0,0,0,0,0,0,0,0,0,0,0,0,0,0,0,0,0,0,0,0,0,0,0,0,0,0,0,0,0,0,0,0,0,0,0,0,0,0,0,0,0,0,0,2681,2682,0,0,0,0,0,0,0,0,0,0,0,0,0,
0,0,0,0,0,0,0,2795,2796,0,0,3521,3522,0,0,3521,3522,0,0,0,0,0,2987,2988,0,0,3243,3244,0,0,0,0,0,0,0,0,0,0,0,0,0,0,0,0,0,0,0,0,0,0,0,0,0,0,0,0,0,0,0,0,0,0,0,0,0,0,0,0,0,0,0,0,0,0,0,
0,0,0,0,0,0,0,0,0,0,0,3553,3554,0,0,3553,3554,0,0,0,0,0,3019,3020,0,0,3275,3276,0,0,0,0,0,0,0,0,0,0,0,0,0,0,0,0,0,0,0,0,0,0,0,0,0,0,0,0,0,0,0,0,0,0,0,0,0,0,0,0,0,0,0,0,0,0,0,
0,0,0,0,0,0,0,0,0,0,0,3521,3522,0,0,3521,3522,0,0,0,0,0,3051,3052,0,0,3307,3308,0,0,0,0,0,0,0,0,0,0,0,0,0,0,0,0,0,0,0,0,0,0,0,0,0,0,0,0,0,0,0,0,2585,2586,0,0,0,0,0,0,0,0,0,0,0,0,0,
0,0,0,0,0,0,0,0,0,0,0,3553,3554,0,0,3553,3554,0,0,0,0,0,0,0,0,0,0,0,0,0,0,0,3853,3854,0,0,0,0,0,0,0,0,0,0,0,0,0,0,0,0,0,0,0,0,0,0,0,0,0,0,2617,2618,0,0,0,0,0,0,0,0,0,3853,3854,0,0,
0,0,0,0,0,0,0,0,0,0,0,3521,3522,0,0,3521,3522,0,0,0,0,0,0,0,0,0,0,0,0,0,0,0,3885,3886,0,0,0,0,0,0,0,0,0,0,0,0,0,0,0,0,0,0,0,0,0,0,0,0,0,0,2649,2650,0,0,0,0,0,0,0,0,0,3885,3886,0,0,
0,0,0,0,0,0,0,0,0,0,0,3553,3554,0,0,3553,3554,0,0,0,0,0,0,0,0,0,0,0,0,0,0,0,0,0,0,0,0,0,0,0,0,0,0,0,0,0,0,0,0,0,0,0,0,0,0,0,0,0,0,0,2681,2682,0,0,0,0,0,0,0,0,0,0,0,0,0,
0,0,0,0,0,0,0,0,0,0,0,3521,3522,0,0,3521,3522,0,0,0,0,0,0,0,0,0,0,0,0,0,0,0,0,0,0,0,0,0,0,0,0,0,0,0,0,0,0,0,0,0,0,0,0,0,0,0,0,0,0,0,0,0,0,0,0,0,0,0,0,0,0,0,0,0,0,
0,0,0,0,0,0,0,0,0,0,0,3553,3554,0,0,3553,3554,0,0,0,0,0,0,0,0,0,0,0,0,0,0,0,0,0,0,0,0,0,0,0,0,0,0,0,0,0,0,0,0,0,0,0,0,0,0,0,0,0,0,0,0,0,0,3219,3220,0,0,0,0,0,0,0,0,0,0,
0,0,0,0,0,0,0,0,0,0,0,0,0,0,0,0,0,0,0,0,0,0,0,0,0,0,0,0,0,0,0,0,0,0,0,0,0,0,0,0,0,0,0,0,0,0,0,0,0,0,0,0,0,0,0,0,0,0,0,0,0,0,0,3251,3252,0,0,0,0,0,0,0,0,0,0,
0,0,0,0,0,0,0,0,0,0,0,0,0,0,0,0,0,0,0,0,0,0,0,0,0,0,0,0,0,0,0,0,0,0,0,0,0,0,0,0,0,0,0,0,0,0,0,0,0,0,0,0,0,0,0,0,0,0,0,0,0,0,0,0,0,0,0,0,0,0,0,0,0,0,0,
0,0,0,0,0,2603,2604,0,2859,2860,0,0,0,0,0,0,0,0,0,0,0,0,0,0,0,0,0,0,0,0,0,0,0,0,0,0,0,0,0,0,0,0,0,0,0,0,0,0,0,0,0,0,0,0,0,0,0,0,0,0,0,0,0,0,0,0,0,0,0,0,0,0,0,0,0,
0,0,0,0,0,2635,2636,0,2891,2892,2887,2888,0,0,0,0,0,0,0,0,0,0,0,0,0,0,0,0,0,0,0,0,0,0,0,0,0,0,0,2831,2832,0,0,0,0,0,0,0,0,0,0,0,0,0,0,0,0,0,0,0,0,0,0,0,0,0,0,0,0,0,0,0,0,0,0,
0,0,0,0,0,2667,2668,0,2923,2924,2919,2920,0,0,0,0,0,0,0,0,0,0,0,0,0,0,0,0,0,0,0,0,0,0,0,0,0,0,0,2863,2864,0,0,0,0,0,0,0,0,0,0,0,0,0,0,0,0,0,0,0,0,0,0,0,0,0,0,0,0,0,0,0,0,0,0,
0,0,0,0,0,0,0,3845,3846,0,0,0,0,0,0,0,0,0,0,0,3523,3524,0,0,0,0,0,0,0,0,0,0,0,0,0,0,0,3095,3096,3097,3098,3099,3100,0,0,0,0,0,0,0,0,0,0,0,0,0,0,0,0,0,0,0,0,0,0,0,0,0,0,0,0,0,0,0,0,
0,0,0,0,0,0,0,3877,3878,0,0,0,0,0,0,0,0,0,0,0,3555,3556,0,0,0,0,0,0,0,0,0,0,0,0,0,0,0,3127,3128,3129,3130,3131,3132,0,0,0,0,0,0,0,0,0,0,0,0,0,0,0,2739,2740,2741,2742,0,0,0,0,0,0,0,0,0,0,0,0,0,
0,0,0,0,0,0,0,0,0,0,0,0,0,0,0,0,0,0,0,0,0,0,0,0,0,0,0,0,0,0,0,0,0,0,2831,2832,0,3159,3160,3161,3162,3163,3164,0,2831,2832,0,0,0,0,0,0,0,0,0,0,0,0,2771,2772,2773,2774,0,0,3291,3292,3293,3294,0,0,0,0,0,0,0,
0,0,0,0,0,0,0,0,0,0,0,0,0,0,0,0,0,0,0,0,0,0,0,0,0,0,0,0,0,0,0,0,0,0,2863,2864,0,3191,3192,3193,3194,3195,3196,0,2863,2864,0,0,0,0,0,0,0,0,0,0,0,0,2803,2804,2805,2806,0,0,3323,3324,3325,3326,0,0,0,0,0,0,0,
0,0,0,0,0,0,0,0,0,0,0,0,0,0,0,0,0,0,0,0,0,0,0,0,0,0,0,0,0,0,0,0,0,0,0,3015,3016,3223,3224,3225,3226,3227,3228,2887,2888,0,0,0,0,0,0,0,0,0,0,0,0,33273,0,0,0,0,0,0,3355,3356,3357,3358,0,0,0,3861,3862,0,0,
0,0,0,0,0,0,0,0,0,0,0,0,0,0,0,0,0,0,0,0,0,0,0,0,0,0,0,0,0,3861,3862,0,0,0,0,3047,3048,3255,3256,3257,3258,3259,3260,2919,2920,0,0,0,0,0,0,0,0,0,0,0,0,0,0,0,0,0,0,0,3387,3388,3389,3390,0,0,0,3893,3894,0,0,
0,0,0,0,3179,3180,0,0,0,0,0,3523,3524,0,0,0,0,0,0,0,0,0,0,0,0,0,0,0,0,3893,3894,0,0,0,0,3539,3540,0,0,0,0,0,0,0,0,0,0,0,0,0,0,0,0,0,0,0,0,0,0,0,0,0,0,0,0,0,0,0,0,0,0,0,0,0,0,
0,0,0,0,0,0,0,0,0,0,0,3555,3556,0,0,0,0,0,0,0,0,0,0,0,0,0,0,0,0,0,0,0,0,0,0,3571,3572,0,0,0,0,0,0,0,0,0,0,0,0,0,0,0,0,0,0,0,0,33274,0,0,0,0,0,0,0,0,0,0,0,0,0,0,0,0,0,
0,0,0,0,0,0,0,0,0,0,0,0,0,0,0,0,0,0,0,0,0,0,0,0,0,0,0,0,0,0,0,0,0,0,0,0,0,0,0,0,0,0,0,0,0,0,0,0,0,0,0,0,0,0,0,0,0,0,0,0,0,0,0,0,0,0,0,0,0,0,0,0,0,0,0
</data>
 </layer>
 <objectgroup id="13" name="Object Layer 1">
  <object id="14" name="player" type="player" x="623.826" y="1076.26">
   <point/>
  </object>
  <object id="17" type="obj" x="159.5" y="777.5" width="8" height="202"/>
  <object id="18" type="obj" x="158.5" y="977.5" width="39.5" height="60.5"/>
  <object id="19" type="obj" x="191.5" y="1040" width="7" height="30"/>
  <object id="20" type="obj" x="158.5" y="1026.5" width="35" height="29.5"/>
  <object id="22" type="obj" x="248" y="976.667" width="8" height="94.3333"/>
  <object id="23" type="obj" x="253.667" y="976" width="50" height="64.3333"/>
  <object id="24" type="obj" x="296" y="816.667" width="8.33333" height="164.667"/>
  <object id="25" type="obj" x="303.667" y="817" width="78.6667" height="63"/>
  <object id="28" type="obj" x="355.333" y="873.667" width="24" height="18.6667"/>
  <object id="29" type="obj" x="421" y="874" width="22" height="19"/>
  <object id="30" type="obj" x="375.333" y="815.667" width="120.667" height="18.6667"/>
  <object id="32" type="obj" x="416.333" y="829.333" width="78.3333" height="51"/>
  <object id="33" type="obj" x="428.75" y="765.25" width="37.5" height="31.75"/>
  <object id="34" type="obj" x="487.667" y="687.667" width="8.66667" height="143.333"/>
  <object id="37" type="obj" x="509.667" y="737" width="68" height="63.3333"/>
  <object id="38" type="obj" x="639.5" y="688.5" width="103.5" height="62.5"/>
  <object id="39" type="obj" x="493.5" y="688" width="114.5" height="64.5"/>
  <object id="40" type="obj" x="605.273" y="688.364" width="44.3636" height="17.6364"/>
  <object id="41" type="obj" x="644.364" y="740.545" width="27.5151" height="22.5455"/>
  <object id="43" type="obj" x="736.667" y="735.667" width="62.3333" height="63.6667"/>
  <object id="47" type="obj" x="800.667" y="745.333" width="32" height="32"/>
  <object id="48" type="obj" x="830.333" y="688.667" width="10.3333" height="95.3333"/>
  <object id="49" type="obj" x="792" y="688.333" width="9.66667" height="47"/>
  <object id="50" type="obj" x="741" y="692.083" width="51.3333" height="42.25"/>
  <object id="51" type="obj" x="792.667" y="686.667" width="46" height="19.6667"/>
  <object id="53" type="obj" x="887.75" y="687.75" width="8.75" height="96"/>
  <object id="54" type="obj" x="897" y="745" width="30.75" height="32.25"/>
  <object id="55" type="obj" x="892" y="688.5" width="106.5" height="63.5"/>
  <object id="56" type="obj" x="992.551" y="684.45" width="7.69868" height="307.724"/>
  <object id="58" type="obj" x="961.5" y="882.306" width="28.9983" height="63.3858"/>
  <object id="59" type="obj" x="961.757" y="784.276" width="28.4851" height="61.846"/>
  <object id="62" type="obj" x="952.333" y="751.333" width="42.6667" height="33">
   <ellipse/>
  </object>
  <object id="63" type="obj" x="1023.5" y="1087.5" width="63" height="58.5">
   <ellipse/>
  </object>
  <object id="64" type="obj" x="625.333" y="1020.17" width="29" height="34.1667"/>
  <object id="65" type="obj" x="545.333" y="1084.33" width="29.3333" height="34"/>
  <object id="66" type="obj" x="705.333" y="1083.67" width="29.6667" height="34.6667"/>
  <object id="67" type="obj" x="559.667" y="1120.33" width="31" height="32"/>
  <object id="68" type="obj" x="687.667" y="1120.67" width="31" height="30"/>
  <object id="71" type="obj" x="560.333" y="1153" width="32" height="29.3333"/>
  <object id="72" type="obj" x="927.333" y="1078.33" width="65.6667" height="36.3333"/>
  <object id="73" type="obj" x="1138.5" y="1119" width="26.5" height="28.5"/>
  <object id="74" type="obj" x="325" y="1061.5" width="22" height="21.5">
   <ellipse/>
  </object>
  <object id="75" type="obj" x="182" y="1161" width="20" height="16">
   <ellipse/>
  </object>
  <object id="76" type="obj" x="112.5" y="1117" width="60" height="46">
   <ellipse/>
  </object>
  <object id="77" type="obj" x="55.5" y="1149.5" width="56" height="20.25"/>
  <object id="78" type="obj" x="81" y="1074.5" width="29.5" height="26">
   <ellipse/>
  </object>
  <object id="79" type="obj" x="79.5" y="1015.5" width="33.5" height="39.5"/>
  <object id="80" type="obj" x="129.5" y="1031" width="28.5" height="22"/>
  <object id="81" type="obj" x="115.5" y="1056.5" width="24" height="28.5"/>
  <object id="84" type="obj" x="113.5" y="821.5" width="28.5" height="41.5"/>
  <object id="85" type="obj" x="17" y="859.5" width="28" height="16"/>
  <object id="86" type="obj" x="31" y="698.5" width="34" height="20"/>
  <object id="87" type="obj" x="167.833" y="704.5" width="39.6667" height="24.5"/>
  <object id="88" type="obj" x="0.5" y="879.5" width="162.5" height="23"/>
  <object id="89" type="obj" x="-0.5" y="687.5" width="8.5" height="193.5"/>
  <object id="90" type="obj" x="0" y="684" width="161.5" height="11"/>
  <object id="91" type="obj" x="158" y="558.5" width="9.5" height="184.5"/>
  <object id="97" type="obj" x="208.75" y="623.25" width="31.5" height="96.25"/>
  <object id="99" type="obj" x="271.333" y="592" width="32.3333" height="128"/>
  <object id="100" type="obj" x="208.667" y="651.667" width="94.6667" height="23"/>
  <object id="101" type="obj" x="303.667" y="563.333" width="48" height="58.6667"/>
  <object id="103" type="obj" x="48" y="1182" width="953.333" height="18"/>
  <object id="104" type="obj" x="47" y="1007.67" width="9" height="183.667"/>
  <object id="105" type="obj" x="46.6667" y="1007.33" width="114" height="9"/>
  <object id="106" type="obj" x="992.5" y="1034" width="8" height="149.5"/>
  <object id="107" type="obj" x="994.5" y="1167.5" width="205" height="18.5"/>
  <object id="108" type="obj" x="1190.67" y="557.333" width="13.3333" height="641.333"/>
  <object id="109" type="obj" x="1104" y="863.667" width="93" height="95.3333"/>
  <object id="112" type="obj" x="1008" y="959.25" width="32" height="28.6667"/>
  <object id="116" type="obj" x="1154.25" y="700" width="20.25" height="52"/>
  <object id="117" type="obj" x="1172.25" y="689.25" width="17.4167" height="53.75"/>
  <object id="118" type="obj" x="1091.75" y="593.25" width="88.5" height="45"/>
  <object id="119" type="obj" x="1024.75" y="573.25" width="60.25" height="44.25">
   <ellipse/>
  </object>
  <object id="120" type="obj" x="947.25" y="561.25" width="26.75" height="42.5"/>
  <object id="121" type="obj" x="817.333" y="557.333" width="47.3333" height="62.3333"/>
  <object id="122" type="obj" x="718" y="511.5" width="98" height="127.5"/>
  <object id="123" type="obj" x="672" y="566" width="70" height="57.3333"/>
  <object id="124" type="obj" x="576" y="566.667" width="30.6667" height="37.6667"/>
  <object id="125" type="obj" x="495" y="552" width="31.6667" height="46"/>
  <object id="129" type="obj" x="164.5" y="558" width="256" height="9.5"/>
  <object id="130" type="obj" x="416" y="512" width="8.33333" height="95"/>
  <object id="131" type="obj" x="472.667" y="512.333" width="8" height="94.3333"/>
  <object id="132" type="obj" x="476" y="512" width="420" height="63"/>
  <object id="133" type="obj" x="416" y="447.25" width="7.5" height="68.75"/>
  <object id="134" type="obj" x="272.667" y="447.333" width="144" height="69.3333"/>
  <object id="135" type="obj" x="272" y="318.667" width="8.33333" height="131"/>
  <object id="136" type="obj" x="280" y="336" width="215.333" height="30.3333"/>
  <object id="137" type="obj" x="561" y="383.5" width="63" height="62.5"/>
  <object id="139" type="obj" x="496" y="318.667" width="398.667" height="10"/>
  <object id="140" type="obj" x="886" y="320.667" width="11" height="197"/>
  <object id="141" type="obj" x="841.667" y="474.667" width="41.3333" height="40.3333">
   <ellipse/>
  </object>
  <object id="143" type="obj" x="841" y="361.667">
   <polygon points="0,0 6.66667,5 18,5.33333 34.3333,14.3333 38.3333,11.6667 39.6667,-11 38,-20 36,-30 27,-33.6667 20,-25.6667 20.6667,-19 16.6667,-14.6667 10.6667,-13.3333 3,-11 1.66667,-7"/>
  </object>
  <object id="144" type="obj" x="752.667" y="336.333" width="30.6667" height="30"/>
  <object id="145" type="obj" x="848.333" y="397" width="25" height="50"/>
  <object id="146" type="obj" x="867.333" y="385.333" width="9.66667" height="96.6667"/>
  <object id="147" type="obj" x="674.667" y="371" width="25.3333" height="24.6667">
   <ellipse/>
  </object>
  <object id="148" type="obj" x="960" y="416" width="196.5" height="67.5"/>
  <object id="149" type="obj" x="959.5" y="237.5" width="10" height="192"/>
  <object id="150" type="obj" x="1143.5" y="237.5" width="14" height="182"/>
  <object id="151" type="obj" x="956" y="230.5" width="204.5" height="16.5"/>
  <object id="152" type="obj" x="975" y="237" width="31.5" height="83"/>
  <object id="153" type="obj" x="1102.5" y="251" width="34.5" height="68.5"/>
  <object id="155" name="chest_one" type="obj" x="1038.5" y="249" width="34.5" height="36.5"/>
  <object id="156" type="obj" x="978.5" y="368" width="27.5" height="28.5"/>
  <object id="157" type="obj" x="1105.5" y="367.5" width="30.5" height="28.5"/>
  <object id="158" type="obj" x="1008" y="367.5">
   <polygon points="0,0 17.5,0.5 27,17.5 38,23.5 48.5,32.5 59.5,19.5 69.5,16 80,2.5 93,0 98.5,0 134,0 135.5,48.5 -38,48.5 -38,-0.5"/>
  </object>
  <object id="159" type="obj" x="899.333" y="557.333" width="298.667" height="11.3333"/>
  <object id="160" type="obj" x="492.727" y="316.909" width="2.54545" height="20.3636"/>
  <object id="162" type="obj" x="240.545" y="673.273" width="30.3636" height="17.0909"/>
  <object id="164" type="obj" x="722.5" y="819" width="26.5" height="28.5">
   <ellipse/>
  </object>
  <object id="166" type="obj" x="776.5" y="813.25" width="43.5" height="33.75">
   <ellipse/>
  </object>
  <object id="167" type="obj" x="1095.25" y="1127" width="18.25" height="18">
   <ellipse/>
  </object>
  <object id="168" type="obj" x="1016.25" y="1079" width="16.75" height="17.75">
   <ellipse/>
  </object>
  <object id="169" type="obj" x="515" y="894.25" width="25" height="27.75"/>
  <object id="171" type="obj" x="465.667" y="1133" width="26" height="30.3333"/>
  <object id="191" type="obj" x="382.75" y="834.75" width="34.5" height="13.25"/>
  <object id="192" type="obj" x="608.364" y="704" width="33.8182" height="17.6364"/>
  <object id="193" type="obj" x="943.273" y="1125.27" width="39.6364" height="10.3636"/>
  <object id="194" type="obj" x="944" y="1168.18" width="39.8182" height="8.90909"/>
  <object id="197" type="obj" x="961.818" y="1125.82" width="20.7273" height="49.2727"/>
  <object id="198" type="obj" x="376" y="1152.33" width="48" height="18.3333"/>
  <object id="200" x="80.5455" y="817.273" width="79.8182" height="6.36364"/>
  <object id="277" type="obj" x="129.75" y="706.25" width="26.75" height="28.5">
   <ellipse/>
  </object>
  <object id="278" type="obj" x="95.125" y="810" width="65.625" height="7"/>
  <object id="279" type="obj" x="109" y="803.25" width="55.5" height="6.375"/>
  <object id="280" type="obj" x="120.875" y="796.875" width="41.5" height="6.125"/>
  <object id="281" type="obj" x="131.125" y="792.125" width="30" height="4.875"/>
  <object id="282" type="obj" x="139.125" y="788" width="25.5" height="4.25"/>
  <object id="283" type="obj" x="149.125" y="782.875" width="14.625" height="5.875"/>
  <object id="284" type="obj" x="155" y="779.5" width="9.125" height="3.25"/>
  <object id="286" type="obj" x="84.125" y="812.125" width="27" height="5.5">
   <ellipse/>
  </object>
  <object id="287" type="obj" x="100.125" y="804.75" width="18.125" height="5.5">
   <ellipse/>
  </object>
  <object id="288" type="obj" x="114.5" y="799" width="12.375" height="4.375">
   <ellipse/>
  </object>
  <object id="289" type="obj" x="126.125" y="793.5" width="10.25" height="3.5">
   <ellipse/>
  </object>
  <object id="290" type="obj" x="134.375" y="789" width="7.25" height="4">
   <ellipse/>
  </object>
  <object id="291" type="obj" x="142.5" y="785.375" width="9.75" height="4">
   <ellipse/>
  </object>
  <object id="292" type="obj" x="78.6572" y="768.682" width="19.9091" height="6.22727">
   <ellipse/>
  </object>
  <object id="293" type="obj" x="94.6572" y="761.307" width="18.125" height="5.5">
   <ellipse/>
  </object>
  <object id="294" type="obj" x="109.033" y="755.557" width="12.375" height="4.375">
   <ellipse/>
  </object>
  <object id="295" type="obj" x="120.658" y="750.057" width="10.25" height="3.5">
   <ellipse/>
  </object>
  <object id="296" type="obj" x="128.908" y="745.557" width="7.25" height="4">
   <ellipse/>
  </object>
  <object id="297" type="obj" x="137.033" y="741.932" width="9.75" height="4">
   <ellipse/>
  </object>
  <object id="303" type="obj" x="88.032" y="764.495" width="18.125" height="5.5">
   <ellipse/>
  </object>
  <object id="304" type="obj" x="102.408" y="758.745" width="12.375" height="4.375">
   <ellipse/>
  </object>
  <object id="305" type="obj" x="114.033" y="753.245" width="10.25" height="3.5">
   <ellipse/>
  </object>
  <object id="306" type="obj" x="122.283" y="748.745" width="7.25" height="4">
   <ellipse/>
  </object>
  <object id="307" type="obj" x="130.408" y="745.12" width="9.75" height="4">
   <ellipse/>
  </object>
  <object id="308" type="obj" x="141.283" y="740.37" width="10.25" height="3.5">
   <ellipse/>
  </object>
  <object id="309" type="obj" x="149.533" y="735.87" width="7.25" height="4">
   <ellipse/>
  </object>
  <object id="310" type="obj" x="158.688" y="736.063" width="9.75" height="4">
   <ellipse/>
  </object>
  <object id="311" type="obj" x="142.908" y="739.057" width="7.25" height="4">
   <ellipse/>
  </object>
  <object id="312" type="obj" x="151.033" y="735.432" width="9.75" height="4">
   <ellipse/>
  </object>
  <object id="316" name="apple" type="item" x="720" y="992" width="16" height="16"/>
  <object id="317" name="apple2" type="item" x="528" y="992" width="16" height="16"/>
  <object id="320" type="side_stairs" x="973.371" y="999.788" width="21.4545" height="77.4545"/>
  <object id="322" type="side_stairs" x="950.462" y="1007.42" width="24" height="70.3636"/>
  <object id="323" type="side_stairs" x="924.644" y="1021.06" width="26.1818" height="57.0909"/>
  <object id="325" type="side_stairs" x="141.606" y="745.976" width="21.4545" height="47.4545"/>
  <object id="326" type="side_stairs" x="118.696" y="753.611" width="24" height="46"/>
  <object id="327" type="side_stairs" x="92.8784" y="767.251" width="26.1818" height="46.3636"/>
  <object id="328" x="913.139" y="1075.08" width="79.8182" height="6.36364"/>
  <object id="329" type="obj" x="927.719" y="1067.81" width="65.625" height="7"/>
  <object id="330" type="obj" x="941.594" y="1061.06" width="55.5" height="6.375"/>
  <object id="331" type="obj" x="953.469" y="1054.68" width="41.5" height="6.125"/>
  <object id="332" type="obj" x="963.719" y="1049.93" width="30" height="4.875"/>
  <object id="333" type="obj" x="971.719" y="1045.81" width="25.5" height="4.25"/>
  <object id="334" type="obj" x="981.719" y="1040.68" width="14.625" height="5.875"/>
  <object id="335" type="obj" x="987.594" y="1037.31" width="9.125" height="3.25"/>
  <object id="336" type="obj" x="916.719" y="1069.93" width="27" height="5.5">
   <ellipse/>
  </object>
  <object id="337" type="obj" x="932.719" y="1062.56" width="18.125" height="5.5">
   <ellipse/>
  </object>
  <object id="338" type="obj" x="947.094" y="1056.81" width="12.375" height="4.375">
   <ellipse/>
  </object>
  <object id="339" type="obj" x="958.719" y="1051.31" width="10.25" height="3.5">
   <ellipse/>
  </object>
  <object id="340" type="obj" x="966.969" y="1046.81" width="7.25" height="4">
   <ellipse/>
  </object>
  <object id="341" type="obj" x="975.094" y="1043.18" width="9.75" height="4">
   <ellipse/>
  </object>
  <object id="342" type="obj" x="912.281" y="1023.31" width="16.178" height="6.0377">
   <ellipse/>
  </object>
  <object id="343" type="obj" x="927.794" y="1016.16" width="12.6983" height="5.33257">
   <ellipse/>
  </object>
  <object id="344" type="obj" x="941.732" y="1010.59" width="11.9983" height="4.24182">
   <ellipse/>
  </object>
  <object id="345" type="obj" x="953.003" y="1005.25" width="9.93798" height="3.39346">
   <ellipse/>
  </object>
  <object id="346" type="obj" x="961.002" y="1000.89" width="7.0293" height="3.87824">
   <ellipse/>
  </object>
  <object id="347" type="obj" x="968.88" y="997.376" width="9.4532" height="3.87824">
   <ellipse/>
  </object>
  <object id="348" type="obj" x="921.371" y="1019.25" width="13.4483" height="5.33257">
   <ellipse/>
  </object>
  <object id="349" type="obj" x="935.309" y="1013.68" width="11.9983" height="4.24182">
   <ellipse/>
  </object>
  <object id="350" type="obj" x="946.58" y="1008.34" width="9.93798" height="3.39346">
   <ellipse/>
  </object>
  <object id="351" type="obj" x="954.579" y="1003.98" width="7.0293" height="3.87824">
   <ellipse/>
  </object>
  <object id="352" type="obj" x="962.456" y="1000.47" width="9.4532" height="3.87824">
   <ellipse/>
  </object>
  <object id="353" type="obj" x="973" y="995.862" width="9.93798" height="3.39346">
   <ellipse/>
  </object>
  <object id="354" type="obj" x="980.999" y="991.499" width="7.0293" height="3.87824">
   <ellipse/>
  </object>
  <object id="355" type="obj" x="974.576" y="994.589" width="7.0293" height="3.87824">
   <ellipse/>
  </object>
  <object id="356" type="obj" x="982.454" y="991.074" width="9.4532" height="3.87824">
   <ellipse/>
  </object>
  <object id="357" type="front_stairs" x="199.209" y="983.676" width="49.4545" height="80.9091" rotation="359.909"/>
  <object id="358" type="front_stairs" x="424.545" y="519.727" width="49.4545" height="80.9091" rotation="359.909"/>
  <object id="359" type="front_stairs" x="839.939" y="695.545" width="49.4545" height="80.9091" rotation="359.909"/>
  <object id="375" name="level1" type="door" x="929.25" y="1132.25" width="15.5" height="35.75"/>
  <object id="377" name="tunnel1" type="tunnel" x="718.364" y="397.091" width="36" height="37.8182">
   <ellipse/>
  </object>
  <object id="378" name="tunnel2" type="tunnel" x="1037.64" y="350.727" width="36" height="37.8182">
   <ellipse/>
  </object>
 </objectgroup>
 <layer id="6" name="decoration" width="75" height="75">
  <data encoding="csv">
0,0,0,0,0,0,0,0,0,0,0,0,0,0,0,0,0,0,0,0,0,0,0,0,0,0,0,0,0,0,0,0,0,0,0,0,0,0,0,0,0,0,0,0,0,0,0,0,0,0,0,0,0,0,0,0,0,0,0,0,0,0,0,0,0,0,0,0,0,0,0,0,0,0,0,
0,0,0,0,0,0,0,0,0,0,0,0,0,0,0,0,0,0,0,0,0,0,0,0,0,0,0,0,0,0,0,0,0,0,0,0,0,0,0,0,0,0,0,0,0,0,0,0,0,0,0,0,0,0,0,0,0,0,0,0,0,0,0,0,0,0,0,0,0,0,0,0,0,0,0,
0,0,0,0,0,0,0,0,0,0,0,0,0,0,0,0,0,0,0,0,0,0,0,0,0,0,0,0,0,0,0,0,0,0,0,0,0,0,0,0,0,0,0,0,0,0,0,0,0,0,0,0,0,0,0,0,0,0,0,0,0,0,0,0,0,0,0,0,0,0,0,0,0,0,0,
0,0,0,0,0,0,0,0,0,0,0,0,0,0,0,0,0,0,0,0,0,0,0,0,0,0,0,0,0,0,0,0,0,0,0,0,0,0,0,0,0,0,0,0,0,0,0,0,0,0,0,0,0,0,0,0,0,0,0,0,0,0,0,0,0,0,0,0,0,0,0,0,0,0,0,
0,0,0,0,0,0,0,0,0,0,0,0,0,0,0,0,0,0,0,0,0,0,0,0,0,0,0,0,0,0,0,0,0,0,0,0,0,0,0,0,0,0,0,0,0,0,0,0,0,0,0,0,0,0,0,0,0,0,0,0,0,0,0,0,0,0,0,0,0,0,0,0,0,0,0,
0,0,0,0,0,0,0,0,0,0,0,0,0,0,0,0,0,0,0,0,0,0,0,0,0,0,0,0,0,0,0,0,0,0,0,0,0,0,0,0,0,0,0,0,0,0,0,0,0,0,0,0,0,0,0,0,0,0,0,0,0,0,0,0,0,0,0,0,0,0,0,0,0,0,0,
0,0,0,0,0,0,0,0,0,0,0,0,0,0,0,0,0,0,0,0,0,0,0,0,0,0,0,0,0,0,0,0,0,0,0,0,0,0,0,0,0,0,0,0,0,0,0,0,0,0,0,0,0,0,0,0,0,0,0,0,0,0,0,0,0,0,0,0,0,0,0,0,0,0,0,
0,0,0,0,0,0,0,0,0,0,0,0,0,0,0,0,0,0,0,0,0,0,0,0,0,0,0,0,0,0,0,0,0,0,0,0,0,0,0,0,0,0,0,0,0,0,0,0,0,0,0,0,0,0,0,0,0,0,0,0,0,0,0,0,0,0,0,0,0,0,0,0,0,0,0,
0,0,0,0,0,0,0,0,0,0,0,0,0,0,0,0,0,0,0,0,0,0,0,0,0,0,0,0,0,0,0,0,0,0,0,0,0,0,0,0,0,0,0,0,0,0,0,0,0,0,0,0,0,0,0,0,0,0,0,0,0,0,0,0,0,0,0,0,0,0,0,0,0,0,0,
0,0,0,0,0,0,0,0,0,0,0,0,0,0,0,0,0,0,0,0,0,0,0,0,0,0,0,0,0,0,0,0,0,0,0,0,0,0,0,0,0,0,0,0,0,0,0,0,0,0,0,0,0,0,0,0,0,0,0,0,0,0,0,0,0,0,0,0,0,0,0,0,0,0,0,
0,0,0,0,0,0,0,0,0,0,0,0,0,0,0,0,0,0,0,0,0,0,0,0,0,0,0,0,0,0,0,0,0,0,0,0,0,0,0,0,0,0,0,0,0,0,0,0,0,0,0,0,0,0,0,0,0,0,0,0,0,0,0,0,0,0,0,0,0,0,0,0,0,0,0,
0,0,0,0,0,0,0,0,0,0,0,0,0,0,0,0,0,0,0,0,0,0,0,0,0,0,0,0,0,0,0,0,0,0,0,0,0,0,0,0,0,0,0,0,0,0,0,0,0,0,0,0,0,0,0,0,0,0,0,0,0,0,0,0,0,0,0,0,0,0,0,0,0,0,0,
0,0,0,0,0,0,0,0,0,0,0,0,0,0,0,0,0,0,0,0,0,0,0,0,0,0,0,0,0,0,0,0,0,0,0,0,0,0,0,0,0,0,0,0,0,0,0,0,0,0,0,0,0,0,0,0,0,0,0,0,0,0,0,0,0,0,0,0,0,0,0,0,0,0,0,
0,0,0,0,0,0,0,0,0,0,0,0,0,0,0,0,0,0,0,0,0,0,0,0,0,0,0,0,0,0,0,0,0,0,0,0,0,0,0,0,0,0,0,0,0,0,0,0,0,0,0,0,0,0,0,0,0,0,0,0,0,0,0,0,0,0,0,0,0,0,0,0,0,0,0,
0,0,0,0,0,0,0,0,0,0,0,0,0,0,0,0,0,0,0,0,0,0,0,0,0,0,0,0,0,0,0,0,0,0,0,0,0,0,0,0,0,0,0,0,0,0,0,0,0,0,0,0,0,0,0,0,0,0,0,0,0,0,0,0,0,0,0,0,0,0,0,0,0,0,0,
0,0,0,0,0,0,0,0,0,0,0,0,0,0,0,0,0,0,0,0,0,0,0,0,0,0,0,0,0,0,0,0,0,0,0,0,0,0,0,0,0,0,0,0,0,0,0,0,0,0,0,0,0,0,0,0,0,0,0,0,0,0,0,0,0,0,0,0,0,0,0,0,0,0,0,
0,0,0,0,0,0,0,0,0,0,0,0,0,0,0,0,0,0,0,0,0,0,0,0,0,0,0,0,0,0,0,0,0,0,0,0,0,0,0,0,0,0,0,0,0,0,0,0,0,0,0,0,0,0,0,0,0,0,0,0,0,0,0,0,0,0,0,0,0,0,0,0,0,0,0,
0,0,0,0,0,0,0,0,0,0,0,0,0,0,0,0,0,0,0,0,0,0,0,0,0,0,0,0,0,0,0,0,0,0,0,0,0,0,0,0,0,0,0,0,0,0,0,0,0,0,0,0,0,0,0,0,0,0,0,0,0,0,0,0,0,0,0,0,0,0,0,0,0,0,0,
0,0,0,0,0,0,0,0,0,0,0,0,0,0,0,0,0,0,5916,5917,5918,5919,0,0,0,0,0,0,0,0,0,0,0,0,0,0,0,0,0,0,0,0,0,0,0,0,0,0,0,0,0,0,0,0,0,0,0,0,0,0,0,0,0,0,0,0,0,0,0,0,0,0,0,0,0,
0,0,0,0,0,0,0,0,0,0,0,0,0,0,0,0,0,0,6056,6057,6058,6059,0,0,0,0,0,0,0,0,0,0,0,0,0,0,0,0,0,0,0,0,0,0,0,0,0,0,0,0,0,0,0,0,0,0,0,0,0,0,0,0,0,0,0,0,0,0,0,0,0,0,0,0,0,
0,0,0,0,0,0,0,0,0,0,0,0,0,0,0,0,0,0,6196,6197,6198,6199,0,0,0,0,0,0,0,0,0,0,0,0,0,0,0,0,0,0,0,0,0,0,0,0,0,0,0,0,0,0,0,0,0,0,0,0,0,0,0,0,0,0,0,0,0,0,0,0,0,0,0,0,0,
0,0,0,0,0,0,0,0,0,0,0,0,0,0,0,0,0,0,0,0,0,0,0,0,0,0,0,0,0,0,0,0,0,0,799,800,801,802,803,804,0,0,0,0,0,0,0,0,0,0,0,0,0,0,0,0,0,0,0,0,0,0,0,0,0,0,0,0,0,0,0,0,0,0,0,
0,0,0,0,0,0,0,0,0,0,0,0,0,0,0,0,0,0,0,0,0,0,0,0,0,0,0,0,0,0,0,0,0,0,863,864,865,866,867,868,0,0,0,0,0,0,0,0,0,0,0,0,0,0,0,0,0,0,0,0,0,0,0,0,0,0,0,0,0,0,0,0,0,0,0,
0,0,0,0,0,0,0,0,0,0,0,0,0,0,0,0,0,0,2823,2823,2823,2823,0,0,0,0,0,0,0,0,0,0,0,0,1055,1056,1057,1058,1059,1060,0,0,0,0,0,0,0,0,0,0,0,0,0,0,0,0,0,0,0,0,0,3147,3148,0,0,0,0,0,0,3147,3148,0,0,0,0,
0,0,0,0,0,0,0,0,0,0,0,0,0,0,0,0,0,0,0,2823,0,0,0,0,0,0,0,0,0,0,0,0,0,0,1119,1120,1121,1122,1123,1124,0,0,0,0,0,0,0,0,0,0,0,3912,0,0,0,0,0,0,0,0,0,3179,3180,0,0,0,0,0,0,3179,3180,0,0,0,0,
0,0,0,0,0,0,0,0,0,0,0,0,0,0,0,0,0,0,0,0,0,0,0,0,0,0,0,0,0,0,0,0,0,0,0,0,0,0,0,0,0,0,0,0,0,0,0,0,0,0,0,0,0,0,0,0,0,0,0,0,0,0,0,0,0,0,0,0,0,0,0,0,0,0,0,
0,0,0,0,0,0,0,0,0,0,0,0,0,0,0,0,0,0,0,0,0,0,0,0,0,0,0,0,0,0,0,0,0,0,0,0,0,0,0,0,0,0,0,0,0,0,0,0,0,0,0,0,0,0,0,0,0,0,0,0,0,0,0,0,0,0,0,0,0,0,0,0,0,0,0,
0,0,0,0,0,0,0,0,0,0,0,0,0,0,0,0,0,0,0,0,0,0,0,0,0,0,0,0,0,0,0,0,0,0,0,0,0,0,0,0,0,0,0,0,0,0,0,0,0,0,0,0,0,0,0,0,0,0,0,0,0,0,0,0,0,0,0,0,0,0,0,0,0,0,0,
0,0,0,0,0,0,0,0,0,0,0,0,0,0,0,0,0,0,0,0,0,0,0,0,0,0,0,0,0,0,0,0,0,0,0,0,0,0,0,0,0,0,0,0,0,0,0,0,0,0,0,0,0,0,0,0,0,0,0,0,0,0,0,0,0,0,0,0,0,0,0,0,0,0,0,
0,0,0,0,0,0,0,0,0,0,0,0,0,0,0,0,0,0,0,0,0,0,0,0,0,0,0,0,0,0,0,0,0,0,0,0,0,0,0,0,0,0,0,0,0,0,0,0,0,0,0,0,0,0,0,0,0,0,0,0,0,0,0,0,0,0,0,0,0,0,0,0,0,0,0,
0,0,0,0,0,0,0,0,0,0,0,0,0,0,0,0,0,0,0,0,0,0,0,0,0,0,0,0,0,0,0,0,0,0,0,0,0,0,0,0,0,0,0,0,0,0,0,0,0,0,0,0,0,0,0,0,0,0,0,0,0,0,0,0,0,0,0,0,0,0,0,0,0,0,0,
0,0,0,0,0,0,0,0,0,0,0,0,0,0,0,0,0,0,0,0,0,0,0,0,0,0,0,0,0,0,0,0,0,0,0,0,0,0,0,0,0,0,0,0,0,799,800,801,802,803,804,0,0,0,0,0,0,0,0,0,0,0,0,0,0,0,0,0,0,0,0,0,0,0,0,
0,0,0,0,0,0,0,0,0,0,0,0,0,0,0,0,0,0,0,0,0,0,0,0,0,0,0,0,0,0,0,0,0,0,0,0,0,0,0,0,0,0,0,0,0,863,1376,1377,1376,1377,868,0,0,0,0,0,0,0,0,0,0,0,0,0,0,0,0,0,0,0,0,0,0,0,0,
0,0,0,0,0,0,0,0,0,0,0,0,0,0,0,0,0,0,0,0,0,0,0,0,0,0,0,0,0,0,0,0,0,0,0,0,0,0,0,0,0,0,0,0,0,927,1440,1441,1440,1441,932,0,0,0,0,0,0,0,0,0,0,0,0,0,0,0,0,0,0,0,0,0,0,0,0,
0,0,0,0,0,0,0,0,0,0,0,0,0,0,0,0,0,0,0,0,0,0,0,0,0,0,0,0,0,0,0,0,0,0,0,0,0,0,0,0,0,0,0,0,0,991,1376,1377,1376,1377,996,0,0,0,0,0,0,0,0,0,0,0,0,0,0,0,0,0,0,0,0,0,0,0,0,
0,0,0,0,0,0,0,0,0,0,0,0,0,0,0,0,0,0,0,0,0,0,0,0,0,0,0,0,0,0,0,0,0,0,0,0,0,0,0,0,0,0,0,0,0,1055,1440,1441,1440,1441,1060,0,0,0,0,0,0,0,0,0,0,0,0,0,0,0,0,0,12495,12496,12497,12498,12499,12500,0,
0,0,0,0,0,0,0,0,0,0,0,0,0,799,800,801,802,803,804,0,0,0,0,0,0,0,0,0,0,0,0,0,0,0,0,0,0,0,0,0,0,0,0,0,0,1119,1120,1121,1122,1123,1124,0,0,0,0,0,0,0,0,0,0,0,0,0,0,0,0,0,12635,12636,12637,12638,12639,12640,0,
0,0,0,0,0,0,0,0,0,0,0,0,0,863,864,865,866,867,868,0,0,0,0,0,0,0,0,0,0,0,0,0,0,0,0,0,0,0,0,0,0,0,0,0,0,0,0,0,0,0,0,0,0,0,0,0,0,0,0,0,0,0,0,0,0,0,0,0,0,0,0,0,0,0,0,
0,0,0,0,0,0,0,0,0,0,0,0,0,927,928,929,930,931,932,0,0,0,0,0,0,0,0,0,0,0,0,0,0,0,0,0,0,0,0,0,0,0,0,0,0,0,0,0,0,0,0,0,0,0,0,0,0,0,0,0,0,0,0,0,0,0,0,0,0,0,0,0,0,0,0,
0,0,0,0,0,0,0,0,0,0,0,0,0,991,992,993,994,995,996,0,0,0,0,0,0,0,0,0,0,0,0,0,0,0,0,0,0,0,0,0,0,0,0,0,0,0,0,0,0,0,0,0,0,0,0,0,0,0,0,0,0,0,0,0,0,0,0,0,0,0,0,0,0,0,0,
0,0,0,0,0,0,0,0,0,0,0,0,0,1055,1056,1057,1058,1059,1060,0,0,0,0,0,0,0,0,0,0,0,0,0,0,0,0,0,0,0,0,0,0,0,0,0,0,0,0,0,0,0,0,0,0,0,0,0,0,0,0,0,0,0,0,0,0,0,0,0,12355,12356,12357,12358,12359,12359,0,
0,0,0,0,0,0,0,0,0,0,0,0,0,1119,1120,1121,1122,1123,1124,0,0,0,0,0,0,0,0,0,0,0,0,0,0,0,0,0,0,0,0,0,0,0,0,0,0,0,0,0,0,0,0,0,0,0,0,0,0,0,0,0,0,0,0,0,0,0,0,0,0,0,0,0,0,0,0,
0,0,0,0,0,0,0,0,0,0,0,0,0,0,0,0,0,0,0,0,0,0,0,0,0,0,0,0,0,0,0,0,0,0,0,0,0,0,0,0,0,0,0,0,0,0,0,0,0,0,0,0,0,0,0,0,0,0,0,0,0,0,0,0,0,0,0,0,0,0,0,0,0,0,0,
0,0,0,0,0,0,0,0,0,0,0,0,0,0,0,0,0,0,0,0,0,0,0,0,0,0,0,0,0,0,0,0,0,0,0,0,0,0,0,0,0,0,0,0,0,0,3946,3947,3948,3949,0,0,0,0,0,0,0,0,0,0,0,0,0,0,0,0,0,0,0,0,0,0,0,0,0,
0,0,0,0,0,0,0,0,0,0,0,0,0,0,0,0,0,0,0,0,0,0,0,0,0,0,0,0,0,0,0,0,0,0,0,0,0,0,0,0,0,0,0,0,0,0,3978,3979,3980,3981,0,0,0,0,0,0,0,0,0,0,0,0,0,0,0,0,0,0,0,0,0,0,0,0,0,
0,0,0,0,0,0,0,0,0,0,0,0,0,0,0,0,0,0,0,0,0,0,0,0,0,0,2620,2621,2622,2623,0,0,0,0,0,0,0,0,0,0,0,0,0,0,0,0,4010,4011,4012,4013,0,0,0,0,0,0,0,0,0,0,0,0,0,0,0,0,0,0,0,0,0,0,0,0,0,
0,0,0,0,0,0,0,0,0,0,0,0,0,0,0,0,0,0,0,0,0,0,0,0,0,0,2652,2653,2654,2655,0,0,0,0,0,0,0,0,0,0,0,0,0,0,0,0,0,0,0,0,0,0,0,0,0,0,0,0,0,0,0,0,0,0,0,0,0,0,0,0,0,0,0,0,0,
0,0,0,0,0,0,0,0,0,0,0,0,0,0,0,0,0,0,0,0,0,0,0,0,0,0,2684,2685,2686,2687,0,0,0,0,0,0,0,0,0,0,0,0,0,0,0,0,0,0,0,0,0,0,0,0,0,0,0,0,0,0,0,0,0,0,0,0,0,0,0,0,0,0,0,0,0,
0,0,0,0,0,0,0,0,0,0,0,0,0,0,0,0,0,0,0,0,0,0,0,0,0,0,0,0,0,0,0,0,0,0,0,0,0,0,0,0,0,0,0,0,0,0,0,0,0,0,0,0,0,0,0,0,0,0,0,0,0,0,0,0,0,0,0,0,0,0,0,0,0,0,0,
0,0,0,0,0,0,0,0,0,0,0,0,0,0,0,0,0,0,0,0,0,0,0,0,0,0,0,0,0,0,0,0,0,0,0,0,0,0,0,0,0,0,0,0,0,0,0,0,0,0,0,0,0,0,0,0,0,0,0,0,0,0,0,0,0,0,0,0,0,0,0,0,0,0,0,
0,0,0,0,0,0,0,0,0,0,0,0,0,0,0,0,0,0,0,0,0,0,0,0,0,0,0,0,0,0,0,0,0,0,0,0,0,0,0,0,0,0,0,0,0,0,0,0,0,0,0,0,0,0,0,0,0,0,0,0,0,0,0,0,0,0,0,0,0,0,0,0,0,0,0,
0,0,0,0,0,0,0,0,0,0,0,0,0,0,0,0,0,0,0,0,0,0,0,0,0,0,0,0,0,0,0,0,0,0,0,0,0,0,0,0,0,0,0,0,0,0,0,0,0,0,0,0,0,0,0,0,0,0,0,0,0,0,0,0,0,0,0,0,0,0,0,0,0,0,0,
0,2987,2988,0,0,0,0,0,0,0,0,0,0,0,0,0,0,0,0,0,0,0,0,0,0,0,0,0,0,0,0,0,0,0,0,0,0,0,0,0,0,0,0,0,0,0,0,0,0,0,0,0,0,0,0,0,0,0,0,0,0,0,0,0,0,0,0,0,0,0,0,0,0,0,0,
0,3019,3020,0,0,0,0,0,0,0,0,0,0,0,0,0,0,0,0,0,0,0,0,0,0,0,0,0,0,0,0,0,0,0,0,0,0,0,0,0,0,0,0,0,0,0,0,0,0,0,0,0,0,0,0,0,0,0,0,0,0,0,0,0,0,0,0,0,0,0,0,0,0,0,0,
0,3051,3052,0,0,0,0,0,0,0,0,0,0,0,0,0,0,0,0,0,0,0,0,0,0,0,0,0,0,0,0,0,0,0,0,0,0,0,0,0,0,0,0,0,0,0,0,0,0,0,0,0,0,0,0,0,0,0,0,0,0,0,0,0,0,0,0,0,0,0,0,0,0,0,0,
0,0,0,0,0,0,0,0,0,0,0,0,0,0,0,0,0,0,0,0,0,0,0,0,0,0,0,0,0,0,0,0,0,0,0,0,0,0,0,0,0,0,0,0,0,0,0,0,0,0,0,0,0,0,0,0,0,0,0,0,0,0,0,0,0,0,0,0,0,0,0,0,0,0,0,
0,0,0,0,0,0,0,0,0,0,0,0,0,0,0,0,0,0,0,0,0,0,0,0,0,0,0,0,0,0,0,0,0,0,0,0,0,0,0,0,0,0,0,0,0,0,0,0,0,0,0,0,0,0,0,0,0,0,0,0,0,0,0,0,0,0,0,0,0,0,0,0,0,0,0,
0,0,0,0,0,0,0,0,0,0,0,0,0,0,0,0,0,0,0,0,0,0,0,0,0,0,0,0,0,0,0,0,0,0,0,0,3977,0,0,0,0,0,0,0,0,0,0,0,0,0,0,0,0,0,0,0,0,0,0,0,0,0,0,0,0,0,0,0,0,0,0,0,0,0,0,
0,0,0,0,0,0,0,0,0,0,0,0,0,0,0,0,0,0,0,0,0,0,0,0,0,0,0,0,0,0,0,0,0,0,3074,3074,4009,0,0,0,0,0,0,0,0,0,0,0,0,0,0,0,0,0,0,0,0,0,0,0,0,0,0,0,0,0,0,0,0,0,0,0,0,0,0,
0,0,0,0,0,0,0,0,0,0,0,0,0,0,0,0,0,0,0,0,0,0,0,0,0,0,0,0,0,0,0,0,0,0,0,0,0,0,0,0,0,0,0,0,0,0,0,0,0,0,0,0,0,0,0,0,0,0,0,0,0,0,0,3187,3188,0,0,0,0,0,0,0,0,0,0,
0,0,0,0,0,0,0,0,0,0,0,0,0,0,0,0,0,0,0,0,0,0,0,0,0,0,0,0,0,0,0,0,0,0,0,0,0,0,0,0,0,0,0,0,0,0,0,0,0,0,0,0,0,0,0,0,0,0,0,0,0,0,0,0,0,0,0,0,0,0,0,0,0,0,0,
0,0,0,0,0,0,0,0,0,0,0,0,0,0,0,0,0,0,0,0,0,0,0,0,0,0,0,0,0,0,0,0,0,0,0,0,0,0,0,2735,2736,0,0,0,0,0,0,0,0,0,0,0,0,0,0,0,0,0,0,0,0,0,0,0,0,0,0,0,0,0,0,0,0,0,0,
0,0,0,0,0,0,0,0,0,0,0,0,0,0,0,0,0,0,0,0,0,0,0,0,0,0,0,0,0,0,0,0,0,0,0,0,0,0,0,2767,2768,0,0,0,0,0,0,0,0,0,0,0,0,0,0,0,0,0,0,0,0,0,0,0,0,0,0,0,0,0,0,0,0,0,0,
0,0,0,0,0,0,0,0,0,0,0,0,0,0,0,0,0,0,0,0,0,0,0,0,0,0,0,0,0,0,0,0,0,0,0,0,0,0,0,2799,2800,0,0,0,0,0,0,0,0,0,0,0,0,0,0,0,0,0,0,0,0,0,0,0,0,0,0,0,0,0,0,0,0,0,0,
0,0,0,0,0,0,0,0,0,0,0,0,0,0,0,0,0,0,0,0,0,0,0,0,0,0,0,0,0,0,0,0,0,0,0,0,0,0,0,0,0,0,0,0,0,0,0,0,0,0,0,0,0,0,0,0,0,0,0,0,0,0,0,0,0,0,0,0,0,0,0,0,0,0,0,
0,0,0,0,0,0,0,0,0,0,0,0,0,0,0,0,0,0,0,0,0,0,0,0,0,0,0,0,0,0,0,0,0,0,2735,2736,0,0,0,0,0,0,0,0,2735,2736,0,0,0,0,0,0,0,0,0,0,0,0,0,0,0,0,0,0,0,0,0,0,0,0,0,0,0,0,0,
0,0,0,0,0,0,0,0,0,0,0,0,0,0,0,0,0,0,0,0,0,0,0,0,0,0,0,0,0,0,0,0,0,0,2767,2768,0,0,0,0,0,0,0,0,2767,2768,0,0,0,0,0,0,0,0,0,0,0,0,0,0,3112,3112,0,0,0,0,0,0,0,0,0,0,0,0,0,
0,0,0,0,0,0,0,0,0,0,0,0,0,0,0,0,0,0,0,0,0,0,0,0,0,0,0,0,0,0,0,0,0,0,2799,2800,0,0,0,0,0,0,0,0,2799,2800,0,0,0,0,0,0,0,0,0,0,0,0,0,0,0,0,0,0,0,0,0,0,0,0,0,0,0,0,0,
0,0,0,0,0,0,0,0,0,0,0,0,0,0,0,0,0,0,0,0,0,0,0,0,0,0,0,0,0,0,0,0,0,0,0,0,0,0,0,0,0,0,0,0,0,0,0,0,0,0,0,0,0,0,0,0,0,0,0,0,0,0,0,0,0,0,0,0,0,0,0,0,0,0,0,
0,0,0,0,0,0,0,0,0,0,0,0,0,0,0,0,0,0,0,0,0,0,0,0,0,0,0,0,0,0,0,0,0,0,0,0,0,0,0,0,0,0,0,0,0,0,0,0,0,0,0,0,0,0,0,0,0,0,0,0,0,0,0,0,0,0,0,0,0,0,0,0,0,0,0,
0,0,0,0,0,0,0,0,0,0,0,0,0,0,0,0,0,0,0,0,0,0,0,0,0,0,0,0,0,0,0,0,0,0,0,0,0,0,0,0,0,0,0,0,0,0,0,0,0,0,0,0,0,0,0,0,0,0,0,0,0,0,0,0,0,0,0,0,0,0,0,0,0,0,0,
0,0,0,0,3147,3148,3149,0,0,0,0,0,0,0,0,0,0,0,0,0,0,0,0,0,0,0,0,0,0,0,0,0,0,0,0,0,0,0,0,0,0,0,0,0,0,0,0,0,0,0,0,0,0,0,0,0,0,0,0,0,0,0,0,0,0,0,0,0,0,0,0,0,0,0,0,
0,0,0,0,0,0,0,0,0,0,0,0,0,0,0,0,0,0,0,0,0,0,0,0,0,0,0,0,0,0,0,0,0,0,0,0,0,0,0,0,0,0,0,0,0,0,0,0,0,0,0,0,0,0,0,0,0,0,0,0,0,0,0,0,0,0,0,0,0,0,0,0,0,0,0,
0,0,0,0,0,0,0,0,0,0,0,0,0,0,0,0,0,0,0,0,0,0,0,0,0,0,0,0,0,0,0,0,0,0,0,0,0,0,0,0,0,0,0,0,0,0,0,0,0,0,0,0,0,0,0,0,0,0,0,0,0,0,0,0,0,0,0,0,0,0,0,0,0,0,0,
0,0,0,0,0,0,0,0,0,0,0,0,0,0,0,0,0,0,0,0,0,0,0,0,0,0,0,0,0,0,0,0,0,0,0,0,0,0,0,0,0,0,0,0,0,0,0,0,0,0,0,0,0,0,0,0,0,0,0,0,0,0,0,0,0,0,0,0,0,0,0,0,0,0,0
</data>
 </layer>
 <layer id="8" name="trees" width="75" height="75">
  <data encoding="csv">
0,0,0,0,0,0,0,0,0,0,0,0,0,0,0,0,0,0,0,0,0,0,0,0,0,0,0,0,0,0,0,0,0,0,0,0,0,0,0,0,0,0,0,0,0,0,0,0,0,0,0,0,0,0,0,0,0,0,0,0,0,0,0,0,0,0,0,0,0,0,0,0,0,0,0,
0,0,0,0,0,0,0,0,0,0,0,0,0,0,0,0,0,0,0,0,0,0,0,0,0,0,0,0,0,0,0,0,0,0,0,0,0,0,0,0,0,0,0,0,0,0,0,0,0,0,0,0,0,0,0,0,0,0,0,0,0,0,0,0,0,0,0,0,0,0,0,0,0,0,0,
0,0,0,0,0,0,0,0,0,0,0,0,0,0,0,0,0,0,0,0,0,0,0,0,0,0,0,0,0,0,0,0,0,0,0,0,0,0,0,0,0,0,0,0,0,0,0,0,0,0,0,0,0,0,0,0,0,0,0,0,0,0,0,0,0,0,0,0,0,0,0,0,0,0,0,
0,0,0,0,0,0,0,0,0,0,0,0,0,0,0,0,0,0,0,0,0,0,0,0,0,0,0,0,0,0,0,0,0,0,0,0,0,0,0,0,0,0,0,0,0,0,0,0,0,0,0,0,0,0,0,0,0,0,0,0,0,0,0,0,0,0,0,0,0,0,0,0,0,0,0,
0,0,0,0,0,0,0,0,0,0,0,0,0,0,0,0,0,0,0,0,0,0,0,0,0,0,0,0,0,0,0,0,0,0,0,0,0,0,0,0,0,0,0,0,0,0,0,0,0,0,0,0,0,0,0,0,0,0,0,0,0,0,0,0,0,0,0,0,0,0,0,0,0,0,0,
0,0,0,0,0,0,0,0,0,0,0,0,0,0,0,0,0,0,0,0,0,0,0,0,0,0,0,0,0,0,0,0,0,0,0,0,0,0,0,0,0,0,0,0,0,0,0,0,0,0,0,0,0,0,0,0,0,0,0,0,0,0,0,0,0,0,0,0,0,0,0,0,0,0,0,
0,0,0,0,0,0,0,0,0,0,0,0,0,0,0,0,0,0,0,0,0,0,0,0,0,0,0,0,0,0,0,0,0,0,0,0,0,0,0,0,0,0,0,0,0,0,0,0,0,0,0,0,0,0,0,0,0,0,0,0,0,0,0,0,0,0,0,0,0,0,0,0,0,0,0,
0,0,0,0,0,0,0,0,0,0,0,0,0,0,0,0,0,0,0,0,0,0,0,0,0,0,0,0,0,0,0,0,0,0,0,0,0,0,0,0,0,0,0,0,0,0,0,0,0,0,0,0,0,0,0,0,0,0,0,0,0,0,0,0,0,0,0,0,0,0,0,0,0,0,0,
0,0,0,0,0,0,0,0,0,0,0,0,0,0,0,0,0,0,0,0,0,0,0,0,0,0,0,0,0,0,0,0,0,0,0,0,0,0,0,0,0,0,0,0,0,0,0,0,0,0,0,0,0,0,0,0,0,0,0,0,0,0,0,0,0,0,0,0,0,0,0,0,0,0,0,
0,0,0,0,0,0,0,0,0,0,0,0,0,0,0,0,0,0,0,0,0,0,0,0,0,0,0,0,0,0,0,0,0,0,0,0,0,0,0,0,0,0,0,0,0,0,0,0,0,0,0,0,0,0,0,0,0,0,0,0,0,0,0,0,0,0,0,0,0,0,0,0,0,0,0,
0,0,0,0,0,0,0,0,0,0,0,0,0,0,0,0,0,0,0,0,0,0,0,0,0,0,0,0,0,0,0,0,0,0,0,0,0,0,0,0,0,0,0,0,0,0,0,0,0,0,0,0,0,0,0,0,0,0,0,0,0,0,0,0,0,0,0,0,0,0,0,0,0,0,0,
0,0,0,0,0,0,0,0,0,0,0,0,0,0,0,0,0,0,0,0,0,0,0,0,0,0,0,0,0,0,0,0,0,0,0,0,0,0,0,0,0,0,0,0,0,0,0,0,0,0,0,0,0,0,0,0,0,0,0,0,0,0,0,0,0,0,0,0,0,0,0,0,0,0,0,
0,0,0,0,0,0,0,0,0,0,0,0,0,0,0,0,0,0,0,0,0,0,0,0,0,0,0,0,0,0,0,0,0,0,0,0,0,0,0,0,0,0,0,0,0,0,0,0,0,0,0,0,0,0,0,0,0,0,0,0,0,0,0,0,0,0,0,0,0,0,0,0,0,0,0,
0,0,0,0,0,0,0,0,0,0,0,0,0,0,0,0,0,0,0,0,0,0,0,0,0,0,0,0,0,0,0,0,0,0,0,0,0,0,0,0,0,0,0,0,3586,3587,3588,3589,3590,3591,3592,3593,0,0,0,0,0,0,0,0,0,0,0,0,0,0,0,0,0,0,0,0,0,0,0,
0,0,0,0,0,0,0,0,0,0,0,0,0,0,0,0,0,0,0,0,0,0,0,0,0,0,0,3627,3628,3629,3630,3631,3632,0,0,0,0,0,0,0,0,0,0,0,3618,3619,3620,3621,3622,3623,3624,3625,0,0,0,0,0,0,0,0,0,0,0,0,0,0,0,0,0,0,0,0,0,0,0,
0,0,0,0,0,0,0,0,0,0,0,0,0,0,0,0,0,0,0,0,0,0,0,0,0,0,0,3659,3660,3661,3662,3663,3664,0,0,0,0,0,0,0,0,0,0,0,3650,3651,3652,3653,3654,3655,3656,3657,0,0,0,0,0,0,0,0,0,0,0,0,0,0,0,0,0,0,0,0,0,0,0,
0,0,0,0,0,0,0,0,0,0,0,0,0,0,0,0,0,0,0,0,0,0,0,0,0,0,0,3691,3692,3693,3694,3695,3696,0,0,0,0,0,0,0,0,0,0,0,3682,3683,3684,3685,3686,3687,3688,3689,0,0,0,0,0,0,0,0,0,0,0,0,0,0,0,0,0,0,0,0,0,0,0,
0,0,0,0,0,0,0,0,0,0,0,0,0,0,0,0,0,0,0,0,0,0,0,0,0,0,0,3723,3724,3725,3726,3727,3728,0,0,0,0,0,0,0,0,0,0,0,3714,3715,3716,3717,3718,3719,3720,3721,0,0,0,0,0,0,0,0,0,0,0,0,0,0,0,0,0,0,0,0,0,0,0,
0,0,0,0,0,0,0,0,0,0,0,0,0,0,0,0,0,0,0,0,0,0,0,0,0,0,0,3755,3756,3757,3758,3759,3760,0,0,0,0,0,0,0,0,0,0,0,3746,3747,3748,3749,3750,3751,3752,3753,0,0,0,0,0,0,0,0,0,0,0,0,0,0,0,0,0,0,0,0,0,0,0,
0,0,0,0,0,0,0,0,0,0,0,0,0,0,0,0,0,0,0,0,0,0,0,0,0,0,0,3787,3788,3789,3790,3791,3792,0,0,0,0,0,0,0,0,0,0,0,3778,3779,3780,3781,3782,3783,3784,3785,0,0,0,0,0,0,0,0,0,0,0,0,0,0,0,0,0,0,0,0,0,0,0,
0,0,0,0,0,0,0,0,0,0,0,0,0,0,0,0,0,0,0,0,0,0,0,0,0,0,0,3819,3820,3821,3822,3823,3824,0,0,0,0,0,0,0,0,0,0,0,3810,3811,3812,3813,3814,3815,3816,3817,0,0,0,0,0,0,0,0,0,0,0,0,0,0,0,0,0,0,0,0,0,0,0,
0,0,0,0,0,0,0,0,0,0,0,0,0,0,0,0,0,0,0,0,0,0,0,0,0,0,0,3851,3852,0,0,3855,3856,0,0,0,0,0,0,0,0,0,0,0,3842,3843,3844,0,0,3847,3848,3849,0,0,0,0,0,0,0,0,0,0,0,0,0,0,0,0,0,0,0,0,0,0,0,
0,0,0,0,0,0,0,0,0,0,0,0,0,0,0,0,0,0,0,0,0,0,0,0,0,0,0,3883,3884,0,0,3887,3888,0,0,0,0,0,0,0,0,0,0,0,3874,3875,3876,0,0,3879,3880,3881,0,0,0,0,0,0,0,0,0,0,0,0,0,0,0,0,0,0,0,0,0,0,0,
0,0,0,0,0,0,0,0,0,0,0,0,0,0,0,0,0,0,0,0,0,0,0,0,0,0,0,0,0,0,0,0,0,0,0,0,0,0,0,0,0,0,0,0,0,0,0,0,0,0,0,0,0,0,0,0,0,0,0,0,0,0,0,0,0,0,0,0,0,0,0,0,0,0,0,
0,0,0,0,0,0,0,0,0,0,0,0,0,0,0,0,0,0,0,0,0,0,0,0,0,0,0,0,0,0,0,0,0,0,0,0,0,0,0,0,0,0,0,0,0,0,0,0,0,0,0,0,0,0,0,0,0,0,0,0,0,0,0,0,0,0,0,0,0,0,0,0,0,0,0,
0,0,0,0,0,0,0,0,0,0,0,0,0,0,0,0,0,0,0,0,0,0,0,0,0,0,0,0,0,0,0,0,0,0,0,0,0,0,0,0,0,0,0,0,0,0,0,0,0,0,0,0,0,0,0,0,0,0,0,0,0,0,0,0,0,0,0,0,0,0,0,0,0,0,0,
0,0,0,0,0,0,0,0,0,0,0,0,0,0,0,0,0,0,0,0,0,0,0,0,0,0,0,0,0,0,0,0,0,0,0,0,0,0,0,0,0,0,0,0,0,0,0,0,0,0,0,0,0,0,0,0,0,0,0,0,0,0,0,0,0,0,0,0,0,0,0,0,0,0,0,
0,0,0,0,0,0,0,0,0,0,0,0,0,0,0,0,0,0,0,0,0,0,0,0,0,0,0,0,0,0,0,0,0,0,0,0,0,0,0,0,0,0,0,0,0,0,0,0,0,0,0,0,0,0,0,0,0,0,0,0,0,0,0,0,0,0,0,0,0,0,0,0,0,0,0,
0,0,0,0,0,0,0,0,0,0,0,0,0,0,0,0,0,0,0,0,0,0,0,0,0,0,0,0,0,0,0,0,0,3586,3587,3588,3589,3590,3591,3592,3593,0,0,0,0,0,0,0,0,0,0,0,0,0,0,0,0,0,0,0,0,0,0,0,0,0,0,0,0,0,0,0,0,0,0,
0,0,0,0,0,0,0,0,0,0,0,0,0,0,0,0,0,0,0,0,0,0,0,0,0,0,0,0,0,0,0,0,0,3618,3619,3620,3621,3622,3623,3624,3625,0,0,0,0,0,0,0,0,0,0,0,0,0,0,0,0,0,0,0,0,0,0,0,0,0,0,0,0,0,0,0,0,0,0,
0,0,0,0,0,0,0,0,0,0,0,0,0,0,0,0,0,0,0,0,0,0,0,0,0,0,0,0,0,0,0,0,0,3650,3651,3652,3653,3654,3655,3656,3657,0,0,0,0,0,0,0,0,0,0,0,0,0,0,0,0,0,0,0,0,0,0,0,0,0,0,0,0,0,0,0,0,0,0,
0,0,0,0,0,0,0,0,0,0,0,0,0,0,0,0,0,0,0,0,0,0,0,0,0,0,0,0,0,0,0,0,0,3682,3683,3684,3685,3686,3687,3688,3689,0,0,0,0,0,0,0,0,0,0,0,0,0,0,0,0,0,0,0,0,0,0,0,0,0,0,0,0,0,0,0,0,0,0,
0,0,0,0,0,0,0,0,0,0,0,0,0,0,0,0,0,0,0,0,0,0,0,0,0,0,0,0,0,0,0,0,0,3714,3715,3716,3717,3718,3719,3720,3721,0,0,0,0,0,0,0,0,0,0,0,0,0,0,0,0,0,0,0,0,0,0,0,0,0,0,0,0,0,0,0,0,0,0,
0,0,0,0,0,0,0,0,0,0,0,0,0,0,0,0,0,0,0,0,0,0,0,0,0,0,0,0,0,0,0,0,0,3746,3747,3748,3749,3750,3751,3752,3753,0,0,0,0,0,0,0,0,0,0,0,0,0,0,0,0,0,0,0,0,0,0,0,0,0,0,0,0,0,0,0,0,0,0,
0,0,0,0,0,0,0,0,0,0,0,0,0,0,0,0,0,0,0,0,0,0,0,0,0,0,0,0,0,0,0,0,0,3778,3779,3780,3781,3782,3783,3784,3785,0,0,0,0,0,0,0,0,0,0,0,0,0,0,0,0,0,0,0,0,0,0,0,0,0,0,0,0,0,0,0,0,0,0,
0,0,0,0,0,0,0,0,0,0,0,0,0,0,0,0,0,0,0,0,0,0,0,0,0,0,0,0,0,0,0,0,0,3810,3811,3812,3813,3814,3815,3816,3817,0,0,0,0,0,0,0,0,0,0,0,0,0,0,0,0,0,0,0,0,0,0,0,0,0,0,0,0,0,0,0,0,0,0,
0,0,0,0,0,0,0,0,0,0,0,0,0,0,0,0,0,0,0,0,0,0,0,0,0,0,0,0,0,0,0,0,0,3842,3843,3844,0,0,3847,3848,3849,0,0,0,0,0,0,0,0,0,0,0,0,0,0,0,0,0,0,0,0,0,0,0,0,0,0,0,0,0,0,0,0,0,0,
0,0,0,0,0,0,0,0,0,0,0,0,0,0,0,0,0,0,0,0,0,0,0,0,0,0,0,0,0,0,0,0,0,3874,3875,3876,0,0,3879,3880,3881,0,0,0,0,0,0,0,0,0,0,0,0,0,0,0,0,0,0,0,0,0,0,0,0,0,0,0,0,0,0,0,0,0,0,
0,0,0,0,0,0,0,0,0,0,0,0,0,0,0,0,0,0,0,0,0,0,0,0,0,0,0,0,0,0,0,0,0,0,0,0,0,0,0,0,0,0,0,0,0,0,0,0,0,0,0,0,0,0,0,0,0,0,0,0,0,0,0,0,0,0,0,0,0,0,0,0,0,0,0,
0,0,0,0,0,0,0,0,0,0,0,0,0,0,0,0,0,0,0,0,0,0,0,0,0,0,0,0,0,0,0,0,0,0,0,0,0,0,0,0,0,0,0,0,0,0,0,0,0,0,0,0,0,0,0,0,0,0,0,0,0,0,0,0,0,0,0,0,0,0,0,0,0,0,0,
0,0,0,0,0,0,0,0,0,0,0,0,0,0,0,0,0,0,0,0,0,0,0,0,0,0,0,0,0,0,0,0,0,0,0,0,0,0,0,0,0,0,0,0,0,0,0,0,0,0,0,0,0,0,0,0,0,0,0,0,0,0,0,0,0,0,0,0,0,0,0,0,0,0,0,
0,0,0,0,0,0,0,0,0,0,0,0,0,0,0,0,0,0,0,0,0,0,0,0,0,0,0,0,0,0,0,0,0,0,0,0,0,0,0,0,0,0,0,0,0,0,0,0,0,0,0,0,0,0,0,0,0,0,0,0,0,0,0,0,0,0,0,0,0,0,0,0,0,0,0,
0,0,0,0,0,0,0,0,0,0,0,0,0,0,0,0,0,0,0,0,0,0,0,0,0,0,0,0,0,0,0,0,0,0,0,0,0,0,0,0,0,0,0,0,0,0,0,0,0,0,0,0,0,0,0,0,0,0,0,0,0,0,0,0,0,0,0,0,0,0,0,0,0,0,0,
0,0,0,0,0,0,0,0,0,0,0,0,0,0,0,0,0,0,0,0,0,0,0,0,0,0,0,0,0,0,0,0,0,0,0,0,0,0,0,0,0,0,0,0,0,0,0,0,0,0,0,0,0,0,0,0,0,0,0,0,0,0,0,0,0,0,0,0,0,0,0,0,0,0,0,
0,0,0,0,0,0,0,0,0,0,0,0,0,0,0,0,0,0,0,0,0,0,0,0,0,0,0,0,0,0,0,0,0,0,0,0,0,0,0,0,0,0,0,0,0,0,0,0,0,0,0,0,0,0,0,0,0,0,0,0,0,0,0,0,0,0,0,0,0,0,0,0,0,0,0,
0,0,0,0,0,0,0,0,0,0,0,0,0,0,0,0,0,0,0,0,0,0,0,0,0,0,0,0,0,0,0,0,0,0,0,0,0,0,0,0,0,0,0,0,0,0,0,0,0,0,0,0,0,0,0,0,0,0,0,0,0,0,0,0,0,0,0,0,0,0,0,0,0,0,0,
0,0,0,0,0,0,0,0,0,0,0,0,0,0,0,0,0,0,0,0,0,0,0,0,0,0,0,0,0,0,0,0,0,0,0,0,0,0,0,0,0,0,0,0,0,0,0,0,0,0,0,0,0,0,0,0,0,0,0,0,0,0,0,0,0,0,0,0,0,0,0,0,0,0,0,
0,0,0,0,0,0,0,0,0,0,0,0,0,0,0,0,0,0,0,0,0,0,0,0,0,0,0,0,0,0,0,0,0,0,0,0,0,0,0,0,0,0,0,0,0,0,0,0,0,0,0,0,0,0,0,0,0,0,0,0,0,0,0,0,0,0,0,0,0,0,0,0,0,0,0,
0,0,0,0,0,0,0,0,0,0,0,0,0,0,0,0,0,0,0,0,0,0,0,0,0,0,0,0,0,0,0,0,0,0,0,0,0,0,0,0,0,0,0,0,0,0,0,0,0,0,0,0,0,0,0,0,0,0,0,0,0,0,0,0,0,0,0,0,0,0,0,0,0,0,0,
0,0,0,0,0,0,0,0,0,0,0,0,0,0,0,0,0,0,0,0,0,0,0,0,0,0,0,0,0,0,3627,3628,3629,3630,3631,3632,0,0,0,0,0,0,0,0,0,0,0,0,0,0,0,0,0,0,0,0,0,0,0,0,0,0,0,0,0,0,0,0,0,3627,3628,3629,3630,3631,3632,
0,0,0,0,0,0,0,0,0,0,0,0,0,0,0,0,0,0,0,0,0,0,0,0,0,0,0,0,0,0,3659,3660,3661,3662,3663,3664,0,0,0,0,0,0,0,0,0,0,0,0,0,0,0,0,0,0,0,0,0,0,0,0,0,0,0,0,0,0,0,0,0,3659,3660,3661,3662,3663,3664,
0,0,0,0,0,0,0,0,0,0,0,0,0,0,0,0,0,0,0,0,0,0,0,0,0,0,0,0,0,0,3691,3692,3693,3694,3695,3696,0,0,0,0,0,0,0,0,0,0,0,0,0,0,0,0,0,0,0,0,0,0,0,0,0,0,0,0,0,0,0,0,0,3691,3692,3693,3694,3695,3696,
0,0,0,0,0,0,0,0,0,0,0,0,0,0,0,0,0,0,0,0,0,0,0,0,0,0,0,0,0,0,3723,3724,3725,3726,3727,3728,0,0,0,0,0,0,0,0,0,0,0,0,0,0,0,0,0,0,0,0,0,0,0,0,0,0,0,0,0,0,0,0,0,3723,3724,3725,3726,3727,3728,
0,0,0,0,0,0,0,0,0,0,0,0,0,0,0,0,0,0,0,0,0,0,0,0,0,0,0,0,0,0,3755,3756,3757,3758,3759,3760,0,0,0,0,0,0,0,0,0,0,0,0,0,0,0,0,0,0,0,0,0,0,0,0,0,0,0,0,0,0,0,0,0,3755,3756,3757,3758,3759,3760,
0,0,0,0,0,0,0,0,0,0,0,0,0,0,0,0,0,0,0,0,0,0,0,0,0,0,0,0,0,0,3787,3788,3789,3790,3791,3792,0,0,0,0,0,0,0,0,0,0,0,0,0,0,0,0,0,0,0,0,0,0,0,0,0,0,0,0,0,0,0,0,0,3787,3788,3789,3790,3791,3792,
0,0,0,0,0,0,0,0,0,0,0,0,0,0,0,0,0,0,0,0,0,0,0,0,0,0,0,0,0,0,3819,3820,3821,3822,3823,3824,0,0,0,0,0,0,0,0,0,0,0,0,0,0,0,0,0,0,0,0,0,0,0,0,0,0,0,0,0,0,0,0,0,3819,3820,3821,3822,3823,3824,
0,0,0,0,0,0,0,0,0,0,0,0,0,0,0,0,0,0,0,0,0,0,0,0,0,0,0,0,0,0,3851,3852,0,0,3855,3856,0,0,0,0,0,0,0,0,0,0,0,0,0,0,0,0,0,0,0,0,0,0,0,0,0,0,0,0,0,0,0,0,0,3851,3852,0,0,3855,3856,
0,0,0,0,0,0,0,0,0,0,0,0,0,0,0,0,0,0,0,0,0,0,0,0,0,0,0,0,0,0,3883,3884,0,0,0,0,0,0,0,0,0,0,0,0,0,0,0,0,0,0,0,0,0,0,0,0,0,0,0,0,0,0,0,0,0,0,0,0,0,3883,3884,0,0,3887,3888,
0,0,0,0,3586,3587,3588,3589,3590,3591,3592,3593,0,0,0,0,0,0,0,0,0,0,0,0,0,0,0,0,0,0,0,0,0,0,0,0,0,0,0,0,0,0,0,0,0,0,0,0,0,0,0,0,0,0,0,0,0,0,0,0,0,0,0,0,0,0,0,0,0,0,0,0,0,0,0,
0,0,0,0,3618,3619,3620,3621,3622,3623,3624,3625,0,0,0,0,0,0,0,0,0,0,0,0,0,0,0,0,0,0,0,0,0,0,0,0,0,0,0,0,0,0,0,0,0,0,0,0,0,0,0,0,0,0,0,0,0,0,0,0,0,0,0,0,0,0,0,0,0,0,0,0,0,0,0,
0,0,0,0,3650,3651,3652,3653,3654,3655,3656,3657,0,0,0,0,0,0,0,0,0,0,0,0,0,0,0,0,0,0,0,0,0,0,0,0,0,0,0,0,0,0,0,0,0,0,0,0,0,0,0,0,0,0,0,0,0,0,0,0,0,0,0,0,0,0,0,0,0,0,0,0,0,0,0,
0,0,0,0,3682,3683,3684,3685,3686,3687,3688,3689,0,0,0,0,0,0,0,0,0,0,0,0,0,0,0,0,0,0,0,0,0,0,0,0,0,0,0,0,0,0,0,0,0,0,0,0,0,0,0,0,0,0,0,0,0,0,0,0,0,0,0,0,0,0,0,0,0,0,0,0,0,0,0,
0,0,0,0,3714,3715,3716,3717,3718,3719,3720,3721,0,0,0,0,0,0,0,0,0,0,0,0,0,0,0,0,0,0,0,0,0,0,0,0,0,0,0,0,0,0,0,0,0,0,0,0,0,0,0,0,0,0,0,0,0,0,0,0,0,0,0,0,0,0,0,0,0,0,0,0,0,0,0,
0,0,0,0,3746,3747,3748,3749,3750,3751,3752,3753,0,0,0,0,0,0,0,0,0,0,0,0,0,0,0,0,0,0,0,0,0,0,0,0,0,0,0,0,0,0,0,0,0,0,0,0,0,0,0,0,0,0,0,0,0,0,0,0,0,0,0,0,0,0,0,0,0,3635,3636,3637,3638,3639,3640,
0,0,0,0,3778,3779,3780,3781,3782,3783,3784,3785,0,0,0,0,0,0,0,0,0,0,0,0,0,0,0,3635,3636,3637,3638,3639,3640,0,0,0,0,0,0,0,0,0,0,0,0,0,0,0,0,0,0,0,0,0,0,0,0,0,0,0,0,0,0,0,0,0,0,0,0,3667,3668,3669,3670,3671,3672,
0,0,0,0,3810,3811,3812,3813,3814,3815,3816,3817,0,0,0,0,0,0,0,0,0,0,0,0,0,0,0,3667,3668,3669,3670,3671,3672,0,0,0,0,0,0,0,0,0,0,0,0,0,0,0,0,0,0,0,0,0,0,0,0,0,0,0,0,0,0,0,0,0,0,0,0,3699,3700,3701,3702,3703,3704,
0,0,0,0,3842,3843,3844,0,0,3847,3848,3849,0,0,0,0,0,0,0,0,0,0,0,0,0,0,0,3699,3700,3701,3702,3703,3704,0,0,0,0,0,0,0,0,0,0,0,0,0,0,0,0,0,0,0,0,0,0,0,0,0,0,0,0,0,0,0,0,0,0,0,0,3731,3732,3733,3734,3735,3736,
0,0,0,0,3874,3875,3876,0,0,3879,3880,3881,0,0,0,0,0,0,0,0,0,0,0,0,0,0,0,3731,3732,3733,3734,3735,3736,0,0,0,0,0,0,0,0,0,0,0,0,0,0,0,0,0,0,0,0,0,0,0,0,0,0,0,0,0,0,0,0,0,0,0,0,3763,3764,3765,3766,3767,3768,
0,0,0,0,0,0,0,0,0,0,0,0,0,0,0,0,0,0,0,0,0,0,0,0,0,0,0,3763,3764,3765,3766,3767,3768,0,0,0,0,0,0,0,0,0,0,0,0,0,0,0,0,0,0,0,0,0,0,0,0,0,0,0,0,0,0,0,0,0,0,0,0,3795,3796,3797,3798,3799,3800,
0,0,0,0,0,0,0,0,0,0,0,0,0,0,0,0,0,0,0,0,0,0,0,0,0,0,0,3795,3796,3797,3798,3799,3800,0,0,0,0,0,0,0,0,0,0,0,0,0,0,0,0,0,0,0,0,0,0,0,0,0,0,0,0,0,0,0,0,0,0,0,0,3827,3828,3829,3830,3831,3832,
0,0,0,0,0,0,0,0,0,0,0,0,0,0,0,0,0,0,0,0,0,0,0,3950,3951,3952,3953,3827,3828,3829,3830,3831,3832,0,0,0,0,0,0,0,0,0,0,0,0,0,0,0,0,0,0,0,0,0,0,0,0,0,0,0,0,0,0,0,0,0,0,0,0,3859,3860,0,0,3863,3864,
0,0,0,0,0,0,0,0,0,0,0,0,0,0,0,0,0,0,0,0,0,0,0,3982,3983,3984,3985,3859,3860,0,0,3863,3864,0,0,0,0,0,0,0,0,0,0,0,0,0,0,0,0,0,0,0,0,0,0,0,0,0,0,0,0,0,0,0,0,0,0,0,0,3891,3892,0,0,3895,3896,
0,0,0,0,0,0,0,0,0,0,0,0,0,0,0,0,0,0,0,0,0,0,0,4014,4015,4016,4017,3891,3892,0,0,3895,3896,0,0,0,0,0,0,0,0,0,0,0,0,0,0,0,0,0,0,0,0,0,0,0,0,0,0,0,0,0,0,0,0,0,0,0,0,0,0,0,0,0,0,
0,0,0,0,0,0,0,0,0,0,0,0,0,0,0,0,0,0,0,0,0,0,0,4046,4047,4048,4049,0,0,0,0,0,0,0,0,0,0,0,0,0,0,0,0,0,0,0,0,0,0,0,0,0,0,0,0,0,0,0,0,0,0,0,0,0,0,0,0,0,0,0,0,0,0,0,0,
0,0,0,0,0,0,0,0,0,0,0,0,0,0,0,0,0,0,0,0,0,0,0,0,0,0,0,0,0,0,0,0,0,0,0,0,0,0,0,0,0,0,0,0,0,0,0,0,0,0,0,0,0,0,0,0,0,0,0,0,0,0,0,0,0,0,0,0,0,0,0,0,0,0,0
</data>
 </layer>
</map>
