<?xml version="1.0" encoding="UTF-8"?>
<map version="1.10" tiledversion="1.11.2" orientation="orthogonal" renderorder="right-down" width="50" height="50" tilewidth="32" tileheight="32" infinite="0" nextlayerid="4" nextobjectid="198">
 <tileset firstgid="1" source="musicMap.tsx"/>
 <tileset firstgid="1026" name="onTop2" tilewidth="32" tileheight="32" tilecount="1025" columns="41">
  <image source="onTop2.png" width="1312" height="815"/>
 </tileset>
 <layer id="1" name="ground" width="50" height="50">
  <data encoding="csv">
945,946,947,948,949,950,944,945,946,947,948,949,950,985,944,945,946,947,948,944,945,946,947,948,949,944,945,946,947,948,949,950,944,944,945,946,947,948,949,950,944,985,944,944,945,946,947,948,949,950,
944,945,946,947,948,944,944,944,945,946,947,948,949,985,944,945,946,947,944,944,945,946,947,948,944,944,944,945,946,947,948,949,985,944,945,946,947,948,949,950,985,985,985,944,945,946,947,948,949,950,
985,944,945,946,947,985,985,944,945,946,947,948,944,985,944,945,946,947,985,985,944,945,946,947,985,985,944,945,946,947,948,944,985,944,945,946,947,948,949,950,951,985,986,985,986,987,988,989,990,991,
986,985,944,944,945,985,986,944,945,946,947,948,985,986,944,945,946,944,985,986,944,944,945,946,985,986,944,945,946,947,948,985,986,985,944,945,946,947,948,949,950,985,985,986,987,988,989,990,991,992,
986,987,985,944,945,985,986,944,945,946,947,944,985,986,944,945,946,985,985,986,985,944,945,946,985,986,944,944,945,946,947,985,986,987,944,944,945,946,947,948,949,950,985,986,987,988,989,990,991,992,
985,986,987,944,944,985,986,944,945,946,947,985,986,987,944,944,944,985,986,987,988,944,945,946,985,986,985,944,945,946,944,985,986,987,985,944,944,945,946,947,948,949,985,986,987,988,989,990,991,992,
985,986,987,985,985,985,986,944,944,945,944,985,986,987,985,944,985,985,986,987,988,944,944,945,985,986,987,944,945,944,985,986,987,988,989,985,944,945,946,947,948,949,985,985,986,987,988,989,990,991,
946,947,985,986,985,986,987,985,944,945,985,985,986,987,988,944,985,986,987,988,989,985,944,944,985,986,987,944,944,985,985,986,987,988,989,990,944,945,946,947,948,949,950,985,986,987,988,989,990,991,
944,944,944,985,986,987,988,989,944,944,985,986,987,988,989,944,985,986,987,988,989,990,985,944,985,986,987,985,944,985,986,987,988,989,990,991,944,945,946,947,948,949,950,985,986,987,988,989,990,991,
985,985,985,944,985,986,987,988,944,985,985,986,987,988,989,944,985,986,987,988,989,990,991,985,985,986,987,988,985,944,985,986,987,988,989,990,944,945,946,947,948,949,950,985,986,987,988,989,990,991,
946,947,948,985,985,986,987,988,985,985,986,987,988,989,990,944,985,986,987,988,989,990,991,992,985,986,987,988,989,985,985,986,987,988,989,990,985,986,987,988,989,990,991,985,985,986,987,988,989,990,
944,944,944,944,944,944,944,944,944,945,944,944,944,944,944,985,985,986,987,988,989,990,991,992,986,987,988,944,945,946,947,948,944,945,946,944,945,946,947,948,944,945,944,944,945,946,944,945,946,947,
985,985,985,985,985,985,985,985,985,986,985,985,985,985,985,986,987,988,989,990,985,985,985,986,987,988,989,985,986,987,988,989,985,986,987,985,986,987,988,989,985,986,985,985,986,987,944,945,946,947,
988,989,990,991,992,1,2,3,4,5,6,7,8,9,10,11,12,13,14,15,16,17,18,19,20,21,22,23,24,25,26,27,28,29,30,31,32,33,34,35,36,37,38,39,40,41,944,945,946,947,
988,989,990,991,992,42,43,44,45,46,47,48,49,50,51,52,53,54,55,56,57,58,59,60,61,62,63,64,65,66,67,68,69,70,71,72,73,74,75,76,77,78,79,80,81,82,944,945,946,947,
988,989,990,991,992,83,84,85,86,87,88,89,90,91,92,93,94,95,96,97,98,99,100,101,102,103,104,105,106,107,108,109,110,111,112,113,114,115,116,117,118,119,120,121,122,123,944,945,946,947,
988,989,990,991,992,124,125,126,127,128,129,130,131,132,133,134,135,136,137,138,139,140,141,142,143,144,145,146,147,148,149,150,151,152,153,154,155,156,157,158,159,160,161,162,163,164,944,945,946,947,
988,989,990,991,992,165,166,167,168,169,170,171,172,173,174,175,176,177,178,179,180,181,182,183,184,185,186,187,188,189,190,191,192,193,194,195,196,197,198,199,200,201,202,203,204,205,944,945,946,947,
988,989,990,991,992,206,207,208,209,210,211,212,213,214,215,216,217,218,219,220,221,222,223,224,225,226,227,228,229,230,231,232,233,234,235,236,237,238,239,240,241,242,243,244,245,246,944,945,946,947,
947,948,949,950,951,247,248,249,250,251,252,253,254,255,256,257,258,259,260,261,262,263,264,265,266,267,268,269,270,271,272,273,274,275,276,277,278,279,280,281,282,283,284,285,286,287,944,945,946,947,
988,989,990,991,992,288,289,290,291,292,293,294,295,296,297,298,299,300,301,302,303,304,305,306,307,308,309,310,311,312,313,314,315,316,317,318,319,320,321,322,323,324,325,326,327,328,944,945,946,947,
947,948,949,950,951,329,330,331,332,333,334,335,336,337,338,339,340,341,342,343,344,345,346,347,348,349,350,351,352,353,354,355,356,357,358,359,360,361,362,363,364,365,366,367,368,369,944,945,946,947,
947,948,949,950,951,370,371,372,373,374,375,376,377,378,379,380,381,382,383,384,385,386,387,388,389,390,391,392,393,394,395,396,397,398,399,400,401,402,403,404,405,406,407,408,409,410,944,945,946,947,
988,989,990,991,992,411,412,413,414,415,416,417,418,419,420,421,422,423,424,425,426,427,428,429,430,431,432,433,434,435,436,437,438,439,440,441,442,443,444,445,446,447,448,449,450,451,985,986,987,988,
988,989,990,991,992,452,453,454,455,456,457,458,459,460,461,462,463,464,465,466,467,468,469,470,471,472,473,474,475,476,477,478,479,480,481,482,483,484,485,486,487,488,489,490,491,492,985,986,987,988,
988,989,990,991,992,493,494,495,496,497,498,499,500,501,502,503,504,505,506,507,508,509,510,511,512,513,514,515,516,517,518,519,520,521,522,523,524,525,526,527,528,529,530,531,532,533,985,986,987,988,
947,948,949,950,951,534,535,536,537,538,539,540,541,542,543,544,545,546,547,548,549,550,551,552,553,554,555,556,557,558,559,560,561,562,563,564,565,566,567,568,569,570,571,572,573,574,944,945,946,947,
988,989,990,991,992,575,576,577,578,579,580,581,582,583,584,585,586,587,588,589,590,591,592,593,594,595,596,597,598,599,600,601,602,603,604,605,606,607,608,609,610,611,612,613,614,615,985,986,987,988,
947,948,949,950,951,616,617,618,619,620,621,622,623,624,625,626,627,628,629,630,631,632,633,634,635,636,637,638,639,640,641,642,643,644,645,646,647,648,649,650,651,652,653,654,655,656,944,945,946,947,
988,989,990,991,992,657,658,659,660,661,662,663,664,665,666,667,668,669,670,671,672,673,674,675,676,677,678,679,680,681,682,683,684,685,686,687,688,689,690,691,692,693,694,695,696,697,985,986,987,988,
947,948,949,950,951,698,699,700,701,702,703,704,705,706,707,708,709,710,711,712,713,714,715,716,717,718,719,720,721,722,723,724,725,726,727,728,729,730,731,732,733,734,735,736,737,738,944,945,946,947,
988,989,990,991,992,739,740,741,742,743,744,745,746,747,748,749,750,751,752,753,754,755,756,757,758,759,760,761,762,763,764,765,766,767,768,769,770,771,772,773,774,775,776,777,778,779,944,945,946,947,
988,989,990,991,992,780,781,782,783,784,785,786,787,788,789,790,791,792,793,794,795,796,797,798,799,800,801,802,803,804,805,806,807,808,809,810,811,812,813,814,815,816,817,818,819,820,944,945,946,947,
988,989,990,991,992,821,822,823,824,825,826,827,828,829,830,831,832,833,834,835,836,837,838,839,840,841,842,843,844,845,846,847,848,849,850,851,852,853,854,855,856,857,858,859,860,861,944,945,946,947,
988,989,990,991,992,862,863,864,865,866,867,868,869,870,871,872,873,874,875,876,877,878,879,880,881,882,883,884,885,886,887,888,889,890,891,892,893,894,895,896,897,898,899,900,901,902,944,945,946,947,
988,989,990,991,992,903,904,905,906,907,908,909,910,911,912,913,914,915,916,917,918,919,920,921,922,923,924,925,926,927,928,929,930,931,932,933,934,935,936,937,938,939,940,941,942,943,944,945,946,947,
988,989,990,991,992,944,945,946,947,948,949,950,951,952,953,954,955,956,957,958,959,960,961,962,963,964,965,966,967,968,969,970,971,972,973,974,975,976,977,978,979,980,981,982,983,944,945,946,947,948,
988,989,990,991,992,985,986,987,988,989,990,991,992,993,994,995,996,997,998,999,1000,1001,1002,1003,1004,1005,1006,1007,1008,1009,1010,1011,1012,1013,1014,1015,1016,1017,1018,1019,1020,1021,1022,1023,1024,944,945,946,947,948,
988,989,990,991,992,947,944,945,946,947,948,944,945,946,947,944,945,946,944,945,946,944,945,944,945,946,947,948,949,950,951,945,946,947,948,949,950,951,949,950,951,946,947,948,949,944,945,946,947,948,
988,989,990,991,992,945,946,947,948,949,950,951,986,944,945,946,947,948,949,950,951,985,986,985,986,987,988,989,990,991,992,986,987,988,989,990,991,992,990,991,992,987,988,989,990,944,945,946,947,948,
988,989,990,991,992,944,945,946,947,948,944,944,944,944,944,944,944,944,944,944,944,944,944,944,944,944,944,944,944,944,944,944,944,944,945,946,947,944,944,945,946,947,948,949,950,944,945,946,947,948,
988,989,990,991,992,944,945,944,944,945,946,947,948,949,950,951,951,944,944,944,944,944,944,944,944,945,946,947,948,949,950,951,985,944,944,944,944,944,945,946,947,948,949,950,951,944,945,946,947,948,
988,989,990,991,992,944,945,985,944,944,944,944,944,944,944,944,944,985,985,985,985,985,985,985,944,944,944,945,946,947,948,949,950,951,951,951,951,951,951,951,951,944,945,946,947,948,949,950,951,951,
988,989,990,991,992,944,945,985,985,985,985,985,985,985,985,985,985,985,986,987,988,989,990,991,985,985,944,944,945,946,947,948,949,950,951,992,992,992,992,992,992,985,986,987,988,989,990,991,992,992,
988,989,990,991,992,944,944,985,986,987,988,989,990,991,985,986,987,988,989,990,991,992,992,992,992,944,945,946,947,948,949,950,951,951,944,944,944,944,944,944,944,944,944,985,986,987,988,989,990,991,
988,989,990,991,992,944,985,985,986,987,988,944,944,944,944,944,944,944,944,944,945,946,947,948,949,950,951,951,951,951,951,951,992,992,985,985,985,985,985,985,985,985,985,944,944,944,945,946,947,948,
988,989,990,991,992,946,947,948,949,950,951,985,985,985,985,985,985,985,985,985,944,944,944,944,944,944,944,944,944,944,944,944,944,944,944,985,986,987,988,989,990,991,992,985,944,945,946,947,948,949,
988,989,990,991,992,951,951,951,951,950,951,951,951,951,951,951,951,951,951,951,951,951,951,951,951,950,951,945,946,947,948,949,950,951,951,951,951,951,951,951,951,951,951,951,944,945,946,947,948,949,
988,989,990,991,992,992,992,992,992,951,951,951,992,992,992,992,992,992,992,992,992,992,992,992,992,951,951,946,947,948,944,945,946,947,948,949,950,951,951,992,992,992,992,992,951,951,951,948,949,950,
988,989,990,991,992,988,989,990,991,992,992,992,985,985,985,985,985,985,985,986,987,988,989,990,991,992,992,951,951,951,951,951,951,951,951,951,951,992,992,951,988,989,990,991,992,992,992,951,951,951
</data>
 </layer>
 <objectgroup id="2" name="obj">
  <object id="3" type="obj" x="204.333" y="1119.33" width="251" height="32"/>
  <object id="4" type="obj" x="190.667" y="986" width="92.6667" height="29.6667"/>
  <object id="5" type="obj" x="321" y="988.333" width="100" height="27"/>
  <object id="6" type="obj" x="499.333" y="933.333" width="157.333" height="35"/>
  <object id="7" type="obj" x="485.333" y="932" width="14.6667" height="29"/>
  <object id="8" type="obj" x="466.333" y="932" width="20" height="16"/>
  <object id="9" type="obj" x="441.667" y="927.667" width="27" height="10.6667"/>
  <object id="12" type="obj" x="415.667" y="927" width="30.6667" height="8"/>
  <object id="17" type="obj" x="981.333" y="931" width="162" height="30"/>
  <object id="18" type="obj" x="1143.33" y="929.333" width="17.6667" height="26"/>
  <object id="19" type="obj" x="1160.67" y="929.333" width="23" height="14"/>
  <object id="20" type="obj" x="1183" y="928" width="42" height="6.66667"/>
  <object id="21" type="obj" x="1181" y="1117.33" width="266.333" height="33"/>
  <object id="22" type="obj" x="1221.67" y="987.333" width="95" height="29.6667"/>
  <object id="23" type="obj" x="1357.67" y="983.667" width="81.3333" height="34.3333"/>
  <object id="24" type="obj" x="1264.33" y="556.333" width="133.333" height="20.6667"/>
  <object id="25" type="obj" x="1188.33" y="496.333" width="9.33333" height="13.3333"/>
  <object id="26" type="obj" x="1197.33" y="511.667" width="16.3333" height="6"/>
  <object id="27" type="obj" x="1214" y="518" width="17" height="14"/>
  <object id="28" type="obj" x="1231.67" y="532.667" width="16.3333" height="10"/>
  <object id="29" type="obj" x="1248.67" y="544.333" width="13" height="9.66667"/>
  <object id="30" type="obj" x="1249.33" y="559.667" width="11.6667" height="13"/>
  <object id="31" type="obj" x="1104.67" y="486" width="84.3333" height="53"/>
  <object id="32" type="obj" x="1184.33" y="520.333" width="29" height="33.3333"/>
  <object id="33" type="obj" x="1218.33" y="541" width="16.6667" height="22.3333"/>
  <object id="34" type="obj" x="1114" y="582.667" width="27.6667" height="32"/>
  <object id="35" type="obj" x="1113.67" y="652" width="26.3333" height="30.6667"/>
  <object id="36" type="obj" x="1113.33" y="784.667" width="27.6667" height="31.6667"/>
  <object id="37" type="obj" x="1114" y="854.667" width="25.3333" height="31"/>
  <object id="39" type="obj" x="1124.33" y="847" width="4.66667" height="18"/>
  <object id="40" type="obj" x="1123.33" y="778.667" width="6.33333" height="17"/>
  <object id="41" type="obj" x="1125.33" y="645" width="4" height="19.3333"/>
  <object id="42" type="obj" x="1124.33" y="579" width="5.33333" height="14.3333"/>
  <object id="43" type="obj" x="997.333" y="1152.67" width="196" height="56.6667"/>
  <object id="44" type="obj" x="910" y="1162" width="102.667" height="47.3333"/>
  <object id="45" type="obj" x="941.333" y="1154" width="35.3333" height="12.6667"/>
  <object id="46" type="obj" x="718" y="1182.67" width="202.667" height="37.3333"/>
  <object id="47" type="obj" x="436" y="1161.33" width="284.667" height="50"/>
  <object id="48" type="obj" x="660" y="1150.67" width="34" height="19.3333"/>
  <object id="49" type="obj" x="452.667" y="1128.67" width="50.6667" height="53.3333"/>
  <object id="50" type="obj" x="454.667" y="1099.33" width="28.6667" height="28.6667"/>
  <object id="51" type="obj" x="503" y="1151" width="138.667" height="12.6667"/>
  <object id="52" type="obj" x="996.667" y="1142" width="194.667" height="13.3333"/>
  <object id="53" type="obj" x="1156" y="1108.67" width="38" height="52.6667"/>
  <object id="54" type="obj" x="1127.33" y="1131.33" width="36.6667" height="12.6667"/>
  <object id="55" type="obj" x="770" y="1072.67" width="92" height="67.3333">
   <ellipse/>
  </object>
  <object id="57" type="obj" x="190" y="1009.33" width="43.3333" height="144"/>
  <object id="58" type="obj" x="194.667" y="782" width="10" height="240.667"/>
  <object id="60" type="obj" x="206" y="879.333" width="28.6667" height="66.6667"/>
  <object id="61" type="obj" x="187.333" y="435.333" width="20" height="360.667"/>
  <object id="62" type="obj" x="240" y="544" width="16.6667" height="309.333"/>
  <object id="63" type="obj" x="252.667" y="559.333" width="99.3333" height="56"/>
  <object id="64" type="obj" x="353.333" y="560" width="21.3333" height="32"/>
  <object id="65" type="obj" x="371.333" y="556" width="16.6667" height="11.3333"/>
  <object id="66" type="obj" x="385.333" y="548" width="15.3333" height="6.66667"/>
  <object id="67" type="obj" x="400" y="537.333" width="9.33333" height="11.3333"/>
  <object id="68" type="obj" x="411.333" y="528.667" width="9.33333" height="10"/>
  <object id="69" type="obj" x="420" y="520" width="16.6667" height="9.33333"/>
  <object id="70" type="obj" x="434" y="512.667" width="26.6667" height="38.6667"/>
  <object id="71" type="obj" x="451.333" y="499.333" width="83.3333" height="36.6667"/>
  <object id="73" type="obj" x="524" y="515.333" width="12.6667" height="417.333"/>
  <object id="74" type="obj" x="497.333" y="583.333" width="32" height="33.3333"/>
  <object id="75" type="obj" x="498" y="652.667" width="26.6667" height="32.6667"/>
  <object id="76" type="obj" x="500" y="782" width="23.3333" height="36.6667"/>
  <object id="77" type="obj" x="498.667" y="854" width="25.3333" height="32.6667"/>
  <object id="78" type="obj" x="508.667" y="646" width="8" height="19.3333"/>
  <object id="79" type="obj" x="508.667" y="578" width="7.33333" height="18"/>
  <object id="80" type="obj" x="509.333" y="778.667" width="5.33333" height="16"/>
  <object id="82" type="obj" x="507.333" y="846.667" width="9.33333" height="21.3333"/>
  <object id="85" type="obj" x="421" y="731.667" width="11.6667" height="23.6667"/>
  <object id="86" type="obj" x="414.667" y="735.333" width="9.33333" height="17.3333"/>
  <object id="87" type="obj" x="425" y="725.333" width="4" height="12.3333"/>
  <object id="88" type="obj" x="321" y="670" width="93" height="31"/>
  <object id="89" type="obj" x="379" y="693" width="35" height="146"/>
  <object id="90" type="obj" x="404" y="835" width="12" height="100"/>
  <object id="91" type="obj" x="323" y="697" width="16" height="294"/>
  <object id="92" type="obj" x="200" y="457" width="45" height="43"/>
  <object id="93" type="obj" x="243" y="459" width="87" height="45"/>
  <object id="95" type="obj" x="332" y="469" width="48" height="23"/>
  <object id="96" type="obj" x="406" y="466" width="11" height="18"/>
  <object id="97" type="obj" x="374" y="461" width="92" height="21"/>
  <object id="98" type="obj" x="443" y="472" width="31" height="26"/>
  <object id="99" type="obj" x="418" y="984" width="15" height="31"/>
  <object id="100" type="obj" x="435" y="997" width="9" height="27"/>
  <object id="102" type="obj" x="443.5" y="1005.5" width="9" height="20"/>
  <object id="103" type="obj" x="443.75" y="1017.25" width="9.75" height="24.25"/>
  <object id="104" type="obj" x="448.5" y="1020" width="9.25" height="25.75"/>
  <object id="105" type="obj" x="449.25" y="1028.5" width="11" height="18.75"/>
  <object id="106" type="obj" x="448.25" y="934" width="17.5" height="7.75"/>
  <object id="107" type="obj" x="457.75" y="938.25" width="16.25" height="7.5"/>
  <object id="108" type="obj" x="468.5" y="946.25" width="14.75" height="8.25"/>
  <object id="109" type="obj" x="478" y="951.25" width="16.5" height="9"/>
  <object id="110" type="obj" x="489.5" y="960.25" width="12" height="8.5"/>
  <object id="111" type="obj" x="494.75" y="968.5" width="8.75" height="9.75"/>
  <object id="112" type="obj" x="503.25" y="971.25" width="3.5" height="14.75"/>
  <object id="113" type="obj" x="506.75" y="975.25" width="5" height="16"/>
  <object id="114" type="obj" x="511.5" y="980.25" width="4.75" height="12"/>
  <object id="115" type="obj" x="507.5" y="991.5" width="11.25" height="8"/>
  <object id="116" type="obj" x="509.75" y="999.5" width="13.25" height="6.75"/>
  <object id="117" type="obj" x="513" y="1004.75" width="13" height="5.5"/>
  <object id="118" type="obj" x="516.75" y="1010.75" width="11.5" height="8.5"/>
  <object id="119" type="obj" x="517.25" y="1016.5" width="15.25" height="31.75"/>
  <object id="120" type="obj" x="548" y="986" width="106" height="34"/>
  <object id="121" type="obj" x="637.333" y="961.333" width="18.6667" height="27.3333"/>
  <object id="122" type="obj" x="522.667" y="1002" width="34.6667" height="14.6667"/>
  <object id="123" type="obj" x="778" y="962" width="78.6667" height="58.6667"/>
  <object id="125" type="obj" x="1002" y="988" width="84" height="22.6667"/>
  <object id="126" type="obj" x="980.667" y="957.333" width="22.6667" height="54.6667"/>
  <object id="127" type="obj" x="1124.67" y="960.667" width="22.6667" height="23.3333"/>
  <object id="128" type="obj" x="1120.67" y="979.333" width="11.3333" height="17.3333"/>
  <object id="129" type="obj" x="1110.67" y="997.333" width="18" height="12"/>
  <object id="130" type="obj" x="1109.33" y="1012" width="12" height="22"/>
  <object id="131" type="obj" x="1106" y="1034" width="15.3333" height="11.3333"/>
  <object id="132" type="obj" x="1208" y="983.333" width="12.6667" height="31.3333"/>
  <object id="133" type="obj" x="1193.33" y="993.333" width="14" height="33.3333"/>
  <object id="134" type="obj" x="1188.67" y="1004" width="5.33333" height="26.6667"/>
  <object id="135" type="obj" x="1183.33" y="1017.33" width="4.66667" height="16.6667"/>
  <object id="136" type="obj" x="1179.33" y="1032" width="9.33333" height="13.3333"/>
  <object id="137" type="obj" x="567.333" y="678" width="6" height="50"/>
  <object id="138" type="obj" x="571.333" y="680" width="324.667" height="32"/>
  <object id="139" type="obj" x="892.667" y="678.667" width="174" height="37.3333"/>
  <object id="140" type="obj" x="1064.67" y="678.667" width="5.33333" height="56"/>
  <object id="141" type="obj" x="1104" y="528" width="8" height="404.667"/>
  <object id="143" type="obj" x="1222" y="656" width="12" height="274"/>
  <object id="144" type="obj" x="1304" y="654" width="13.3333" height="332"/>
  <object id="145" type="obj" x="1234" y="677.333" width="70.6667" height="26"/>
  <object id="146" type="obj" x="1233.33" y="671.333" width="75.3333" height="24"/>
  <object id="147" type="obj" x="1381.33" y="546.667" width="14.6667" height="310"/>
  <object id="148" type="obj" x="1425.33" y="436" width="14.6667" height="612"/>
  <object id="149" type="obj" x="1426" y="1046" width="20.6667" height="84"/>
  <object id="150" type="obj" x="1392" y="1022" width="44" height="95.3333"/>
  <object id="151" type="obj" x="1358.67" y="1014" width="34.6667" height="21.3333"/>
  <object id="152" type="obj" x="612.667" y="765.333" width="166.667" height="30"/>
  <object id="153" type="obj" x="860" y="766" width="166" height="28"/>
  <object id="154" type="obj" x="612.167" y="820" width="165.333" height="21.3333"/>
  <object id="155" type="obj" x="861.167" y="819.167" width="164" height="24.6667"/>
  <object id="156" type="obj" x="613.167" y="873" width="163.333" height="23.3333"/>
  <object id="158" type="obj" x="539.333" y="867.333" width="36.6667" height="44.6667"/>
  <object id="159" type="obj" x="550.667" y="858" width="29.3333" height="19.3333"/>
  <object id="160" type="obj" x="579.333" y="868" width="17.3333" height="46"/>
  <object id="161" type="obj" x="550.667" y="851.333" width="20.6667" height="11.3333"/>
  <object id="162" type="obj" x="544.667" y="828.667" width="28.6667" height="16.6667"/>
  <object id="163" type="obj" x="544" y="821.333" width="30.6667" height="11.3333"/>
  <object id="164" type="obj" x="1076" y="827.333" width="24" height="66"/>
  <object id="165" type="obj" x="1072" y="827.333" width="19.3333" height="16"/>
  <object id="166" type="obj" x="1078" y="817.333" width="7.33333" height="17.3333"/>
  <object id="167" type="obj" x="1072" y="842" width="4.66667" height="52"/>
  <object id="168" type="obj" x="1192.67" y="460" width="237.333" height="35.3333"/>
  <object id="169" type="obj" x="1414.67" y="510" width="9.33333" height="20"/>
  <object id="170" type="obj" x="205.333" y="512.667" width="12.6667" height="20"/>
  <object id="172" type="obj" x="524" y="488" width="588" height="87"/>
  <object id="173" type="obj" x="645" y="567" width="29" height="42"/>
  <object id="174" type="obj" x="987" y="578" width="74" height="43"/>
  <object id="175" type="obj" x="1073" y="598" width="27" height="44"/>
  <object id="176" type="obj" x="1065" y="597" width="16" height="33"/>
  <object id="177" type="obj" x="681" y="573" width="99" height="26"/>
  <object id="178" type="obj" x="689" y="601" width="15" height="40"/>
  <object id="179" type="obj" x="766" y="591" width="7" height="20"/>
  <object id="180" type="obj" x="717" y="595" width="26" height="28"/>
  <object id="181" type="obj" x="1006" y="956" width="38" height="38"/>
  <object id="182" type="obj" x="631.75" y="1161.25" width="90.25" height="28.5"/>
  <object id="183" name="player" x="573" y="1067">
   <point/>
  </object>
  <object id="184" name="player" x="1041.5" y="1067">
   <point/>
  </object>
  <object id="187" type="obj" x="859.5" y="871.5" width="164" height="23.5"/>
  <object id="188" type="obj" x="760.5" y="957" width="21" height="13"/>
  <object id="189" type="obj" x="857.5" y="956" width="20" height="15.5"/>
  <object id="190" type="obj" x="964.5" y="958" width="22" height="11.5"/>
  <object id="191" type="obj" x="654" y="959" width="20.5" height="12"/>
  <object id="192" type="obj" x="652.667" y="949.667" width="21.6667" height="15.3333"/>
  <object id="193" type="obj" x="756.333" y="950.333" width="26.3333" height="10"/>
  <object id="194" type="obj" x="855.333" y="948.333" width="25" height="13.3333"/>
  <object id="195" type="obj" x="956.667" y="949.667" width="33.3333" height="12"/>
  <object id="196" type="obj" x="500" y="1142.33" width="90.6667" height="9.66667"/>
  <object id="197" type="obj" x="1275.5" y="696" width="32.5" height="86"/>
 </objectgroup>
 <layer id="3" name="onTop" width="50" height="50">
  <data encoding="csv">
0,0,0,0,0,0,0,0,0,0,0,0,0,0,0,0,0,0,0,0,0,0,0,0,0,0,0,0,0,0,0,0,0,0,0,0,0,0,0,0,0,0,0,0,0,0,0,0,0,0,
0,0,0,0,0,0,0,0,0,0,0,0,0,0,0,0,0,0,0,0,0,0,0,0,0,0,0,0,0,0,0,0,0,0,0,0,0,0,0,0,0,0,0,0,0,0,0,0,0,0,
0,0,0,0,0,0,0,0,0,0,0,0,0,0,0,0,0,0,0,0,0,0,0,0,0,0,0,0,0,0,0,0,0,0,0,0,0,0,0,0,0,0,0,0,0,0,0,0,0,0,
0,0,0,0,0,0,0,0,0,0,0,0,0,0,0,0,0,0,0,0,0,0,0,0,0,0,0,0,0,0,0,0,0,0,0,0,0,0,0,0,0,0,0,0,0,0,0,0,0,0,
0,0,0,0,0,0,0,0,0,0,0,0,0,0,0,0,0,0,0,0,0,0,0,0,0,0,0,0,0,0,0,0,0,0,0,0,0,0,0,0,0,0,0,0,0,0,0,0,0,0,
0,0,0,0,0,0,0,0,0,0,0,0,0,0,0,0,0,0,0,0,0,0,0,0,0,0,0,0,0,0,0,0,0,0,0,0,0,0,0,0,0,0,0,0,0,0,0,0,0,0,
0,0,0,0,0,0,0,0,0,0,0,0,0,0,0,0,0,0,0,0,0,0,0,0,0,0,0,0,0,0,0,0,0,0,0,0,0,0,0,0,0,0,0,0,0,0,0,0,0,0,
0,0,0,0,0,0,0,0,0,0,0,0,0,0,0,0,0,0,0,0,0,0,0,0,0,0,0,0,0,0,0,0,0,0,0,0,0,0,0,0,0,0,0,0,0,0,0,0,0,0,
0,0,0,0,0,0,0,0,0,0,0,0,0,0,0,0,0,0,0,0,0,0,0,0,0,0,0,0,0,0,0,0,0,0,0,0,0,0,0,0,0,0,0,0,0,0,0,0,0,0,
0,0,0,0,0,0,0,0,0,0,0,0,0,0,0,0,0,0,0,0,0,0,0,0,0,0,0,0,0,0,0,0,0,0,0,0,0,0,0,0,0,0,0,0,0,0,0,0,0,0,
0,0,0,0,0,0,0,0,0,0,0,0,0,0,0,0,0,0,0,0,0,0,0,0,0,0,0,0,0,0,0,0,0,0,0,0,0,0,0,0,0,0,0,0,0,0,0,0,0,0,
0,0,0,0,0,0,0,0,0,0,0,0,0,0,0,0,0,0,0,0,0,0,0,0,0,0,0,0,0,0,0,0,0,0,0,0,0,0,0,0,0,0,0,0,0,0,0,0,0,0,
0,0,0,0,0,0,0,0,0,0,0,0,0,0,0,0,0,0,0,0,0,0,0,0,0,0,0,0,0,0,0,0,0,0,0,0,0,0,0,0,0,0,0,0,0,0,0,0,0,0,
0,0,0,0,0,1026,1027,1028,1029,1030,1031,1032,1033,1034,1035,1036,1037,1038,1039,1040,1041,1042,1043,1044,1045,1046,1047,1048,1049,1050,1051,1052,1053,1054,1055,1056,1057,1058,1059,1060,1061,1062,1063,1064,1065,1066,0,0,0,0,
0,0,0,0,0,1067,1068,1069,1070,1071,1072,1073,1074,1075,1076,1077,1078,1079,1080,1081,1082,1083,1084,1085,1086,1087,1088,1089,1090,1091,1092,1093,1094,1095,1096,1097,1098,1099,1100,1101,1102,1103,1104,1105,1106,1107,0,0,0,0,
0,0,0,0,0,1108,1109,1110,1111,1112,1113,1114,1115,1116,1117,1118,1119,1120,1121,1122,1123,1124,1125,1126,1127,1128,1129,1130,1131,1132,1133,1134,1135,1136,1137,1138,1139,1140,1141,1142,1143,1144,1145,1146,1147,1148,0,0,0,0,
0,0,0,0,0,1149,1150,1151,1152,1153,1154,1155,1156,1157,1158,1159,1160,1161,1162,1163,1164,1165,1166,1167,1168,1169,1170,1171,1172,1173,1174,1175,1176,1177,1178,1179,1180,1181,1182,1183,1184,1185,1186,1187,1188,1189,0,0,0,0,
0,0,0,0,0,1190,1191,1192,1193,1194,1195,1196,1197,1198,1199,1200,1201,1202,1203,1204,1205,1206,1207,1208,1209,1210,1211,1212,1213,1214,1215,1216,1217,1218,1219,1220,1221,1222,1223,1224,1225,1226,1227,1228,1229,1230,0,0,0,0,
0,0,0,0,0,1231,1232,1233,1234,1235,1236,1237,1238,1239,1240,1241,1242,1243,1244,1245,1246,1247,1248,1249,1250,1251,1252,1253,1254,1255,1256,1257,1258,1259,1260,1261,1262,1263,1264,1265,1266,1267,1268,1269,1270,1271,0,0,0,0,
0,0,0,0,0,1272,1273,1274,1275,1276,1277,1278,1279,1280,1281,1282,1283,1284,1285,1286,1287,1288,1289,1290,1291,1292,1293,1294,1295,1296,1297,1298,1299,1300,1301,1302,1303,1304,1305,1306,1307,1308,1309,1310,1311,1312,0,0,0,0,
0,0,0,0,0,1313,1314,1315,1316,1317,1318,1319,1320,1321,1322,1323,1324,1325,1326,1327,1328,1329,1330,1331,1332,1333,1334,1335,1336,1337,1338,1339,1340,1341,1342,1343,1344,1345,1346,1347,1348,1349,1350,1351,1352,1353,0,0,0,0,
0,0,0,0,0,1354,1355,1356,1357,1358,1359,1360,1361,1362,1363,1364,1365,1366,1367,1368,1369,1370,1371,1372,1373,1374,1375,1376,1377,1378,1379,1380,1381,1382,1383,1384,1385,1386,1387,1388,1389,1390,1391,1392,1393,1394,0,0,0,0,
0,0,0,0,0,1395,1396,1397,1398,1399,1400,1401,1402,1403,1404,1405,1406,1407,1408,1409,1410,1411,1412,1413,1414,1415,1416,1417,1418,1419,1420,1421,1422,1423,1424,1425,1426,1427,1428,1429,1430,1431,1432,1433,1434,1435,0,0,0,0,
0,0,0,0,0,1436,1437,1438,1439,1440,1441,1442,1443,1444,1445,1446,1447,1448,1449,1450,1451,1452,1453,1454,1455,1456,1457,1458,1459,1460,1461,1462,1463,1464,1465,1466,1467,1468,1469,1470,1471,1472,1473,1474,1475,1476,0,0,0,0,
0,0,0,0,0,1477,1478,1479,1480,1481,1482,1483,1484,1485,1486,1487,1488,1489,1490,1491,1492,1493,1494,1495,1496,1497,1498,1499,1500,1501,1502,1503,1504,1505,1506,1507,1508,1509,1510,1511,1512,1513,1514,1515,1516,1517,0,0,0,0,
0,0,0,0,0,1518,1519,1520,1521,1522,1523,1524,1525,1526,1527,1528,1529,1530,1531,1532,1533,1534,1535,1536,1537,1538,1539,1540,1541,1542,1543,1544,1545,1546,1547,1548,1549,1550,1551,1552,1553,1554,1555,1556,1557,1558,0,0,0,0,
0,0,0,0,0,1559,1560,1561,1562,1563,1564,1565,1566,1567,1568,1569,1570,1571,1572,1573,1574,1575,1576,1577,1578,1579,1580,1581,1582,0,0,0,1586,1587,1588,1589,1590,1591,1592,1593,1594,1595,1596,1597,1598,1599,0,0,0,0,
0,0,0,0,0,1600,1601,1602,1603,1604,1605,1606,1607,1608,1609,1610,1611,1612,1613,1614,1615,1616,1617,1618,1619,1620,1621,1622,1623,1624,1625,1626,1627,1628,1629,1630,1631,1632,1633,1634,1635,1636,1637,1638,1639,1640,0,0,0,0,
0,0,0,0,0,1641,1642,1643,1644,1645,1646,1647,1648,1649,1650,1651,1652,1653,1654,1655,1656,1657,1658,1659,1660,1661,1662,1663,1664,1665,1666,1667,1668,1669,1670,1671,1672,1673,1674,1675,1676,1677,1678,1679,1680,1681,0,0,0,0,
0,0,0,0,0,1682,1683,1684,1685,1686,1687,1688,1689,1690,1691,1692,1693,1694,1695,1696,1697,1698,1699,1700,1701,1702,1703,1704,1705,1706,1707,1708,1709,1710,1711,1712,1713,1714,1715,1716,1717,1718,1719,1720,1721,1722,0,0,0,0,
0,0,0,0,0,1723,1724,1725,1726,1727,1728,1729,1730,1731,1732,1733,1734,1735,1736,1737,1738,1739,1740,1741,1742,1743,1744,1745,1746,1747,1748,1749,1750,1751,1752,1753,1754,1755,1756,1757,1758,1759,1760,1761,1762,1763,0,0,0,0,
0,0,0,0,0,1764,1765,1766,1767,1768,1769,1770,1771,1772,1773,1774,1775,1776,1777,1778,1779,1780,1781,1782,1783,1784,1785,1786,1787,1788,1789,1790,1791,1792,1793,1794,1795,1796,1797,1798,1799,1800,1801,1802,1803,1804,0,0,0,0,
0,0,0,0,0,1805,1806,1807,1808,1809,1810,1811,1812,1813,1814,1815,1816,1817,1818,1819,1820,1821,1822,1823,1824,1825,1826,1827,1828,1829,1830,1831,1832,1833,1834,1835,1836,1837,1838,1839,1840,1841,1842,1843,1844,1845,0,0,0,0,
0,0,0,0,0,1846,1847,1848,1849,1850,1851,1852,1853,1854,1855,1856,1857,1858,1859,1860,1861,1862,1863,1864,1865,1866,1867,1868,1869,1870,1871,1872,1873,1874,1875,1876,1877,1878,1879,1880,1881,1882,1883,1884,1885,1886,0,0,0,0,
0,0,0,0,0,1887,1888,1889,1890,1891,1892,1893,1894,1895,1896,1897,1898,1899,1900,1901,1902,1903,1904,1905,1906,1907,1908,1909,1910,1911,1912,1913,1914,1915,1916,1917,1918,1919,1920,1921,1922,1923,1924,1925,1926,1927,0,0,0,0,
0,0,0,0,0,1928,1929,1930,1931,1932,1933,1934,1935,1936,1937,1938,1939,1940,1941,1942,1943,1944,1945,1946,1947,1948,1949,1950,1951,1952,1953,1954,1955,1956,1957,1958,1959,1960,1961,1962,1963,1964,1965,1966,1967,1968,0,0,0,0,
0,0,0,0,0,1969,1970,1971,1972,1973,1974,1975,1976,1977,1978,1979,1980,1981,1982,1983,1984,1985,1986,1987,1988,1989,1990,1991,1992,1993,1994,1995,1996,1997,1998,1999,2000,2001,2002,2003,2004,2005,2006,2007,2008,2009,0,0,0,0,
0,0,0,0,0,2010,2011,2012,2013,2014,2015,2016,2017,2018,2019,2020,2021,2022,2023,2024,2025,2026,2027,2028,2029,2030,2031,2032,2033,2034,2035,2036,2037,2038,2039,2040,2041,2042,2043,2044,2045,2046,2047,2048,2049,2050,0,0,0,0,
0,0,0,0,0,0,0,0,0,0,0,0,0,0,0,0,0,0,0,0,0,0,0,0,0,0,0,0,0,0,0,0,0,0,0,0,0,0,0,0,0,0,0,0,0,0,0,0,0,0,
0,0,0,0,0,0,0,0,0,0,0,0,0,0,0,0,0,0,0,0,0,0,0,0,0,0,0,0,0,0,0,0,0,0,0,0,0,0,0,0,0,0,0,0,0,0,0,0,0,0,
0,0,0,0,0,0,0,0,0,0,0,0,0,0,0,0,0,0,0,0,0,0,0,0,0,0,0,0,0,0,0,0,0,0,0,0,0,0,0,0,0,0,0,0,0,0,0,0,0,0,
0,0,0,0,0,0,0,0,0,0,0,0,0,0,0,0,0,0,0,0,0,0,0,0,0,0,0,0,0,0,0,0,0,0,0,0,0,0,0,0,0,0,0,0,0,0,0,0,0,0,
0,0,0,0,0,0,0,0,0,0,0,0,0,0,0,0,0,0,0,0,0,0,0,0,0,0,0,0,0,0,0,0,0,0,0,0,0,0,0,0,0,0,0,0,0,0,0,0,0,0,
0,0,0,0,0,0,0,0,0,0,0,0,0,0,0,0,0,0,0,0,0,0,0,0,0,0,0,0,0,0,0,0,0,0,0,0,0,0,0,0,0,0,0,0,0,0,0,0,0,0,
0,0,0,0,0,0,0,0,0,0,0,0,0,0,0,0,0,0,0,0,0,0,0,0,0,0,0,0,0,0,0,0,0,0,0,0,0,0,0,0,0,0,0,0,0,0,0,0,0,0,
0,0,0,0,0,0,0,0,0,0,0,0,0,0,0,0,0,0,0,0,0,0,0,0,0,0,0,0,0,0,0,0,0,0,0,0,0,0,0,0,0,0,0,0,0,0,0,0,0,0,
0,0,0,0,0,0,0,0,0,0,0,0,0,0,0,0,0,0,0,0,0,0,0,0,0,0,0,0,0,0,0,0,0,0,0,0,0,0,0,0,0,0,0,0,0,0,0,0,0,0,
0,0,0,0,0,0,0,0,0,0,0,0,0,0,0,0,0,0,0,0,0,0,0,0,0,0,0,0,0,0,0,0,0,0,0,0,0,0,0,0,0,0,0,0,0,0,0,0,0,0,
0,0,0,0,0,0,0,0,0,0,0,0,0,0,0,0,0,0,0,0,0,0,0,0,0,0,0,0,0,0,0,0,0,0,0,0,0,0,0,0,0,0,0,0,0,0,0,0,0,0,
0,0,0,0,0,0,0,0,0,0,0,0,0,0,0,0,0,0,0,0,0,0,0,0,0,0,0,0,0,0,0,0,0,0,0,0,0,0,0,0,0,0,0,0,0,0,0,0,0,0
</data>
 </layer>
</map>
