<?xml version="1.0" encoding="UTF-8"?>
<map version="1.10" tiledversion="1.11.2" orientation="orthogonal" renderorder="right-down" width="48" height="39" tilewidth="16" tileheight="16" infinite="0" nextlayerid="5" nextobjectid="30">
 <tileset firstgid="1" name="white textured ground" tilewidth="16" tileheight="16" tilecount="36" columns="6">
  <image source="tilsets/suka's work/pottery level/white textured ground.png" width="96" height="96"/>
 </tileset>
 <tileset firstgid="37" name="wall" tilewidth="16" tileheight="16" tilecount="18" columns="6">
  <image source="tilsets/suka's work/pottery level/wall.png" width="96" height="50"/>
 </tileset>
 <tileset firstgid="55" name="padestalfinal" tilewidth="16" tileheight="16" tilecount="2" columns="1">
  <image source="tilsets/suka's work/pottery level/padestalfinal.png" width="16" height="32"/>
 </tileset>
 <tileset firstgid="57" name="pixil-frame-0(2)" tilewidth="16" tileheight="16" tilecount="8" columns="2">
  <image source="../../Users/HP/Downloads/pixil-frame-0(2).png" width="32" height="64"/>
 </tileset>
 <layer id="1" name="Tile Layer 1" width="48" height="39">
  <data encoding="csv">
37,38,39,40,41,42,37,38,39,40,41,42,37,38,39,40,41,42,37,38,39,40,41,42,37,38,39,40,41,42,37,38,39,40,41,42,37,38,39,40,41,42,37,38,39,40,41,42,
43,44,45,46,47,48,43,44,45,46,47,48,43,44,45,46,47,48,43,44,45,46,47,48,43,44,45,46,47,48,43,44,45,46,47,48,43,44,45,46,47,48,43,44,45,46,47,48,
49,50,51,52,53,54,49,50,51,52,53,54,49,50,51,52,53,54,49,50,51,52,53,54,49,50,51,52,53,54,49,50,51,52,53,54,49,50,51,52,53,54,49,50,51,52,53,54,
1,2,3,4,5,6,1,2,3,4,5,6,1,2,3,4,5,6,1,2,3,4,5,6,1,2,3,4,5,6,1,2,3,4,5,6,1,2,3,4,5,6,1,2,3,4,5,6,
7,8,9,10,11,12,7,8,9,10,11,12,7,8,9,10,11,12,7,8,9,10,11,12,7,8,9,10,11,12,7,8,9,10,11,12,7,8,9,10,11,12,7,8,9,10,11,12,
13,14,15,16,17,18,13,14,15,16,17,18,13,14,15,16,17,18,13,14,15,16,17,18,13,14,15,16,17,18,13,14,15,16,17,18,13,14,15,16,17,18,13,14,15,16,17,18,
19,20,21,22,23,24,19,20,21,22,23,24,19,20,21,22,23,24,19,20,21,22,23,24,19,20,21,22,23,24,19,20,21,22,23,24,19,20,21,22,23,24,19,20,21,22,23,24,
25,26,27,28,29,30,25,26,27,28,29,30,25,26,27,28,29,30,25,26,27,28,29,30,25,26,27,28,29,30,25,26,27,28,29,30,25,26,27,28,29,30,25,26,27,28,29,30,
31,32,33,34,35,36,31,32,33,34,35,36,31,32,33,34,35,36,31,32,33,34,35,36,31,32,33,34,35,36,31,32,33,34,35,36,31,32,33,34,35,36,31,32,33,34,35,36,
1,2,3,4,5,6,1,2,3,4,5,6,1,2,3,4,5,6,1,2,3,4,5,6,1,2,3,4,5,6,1,2,3,4,5,6,1,2,3,4,5,6,1,2,3,4,5,6,
7,8,9,10,11,12,7,8,9,10,11,12,7,8,9,10,11,12,7,8,9,10,11,12,7,8,9,10,11,12,7,8,9,10,11,12,7,8,9,10,11,12,7,8,9,10,11,12,
13,14,15,16,17,18,13,14,15,16,17,18,13,14,15,16,17,18,13,14,15,16,17,18,13,14,15,16,17,18,13,14,15,16,17,18,13,14,15,16,17,18,13,14,15,16,17,18,
19,20,21,22,23,24,19,20,21,22,23,24,19,20,21,22,23,24,19,20,21,22,23,24,19,20,21,22,23,24,19,20,21,22,23,24,19,20,21,22,23,24,19,20,21,22,23,24,
25,26,27,28,29,30,25,26,27,28,29,30,25,26,27,28,29,30,25,26,27,28,29,30,25,26,27,28,29,30,25,26,27,28,29,30,25,26,27,28,29,30,25,26,27,28,29,30,
31,32,33,34,35,36,31,32,33,34,35,36,31,32,33,34,35,36,31,32,33,34,35,36,31,32,33,34,35,36,31,32,33,34,35,36,31,32,33,34,35,36,31,32,33,34,35,36,
1,2,3,4,5,6,1,2,3,4,5,6,1,2,3,4,5,6,1,2,3,4,5,6,1,2,3,4,5,6,1,2,3,4,5,6,1,2,3,4,5,6,1,2,3,4,5,6,
7,8,9,10,11,12,7,8,9,10,11,12,7,8,9,10,11,12,7,8,9,10,11,12,7,8,9,10,11,12,7,8,9,10,11,12,7,8,9,10,11,12,7,8,9,10,11,12,
13,14,15,16,17,18,13,14,15,16,17,18,13,14,15,16,17,18,13,14,15,16,17,18,13,14,15,16,17,18,13,14,15,16,17,18,13,14,15,16,17,18,13,14,15,16,17,18,
19,20,21,22,23,24,19,20,21,22,23,24,19,20,21,22,23,24,19,20,21,22,23,24,19,20,21,22,23,24,19,20,21,22,23,24,19,20,21,22,23,24,19,20,21,22,23,24,
25,26,27,28,29,30,25,26,27,28,29,30,25,26,27,28,29,30,25,26,27,28,29,30,25,26,27,28,29,30,25,26,27,28,29,30,25,26,27,28,29,30,25,26,27,28,29,30,
31,32,33,34,35,36,31,32,33,34,35,36,31,32,33,34,35,36,31,32,33,34,35,36,31,32,33,34,35,36,31,32,33,34,35,36,31,32,33,34,35,36,31,32,33,34,35,36,
1,2,3,4,5,6,1,2,3,4,5,6,1,2,3,4,5,6,1,2,3,4,5,6,1,2,3,4,5,6,1,2,3,4,5,6,1,2,3,4,5,6,1,2,3,4,5,6,
7,8,9,10,11,12,7,8,9,10,11,12,7,8,9,10,11,12,7,8,9,10,11,12,7,8,9,10,11,12,7,8,9,10,11,12,7,8,9,10,11,12,7,8,9,10,11,12,
13,14,15,16,17,18,13,14,15,16,17,18,13,14,15,16,17,18,13,14,15,16,17,18,13,14,15,16,17,18,13,14,15,16,17,18,13,14,15,16,17,18,13,14,15,16,17,18,
19,20,21,22,23,24,19,20,21,22,23,24,19,20,21,22,23,24,19,20,21,22,23,24,19,20,21,22,23,24,19,20,21,22,23,24,19,20,21,22,23,24,19,20,21,22,23,24,
25,26,27,28,29,30,25,26,27,28,29,30,25,26,27,28,29,30,25,26,27,28,29,30,25,26,27,28,29,30,25,26,27,28,29,30,25,26,27,28,29,30,25,26,27,28,29,30,
31,32,33,34,35,36,31,32,33,34,35,36,31,32,33,34,35,36,31,32,33,34,35,36,31,32,33,34,35,36,31,32,33,34,35,36,31,32,33,34,35,36,31,32,33,34,35,36,
1,2,3,4,5,6,1,2,3,4,5,6,1,2,3,4,5,6,1,2,3,4,5,6,1,2,3,4,5,6,1,2,3,4,5,6,1,2,3,4,5,6,1,2,3,4,5,6,
7,8,9,10,11,12,7,8,9,10,11,12,7,8,9,10,11,12,7,8,9,10,11,12,7,8,9,10,11,12,7,8,9,10,11,12,7,8,9,10,11,12,7,8,9,10,11,12,
13,14,15,16,17,18,13,14,15,16,17,18,13,14,15,16,17,18,13,14,15,16,17,18,13,14,15,16,17,18,13,14,15,16,17,18,13,14,15,16,17,18,13,14,15,16,17,18,
19,20,21,22,23,24,19,20,21,22,23,24,19,20,21,22,23,24,19,20,21,22,23,24,19,20,21,22,23,24,19,20,21,22,23,24,19,20,21,22,23,24,19,20,21,22,23,24,
25,26,27,28,29,30,25,26,27,28,29,30,25,26,27,28,29,30,25,26,27,28,29,30,25,26,27,28,29,30,25,26,27,28,29,30,25,26,27,28,29,30,25,26,27,28,29,30,
31,32,33,34,35,36,31,32,33,34,35,36,31,32,33,34,35,36,31,32,33,34,35,36,31,32,33,34,35,36,31,32,33,34,35,36,31,32,33,34,35,36,31,32,33,34,35,36,
1,2,3,4,5,6,1,2,3,4,5,6,1,2,3,4,5,6,1,2,3,4,5,6,1,2,3,4,5,6,1,2,3,4,5,6,1,2,3,4,5,6,1,2,3,4,5,6,
7,8,9,10,11,12,7,8,9,10,11,12,7,8,9,10,11,12,7,8,9,10,11,12,7,8,9,10,11,12,7,8,9,10,11,12,7,8,9,10,11,12,7,8,9,10,11,12,
13,14,15,16,17,18,13,14,15,16,17,18,13,14,15,16,17,18,13,14,15,16,17,18,13,14,15,16,17,18,13,14,15,16,17,18,13,14,15,16,17,18,13,14,15,16,17,18,
19,20,21,22,23,24,19,20,21,22,23,24,19,20,21,22,23,24,19,20,21,22,23,24,19,20,21,22,23,24,19,20,21,22,23,24,19,20,21,22,23,24,19,20,21,22,23,24,
25,26,27,28,29,30,25,26,27,28,29,30,25,26,27,28,29,30,25,26,27,28,29,30,25,26,27,28,29,30,25,26,27,28,29,30,25,26,27,28,29,30,25,26,27,28,29,30,
31,32,33,34,35,36,31,32,33,34,35,36,31,32,33,34,35,36,31,32,33,34,35,36,31,32,33,34,35,36,31,32,33,34,35,36,31,32,33,34,35,36,31,32,33,34,35,36
</data>
 </layer>
 <layer id="3" name="pedastels" width="48" height="39">
  <data encoding="csv">
0,0,0,0,0,0,0,0,0,0,0,0,0,0,0,0,0,0,0,0,0,0,0,0,0,0,0,0,0,0,0,0,0,0,0,0,0,0,0,0,0,0,0,0,0,0,0,0,
0,0,0,0,0,0,0,0,0,0,0,0,0,0,0,0,0,0,0,0,0,0,0,0,0,0,0,0,0,0,0,0,0,0,0,0,0,0,0,0,0,0,0,0,0,0,0,0,
0,0,0,0,0,0,0,0,0,0,0,0,0,0,0,0,0,0,0,0,0,0,0,0,0,0,0,0,0,0,0,0,0,0,0,0,0,0,0,0,0,0,0,0,0,0,0,0,
0,0,0,0,0,0,0,0,0,0,0,0,0,0,0,0,0,0,0,0,0,0,0,0,0,0,0,0,0,0,0,0,0,0,0,0,0,0,0,0,0,0,0,0,0,0,0,0,
0,0,0,0,0,0,0,0,0,0,0,0,0,0,0,0,0,0,0,0,0,0,0,0,0,0,0,0,0,0,0,0,0,0,0,0,0,0,0,0,0,0,0,0,0,0,0,0,
0,0,0,0,0,0,0,0,0,0,0,0,0,0,0,0,0,0,0,0,0,0,0,0,0,0,0,0,0,0,0,0,0,0,0,0,0,0,0,0,0,0,0,0,0,0,0,0,
0,0,0,0,0,0,0,0,0,0,0,0,0,0,0,0,0,0,0,0,0,0,0,0,0,0,0,0,0,0,0,0,0,0,0,0,0,0,0,0,0,0,0,0,0,0,0,0,
0,0,0,0,0,0,0,0,0,0,0,0,0,0,0,0,0,0,0,0,0,0,0,0,0,0,0,0,0,0,0,0,0,0,0,0,0,0,0,0,0,0,0,0,0,0,0,0,
0,0,0,0,0,0,0,0,0,0,0,0,0,0,0,0,0,0,0,0,0,0,0,0,0,0,0,0,0,0,0,0,0,0,0,0,0,0,0,0,0,0,0,0,0,0,0,0,
0,0,0,0,0,0,0,0,0,0,0,0,0,0,0,0,0,0,0,0,0,0,0,0,0,0,0,0,0,0,0,0,0,0,0,0,0,0,0,0,0,0,0,0,0,0,0,0,
0,0,0,0,0,0,0,0,0,0,0,0,0,0,0,0,0,0,0,0,0,0,0,0,0,0,0,0,0,0,0,0,0,0,0,0,0,0,0,0,0,0,0,0,0,0,0,0,
0,0,0,0,0,0,57,58,0,0,0,0,0,0,0,0,0,0,0,0,0,0,0,0,0,0,0,0,0,0,0,0,0,0,0,0,0,0,0,0,57,58,0,0,0,0,0,0,
0,0,0,0,0,0,59,60,0,0,0,0,0,0,0,0,0,0,0,0,0,0,0,0,0,0,0,0,0,0,0,0,0,0,0,0,0,0,0,0,59,60,0,0,0,0,0,0,
0,0,0,0,0,0,61,62,0,0,0,0,0,0,0,0,0,0,0,0,0,0,0,0,0,0,0,0,0,0,0,0,0,0,0,0,0,0,0,0,61,62,0,0,0,0,0,0,
0,0,0,0,0,0,63,64,0,0,0,0,0,0,0,0,0,0,0,0,0,0,0,0,0,0,0,0,0,0,0,0,0,0,0,0,0,0,0,0,63,64,0,0,0,0,0,0,
0,0,0,0,0,0,0,0,0,0,0,0,0,0,0,0,0,0,0,0,0,0,0,0,0,0,0,0,0,0,0,0,0,0,0,0,0,0,0,0,0,0,0,0,0,0,0,0,
0,0,0,0,0,0,0,0,0,0,0,0,0,0,0,0,0,0,0,0,0,0,0,0,0,0,0,0,0,0,0,0,0,0,0,0,0,0,0,0,0,0,0,0,0,0,0,0,
0,0,0,0,0,0,0,0,0,0,0,0,0,0,0,0,0,0,0,0,0,0,0,0,0,0,0,0,0,0,0,0,0,0,0,0,0,0,0,0,0,0,0,0,0,0,0,0,
0,0,0,0,0,0,0,0,0,0,0,0,0,0,0,0,0,0,0,0,0,0,0,0,0,0,0,0,0,0,0,0,0,0,0,0,0,0,0,0,0,0,0,0,0,0,0,0,
0,0,0,0,0,0,0,0,0,0,0,0,0,0,0,0,0,0,0,0,0,0,0,0,0,0,0,0,0,0,0,0,0,0,0,0,0,0,0,0,0,0,0,0,0,0,0,0,
0,0,0,0,0,0,0,0,0,0,0,0,0,0,0,0,0,0,0,0,0,0,0,0,0,0,0,0,0,0,0,0,0,0,0,0,0,0,0,0,0,0,0,0,0,0,0,0,
0,0,0,0,0,0,57,58,0,0,0,0,0,0,0,0,0,0,0,0,0,0,0,0,0,0,0,0,0,0,0,0,0,0,0,0,0,0,0,0,57,58,0,0,0,0,0,0,
0,0,0,0,0,0,59,60,0,0,0,0,0,0,0,0,0,0,0,0,0,0,0,0,0,0,0,0,0,0,0,0,0,0,0,0,0,0,0,0,59,60,0,0,0,0,0,0,
0,0,0,0,0,0,61,62,0,0,0,0,0,0,0,0,0,0,0,0,0,0,0,0,0,0,0,0,0,0,0,0,0,0,0,0,0,0,0,0,61,62,0,0,0,0,0,0,
0,0,0,0,0,0,63,64,0,0,0,0,0,0,0,0,0,0,0,0,0,0,0,0,0,0,0,0,0,0,0,0,0,0,0,0,0,0,0,0,63,64,0,0,0,0,0,0,
0,0,0,0,0,0,0,0,0,0,0,0,0,0,0,0,0,0,0,0,0,0,0,0,0,0,0,0,0,0,0,0,0,0,0,0,0,0,0,0,0,0,0,0,0,0,0,0,
0,0,0,0,0,0,0,0,0,0,0,0,0,0,0,0,0,0,0,0,0,0,0,0,0,0,0,0,0,0,0,0,0,0,0,0,0,0,0,0,0,0,0,0,0,0,0,0,
0,0,0,0,0,0,0,0,0,0,0,0,0,0,0,0,0,0,0,0,0,0,0,0,0,0,0,0,0,0,0,0,0,0,0,0,0,0,0,0,0,0,0,0,0,0,0,0,
0,0,0,0,0,0,0,0,0,0,0,0,0,0,0,0,0,0,0,0,0,0,0,0,0,0,0,0,0,0,0,0,0,0,0,0,0,0,0,0,0,0,0,0,0,0,0,0,
0,0,0,0,0,0,0,0,0,0,0,0,0,0,0,0,0,0,0,0,0,0,0,0,0,0,0,0,0,0,0,0,0,0,0,0,0,0,0,0,0,0,0,0,0,0,0,0,
0,0,0,0,0,0,0,0,0,0,0,0,0,0,0,0,0,0,0,0,0,0,0,0,0,0,0,0,0,0,0,0,0,0,0,0,0,0,0,0,0,0,0,0,0,0,0,0,
0,0,0,0,0,0,0,0,0,0,0,0,0,0,0,0,0,0,0,0,0,0,0,0,0,0,0,0,0,0,0,0,0,0,0,0,0,0,0,0,0,0,0,0,0,0,0,0,
0,0,0,0,0,0,57,58,0,0,0,0,0,0,0,0,0,0,0,0,0,0,0,0,0,0,0,0,0,0,0,0,0,0,0,0,0,0,0,0,57,58,0,0,0,0,0,0,
0,0,0,0,0,0,59,60,0,0,0,0,0,0,0,0,0,0,0,0,0,0,0,0,0,0,0,0,0,0,0,0,0,0,0,0,0,0,0,0,59,60,0,0,0,0,0,0,
0,0,0,0,0,0,61,62,0,0,0,0,0,0,0,0,0,0,0,0,0,0,0,0,0,0,0,0,0,0,0,0,0,0,0,0,0,0,0,0,61,62,0,0,0,0,0,0,
0,0,0,0,0,0,63,64,0,0,0,0,0,0,0,0,0,0,0,0,0,0,0,0,0,0,0,0,0,0,0,0,0,0,0,0,0,0,0,0,63,64,0,0,0,0,0,0,
0,0,0,0,0,0,0,0,0,0,0,0,0,0,0,0,0,0,0,0,0,0,0,0,0,0,0,0,0,0,0,0,0,0,0,0,0,0,0,0,0,0,0,0,0,0,0,0,
0,0,0,0,0,0,0,0,0,0,0,0,0,0,0,0,0,0,0,0,0,0,0,0,0,0,0,0,0,0,0,0,0,0,0,0,0,0,0,0,0,0,0,0,0,0,0,0,
0,0,0,0,0,0,0,0,0,0,0,0,0,0,0,0,0,0,0,0,0,0,0,0,0,0,0,0,0,0,0,0,0,0,0,0,0,0,0,0,0,0,0,0,0,0,0,0
</data>
 </layer>
 <layer id="4" name="pedastels 2" width="48" height="39">
  <data encoding="csv">
0,0,0,0,0,0,0,0,0,0,0,0,0,0,0,0,0,0,0,0,0,0,0,0,0,0,0,0,0,0,0,0,0,0,0,0,0,0,0,0,0,0,0,0,0,0,0,0,
0,0,0,0,0,0,0,0,0,0,0,0,0,0,0,0,0,0,0,0,0,0,0,0,0,0,0,0,0,0,0,0,0,0,0,0,0,0,0,0,0,0,0,0,0,0,0,0,
0,0,0,0,0,0,0,0,0,0,0,0,0,0,0,0,0,0,0,0,0,0,0,0,0,0,0,0,0,0,0,0,0,0,0,0,0,0,0,0,0,0,0,0,0,0,0,0,
0,0,0,0,0,0,0,0,0,0,0,0,0,0,0,0,0,0,0,0,0,0,0,0,0,0,0,0,0,0,0,0,0,0,0,0,0,0,0,0,0,0,0,0,0,0,0,0,
0,0,0,0,0,0,0,0,0,0,0,0,0,0,0,0,0,0,0,0,0,0,0,0,0,0,0,0,0,0,0,0,0,0,0,0,0,0,0,0,0,0,0,0,0,0,0,0,
0,0,0,0,0,0,0,0,0,0,0,0,0,0,0,0,0,0,0,0,0,0,0,0,0,0,0,0,0,0,0,0,0,0,0,0,0,0,0,0,0,0,0,0,0,0,0,0,
0,0,0,0,0,0,0,0,0,0,0,0,0,0,0,0,0,0,0,0,0,0,0,0,0,0,0,0,0,0,0,0,0,0,0,0,0,0,0,0,0,0,0,0,0,0,0,0,
0,0,0,0,0,0,0,0,0,0,0,0,0,0,0,0,0,0,0,0,0,0,0,0,0,0,0,0,0,0,0,0,0,0,0,0,0,0,0,0,0,0,0,0,0,0,0,0,
0,0,0,0,0,0,0,0,0,0,0,0,0,0,0,0,0,0,0,0,0,0,0,0,0,0,0,0,0,0,0,0,0,0,0,0,0,0,0,0,0,0,0,0,0,0,0,0,
0,0,0,0,0,0,0,0,0,0,0,0,0,0,0,0,0,0,0,0,0,0,0,0,0,0,0,0,0,0,0,0,0,0,0,0,0,0,0,0,0,0,0,0,0,0,0,0,
0,0,0,0,0,0,0,0,0,0,0,0,0,0,0,0,0,0,0,0,0,0,0,0,0,0,0,0,0,0,0,0,0,0,0,0,0,0,0,0,0,0,0,0,0,0,0,0,
0,0,0,0,0,0,57,58,0,0,0,0,0,0,0,0,0,0,0,0,0,0,0,0,0,0,0,0,0,0,0,0,0,0,0,0,0,0,0,0,57,58,0,0,0,0,0,0,
0,0,0,0,0,0,59,60,0,0,0,0,0,0,0,0,0,0,0,0,0,0,0,0,0,0,0,0,0,0,0,0,0,0,0,0,0,0,0,0,59,60,0,0,0,0,0,0,
0,0,0,0,0,0,0,0,0,0,0,0,0,0,0,0,0,0,0,0,0,0,0,0,0,0,0,0,0,0,0,0,0,0,0,0,0,0,0,0,0,0,0,0,0,0,0,0,
0,0,0,0,0,0,0,0,0,0,0,0,0,0,0,0,0,0,0,0,0,0,0,0,0,0,0,0,0,0,0,0,0,0,0,0,0,0,0,0,0,0,0,0,0,0,0,0,
0,0,0,0,0,0,0,0,0,0,0,0,0,0,0,0,0,0,0,0,0,0,0,0,0,0,0,0,0,0,0,0,0,0,0,0,0,0,0,0,0,0,0,0,0,0,0,0,
0,0,0,0,0,0,0,0,0,0,0,0,0,0,0,0,0,0,0,0,0,0,0,0,0,0,0,0,0,0,0,0,0,0,0,0,0,0,0,0,0,0,0,0,0,0,0,0,
0,0,0,0,0,0,0,0,0,0,0,0,0,0,0,0,0,0,0,0,0,0,0,0,0,0,0,0,0,0,0,0,0,0,0,0,0,0,0,0,0,0,0,0,0,0,0,0,
0,0,0,0,0,0,0,0,0,0,0,0,0,0,0,0,0,0,0,0,0,0,0,0,0,0,0,0,0,0,0,0,0,0,0,0,0,0,0,0,0,0,0,0,0,0,0,0,
0,0,0,0,0,0,0,0,0,0,0,0,0,0,0,0,0,0,0,0,0,0,0,0,0,0,0,0,0,0,0,0,0,0,0,0,0,0,0,0,0,0,0,0,0,0,0,0,
0,0,0,0,0,0,0,0,0,0,0,0,0,0,0,0,0,0,0,0,0,0,0,0,0,0,0,0,0,0,0,0,0,0,0,0,0,0,0,0,0,0,0,0,0,0,0,0,
0,0,0,0,0,0,57,58,0,0,0,0,0,0,0,0,0,0,0,0,0,0,0,0,0,0,0,0,0,0,0,0,0,0,0,0,0,0,0,0,57,58,0,0,0,0,0,0,
0,0,0,0,0,0,59,60,0,0,0,0,0,0,0,0,0,0,0,0,0,0,0,0,0,0,0,0,0,0,0,0,0,0,0,0,0,0,0,0,59,60,0,0,0,0,0,0,
0,0,0,0,0,0,0,0,0,0,0,0,0,0,0,0,0,0,0,0,0,0,0,0,0,0,0,0,0,0,0,0,0,0,0,0,0,0,0,0,0,0,0,0,0,0,0,0,
0,0,0,0,0,0,0,0,0,0,0,0,0,0,0,0,0,0,0,0,0,0,0,0,0,0,0,0,0,0,0,0,0,0,0,0,0,0,0,0,0,0,0,0,0,0,0,0,
0,0,0,0,0,0,0,0,0,0,0,0,0,0,0,0,0,0,0,0,0,0,0,0,0,0,0,0,0,0,0,0,0,0,0,0,0,0,0,0,0,0,0,0,0,0,0,0,
0,0,0,0,0,0,0,0,0,0,0,0,0,0,0,0,0,0,0,0,0,0,0,0,0,0,0,0,0,0,0,0,0,0,0,0,0,0,0,0,0,0,0,0,0,0,0,0,
0,0,0,0,0,0,0,0,0,0,0,0,0,0,0,0,0,0,0,0,0,0,0,0,0,0,0,0,0,0,0,0,0,0,0,0,0,0,0,0,0,0,0,0,0,0,0,0,
0,0,0,0,0,0,0,0,0,0,0,0,0,0,0,0,0,0,0,0,0,0,0,0,0,0,0,0,0,0,0,0,0,0,0,0,0,0,0,0,0,0,0,0,0,0,0,0,
0,0,0,0,0,0,0,0,0,0,0,0,0,0,0,0,0,0,0,0,0,0,0,0,0,0,0,0,0,0,0,0,0,0,0,0,0,0,0,0,0,0,0,0,0,0,0,0,
0,0,0,0,0,0,0,0,0,0,0,0,0,0,0,0,0,0,0,0,0,0,0,0,0,0,0,0,0,0,0,0,0,0,0,0,0,0,0,0,0,0,0,0,0,0,0,0,
0,0,0,0,0,0,0,0,0,0,0,0,0,0,0,0,0,0,0,0,0,0,0,0,0,0,0,0,0,0,0,0,0,0,0,0,0,0,0,0,0,0,0,0,0,0,0,0,
0,0,0,0,0,0,57,58,0,0,0,0,0,0,0,0,0,0,0,0,0,0,0,0,0,0,0,0,0,0,0,0,0,0,0,0,0,0,0,0,57,58,0,0,0,0,0,0,
0,0,0,0,0,0,59,60,0,0,0,0,0,0,0,0,0,0,0,0,0,0,0,0,0,0,0,0,0,0,0,0,0,0,0,0,0,0,0,0,59,60,0,0,0,0,0,0,
0,0,0,0,0,0,0,0,0,0,0,0,0,0,0,0,0,0,0,0,0,0,0,0,0,0,0,0,0,0,0,0,0,0,0,0,0,0,0,0,0,0,0,0,0,0,0,0,
0,0,0,0,0,0,0,0,0,0,0,0,0,0,0,0,0,0,0,0,0,0,0,0,0,0,0,0,0,0,0,0,0,0,0,0,0,0,0,0,0,0,0,0,0,0,0,0,
0,0,0,0,0,0,0,0,0,0,0,0,0,0,0,0,0,0,0,0,0,0,0,0,0,0,0,0,0,0,0,0,0,0,0,0,0,0,0,0,0,0,0,0,0,0,0,0,
0,0,0,0,0,0,0,0,0,0,0,0,0,0,0,0,0,0,0,0,0,0,0,0,0,0,0,0,0,0,0,0,0,0,0,0,0,0,0,0,0,0,0,0,0,0,0,0,
0,0,0,0,0,0,0,0,0,0,0,0,0,0,0,0,0,0,0,0,0,0,0,0,0,0,0,0,0,0,0,0,0,0,0,0,0,0,0,0,0,0,0,0,0,0,0,0
</data>
 </layer>
 <objectgroup id="2" name="Object Layer 1">
  <object id="1" name="player" x="376" y="138">
   <point/>
  </object>
  <object id="8" type="obj" x="0" y="0" width="768" height="48"/>
  <object id="9" type="obj" x="1.80327" y="46.0184" width="577.981" height="4.49475" rotation="90.0593"/>
  <object id="10" type="obj" x="772" y="46" width="577.981" height="4.49475" rotation="90.0593"/>
  <object id="12" type="obj" x="-2" y="622" width="768" height="9"/>
  <object id="13" type="obj" x="639" y="206" width="33" height="34"/>
  <object id="14" type="obj" x="639" y="364" width="33" height="37"/>
  <object id="15" type="obj" x="640" y="540" width="33" height="37"/>
  <object id="16" type="obj" x="95" y="542" width="33" height="35"/>
  <object id="17" type="obj" x="95" y="365" width="33" height="35"/>
  <object id="18" type="obj" x="95" y="206" width="33" height="35"/>
  <object id="22" name="ChristTheRedeemer" type="sculpture" x="630" y="164" width="53" height="84"/>
  <object id="25" name="Pieta" type="sculpture" x="630" y="325" width="53" height="84"/>
  <object id="26" name="David" type="sculpture" x="630" y="501" width="53" height="84"/>
  <object id="27" name="Medusa" type="sculpture" x="85" y="165" width="53" height="84"/>
  <object id="28" name="VenusDeMilo" type="sculpture" x="85" y="324" width="53" height="84"/>
  <object id="29" name="TheThinker" type="sculpture" x="85" y="501" width="53" height="84"/>
 </objectgroup>
</map>
